; generated by Slic3r 1.3.1-dev (Build 2d100c4) on 2020-05-15 at 06:24:14

; external perimeters extrusion width = 0.44mm (3.91mm^3/s)
; perimeters extrusion width = 0.56mm (5.65mm^3/s)
; infill extrusion width = 0.50mm (5.02mm^3/s)
; solid infill extrusion width = 0.56mm (5.65mm^3/s)
; top infill extrusion width = 0.56mm (5.65mm^3/s)

M107
M190 S60 ; set bed temperature and wait for it to be reached
M104 S215 ; set temperature
G28 ; home all axes
G92 E0.0 ; reset extruder
; Filament gcode

M109 S215 ; set temperature and wait for it to be reached
G21 ; set units to millimeters
G90 ; use absolute coordinates
M83 ; use relative distances for extrusion
G1 E-1.30000 F3600.00000
G1 Z0.300 F7800.000
G1 X63.506 Y59.106 F7800.000
G1 E1.30000 F3600.00000
M201 X500 Y500
M204 P500 T500
G1 F2160.000
G1 X65.857 Y57.319 E0.17519
G1 X68.600 Y56.224 E0.17519
G1 X71.250 Y55.899 E0.15840
G1 X108.750 Y55.899 E2.22457
G1 X111.676 Y56.297 E0.17519
G1 X114.390 Y57.463 E0.17519
G1 X116.494 Y59.106 E0.15840
G1 X120.894 Y63.506 E0.36913
G1 X122.681 Y65.857 E0.17519
G1 X123.776 Y68.600 E0.17519
G1 X124.101 Y71.250 E0.15840
G1 X124.101 Y108.750 E2.22457
G1 X123.703 Y111.676 E0.17519
G1 X122.537 Y114.390 E0.17519
G1 X120.894 Y116.494 E0.15840
G1 X116.494 Y120.894 E0.36913
G1 X114.143 Y122.681 E0.17519
G1 X111.400 Y123.776 E0.17519
G1 X108.750 Y124.101 E0.15840
G1 X71.250 Y124.101 E2.22457
G1 X68.324 Y123.703 E0.17519
G1 X65.610 Y122.537 E0.17519
G1 X63.506 Y120.894 E0.15840
G1 X59.106 Y116.494 E0.36913
G1 X57.319 Y114.143 E0.17519
G1 X56.224 Y111.400 E0.17519
G1 X55.899 Y108.750 E0.15840
G1 X55.899 Y71.250 E2.22457
G1 X56.297 Y68.324 E0.17519
G1 X57.463 Y65.610 E0.17519
G1 X59.106 Y63.506 E0.15840
G1 X63.464 Y59.149 E0.36557
G1 X63.843 Y59.443 F7800.000
G1 F2160.000
G1 X66.147 Y57.701 E0.17132
G1 X68.839 Y56.656 E0.17132
G1 X71.250 Y56.374 E0.14401
G1 X108.750 Y56.374 E2.22457
G1 X111.610 Y56.772 E0.17132
G1 X114.253 Y57.936 E0.17132
G1 X116.157 Y59.443 E0.14401
G1 X120.557 Y63.843 E0.36913
G1 X122.299 Y66.147 E0.17132
G1 X123.344 Y68.839 E0.17132
G1 X123.626 Y71.250 E0.14401
G1 X123.626 Y108.750 E2.22457
G1 X123.228 Y111.610 E0.17132
G1 X122.064 Y114.253 E0.17132
G1 X120.557 Y116.157 E0.14401
G1 X116.157 Y120.557 E0.36913
G1 X113.853 Y122.299 E0.17132
G1 X111.161 Y123.344 E0.17132
G1 X108.750 Y123.626 E0.14401
G1 X71.250 Y123.626 E2.22457
G1 X68.390 Y123.228 E0.17132
G1 X65.747 Y122.064 E0.17132
G1 X63.843 Y120.557 E0.14401
G1 X59.443 Y116.157 E0.36913
G1 X57.701 Y113.853 E0.17132
G1 X56.656 Y111.161 E0.17132
G1 X56.374 Y108.750 E0.14401
G1 X56.374 Y71.250 E2.22457
G1 X56.772 Y68.390 E0.17132
G1 X57.936 Y65.747 E0.17132
G1 X59.443 Y63.843 E0.14401
G1 X63.800 Y59.485 E0.36557
G1 F6240.000
G1 X65.594 Y58.122 E-1.23500
G1 E-0.06500 F3600.00000
G1 X97.654 Y92.246 F7800.000
G1 E1.30000 F3600.00000
G1 F1080.000
G1 X93.290 Y92.246 E0.25891
G1 X93.290 Y87.754 E0.26643
G1 X97.654 Y87.754 E0.25891
G1 X97.654 Y92.186 E0.26287
G1 X97.179 Y91.770 F7800.000
G1 F1080.000
G1 X93.766 Y91.770 E0.20248
G1 X93.766 Y88.230 E0.21000
G1 X97.179 Y88.230 E0.20248
G1 X97.179 Y91.710 E0.20644
G1 X97.280 Y92.157 F7800.000
G1 F6240.000
G1 X94.926 Y91.750 E-1.23500
G1 E-0.06500 F3600.00000
G1 X86.710 Y92.246 F7800.000
G1 E1.30000 F3600.00000
G1 F1080.000
G1 X82.346 Y92.246 E0.25891
G1 X82.346 Y87.754 E0.26643
G1 X86.710 Y87.754 E0.25891
G1 X86.710 Y92.186 E0.26287
G1 X86.234 Y91.770 F7800.000
G1 F1080.000
G1 X82.821 Y91.770 E0.20248
G1 X82.821 Y88.230 E0.21000
G1 X86.234 Y88.230 E0.20248
G1 X86.234 Y91.710 E0.20644
G1 X86.336 Y92.157 F7800.000
G1 F6240.000
G1 X83.981 Y91.750 E-1.23500
G1 E-0.06500 F3600.00000
G1 X67.596 Y102.680 F7800.000
G1 E1.30000 F3600.00000
G1 F1620.000
G1 X70.183 Y102.680 E0.15347
G1 X72.790 Y102.126 E0.15812
G1 X75.225 Y101.042 E0.15812
G1 X77.381 Y99.475 E0.15812
G1 X79.165 Y97.494 E0.15812
G1 X80.497 Y95.186 E0.15812
G1 X81.321 Y92.651 E0.15812
G1 X81.600 Y90.000 E0.15812
G1 X81.321 Y87.349 E0.15812
G1 X80.497 Y84.814 E0.15812
G1 X79.165 Y82.506 E0.15812
G1 X77.381 Y80.525 E0.15812
G1 X75.225 Y78.958 E0.15812
G1 X72.790 Y77.874 E0.15812
G1 X70.183 Y77.320 E0.15812
G1 X67.596 Y77.320 E0.15347
G1 X67.596 Y71.559 E0.34177
G1 X71.559 Y67.596 E0.33249
G1 X77.382 Y67.596 E0.34545
G1 X77.250 Y68.850 E0.07482
G1 X77.529 Y71.501 E0.15812
G1 X78.353 Y74.036 E0.15812
G1 X79.685 Y76.344 E0.15812
G1 X81.469 Y78.325 E0.15812
G1 X83.625 Y79.892 E0.15812
G1 X86.060 Y80.976 E0.15812
G1 X88.667 Y81.530 E0.15812
G1 X91.333 Y81.530 E0.15812
G1 X93.940 Y80.976 E0.15812
G1 X96.375 Y79.892 E0.15812
G1 X98.531 Y78.325 E0.15812
G1 X100.315 Y76.344 E0.15812
G1 X101.647 Y74.036 E0.15812
G1 X102.471 Y71.501 E0.15812
G1 X102.750 Y68.850 E0.15812
G1 X102.618 Y67.596 E0.07482
G1 X108.441 Y67.596 E0.34545
G1 X112.404 Y71.559 E0.33249
G1 X112.404 Y77.320 E0.34177
G1 X109.817 Y77.320 E0.15347
G1 X107.210 Y77.874 E0.15812
G1 X104.775 Y78.958 E0.15812
G1 X102.619 Y80.525 E0.15812
G1 X100.835 Y82.506 E0.15812
G1 X99.503 Y84.814 E0.15812
G1 X98.679 Y87.349 E0.15812
G1 X98.400 Y90.000 E0.15812
G1 X98.679 Y92.651 E0.15812
G1 X99.503 Y95.186 E0.15812
G1 X100.835 Y97.494 E0.15812
G1 X102.619 Y99.475 E0.15812
G1 X104.775 Y101.042 E0.15812
G1 X107.210 Y102.126 E0.15812
G1 X109.817 Y102.680 E0.15812
G1 X112.404 Y102.680 E0.15347
G1 X112.404 Y108.441 E0.34177
G1 X108.441 Y112.404 E0.33249
G1 X102.618 Y112.404 E0.34545
G1 X102.750 Y111.150 E0.07482
G1 X102.471 Y108.499 E0.15812
G1 X101.647 Y105.964 E0.15812
G1 X100.315 Y103.656 E0.15812
G1 X98.531 Y101.675 E0.15812
G1 X96.375 Y100.108 E0.15812
G1 X93.940 Y99.024 E0.15812
G1 X91.333 Y98.470 E0.15812
G1 X88.667 Y98.470 E0.15812
G1 X86.060 Y99.024 E0.15812
G1 X83.625 Y100.108 E0.15812
G1 X81.469 Y101.675 E0.15812
G1 X79.685 Y103.656 E0.15812
G1 X78.353 Y105.964 E0.15812
G1 X77.529 Y108.499 E0.15812
G1 X77.250 Y111.150 E0.15812
G1 X77.382 Y112.404 E0.07482
G1 X71.559 Y112.404 E0.34545
G1 X67.596 Y108.441 E0.33249
G1 X67.596 Y102.740 E0.33821
G1 X67.120 Y102.109 F7800.000
G1 F1458.000
G1 X67.567 Y102.204 E0.02713
G1 X70.133 Y102.204 E0.15218
G1 X72.642 Y101.671 E0.15219
G1 X74.986 Y100.627 E0.15219
G1 X77.061 Y99.119 E0.15219
G1 X78.778 Y97.213 E0.15219
G1 X80.061 Y94.991 E0.15219
G1 X80.853 Y92.551 E0.15219
G1 X81.121 Y90.000 E0.15219
G1 X80.853 Y87.449 E0.15219
G1 X80.061 Y85.009 E0.15219
G1 X78.778 Y82.787 E0.15219
G1 X77.061 Y80.881 E0.15219
G1 X74.986 Y79.373 E0.15219
G1 X72.642 Y78.329 E0.15219
G1 X70.133 Y77.796 E0.15219
G1 X67.567 Y77.796 E0.15218
G1 X67.120 Y77.891 E0.02713
G1 X67.120 Y71.362 E0.38731
G1 X71.362 Y67.120 E0.35586
G1 X77.910 Y67.120 E0.38847
G1 X77.729 Y68.850 E0.10319
G1 X77.997 Y71.401 E0.15218
G1 X78.789 Y73.841 E0.15219
G1 X80.072 Y76.063 E0.15219
G1 X81.789 Y77.969 E0.15219
G1 X83.864 Y79.477 E0.15219
G1 X86.208 Y80.521 E0.15219
G1 X88.717 Y81.054 E0.15219
G1 X91.283 Y81.054 E0.15219
G1 X93.792 Y80.521 E0.15219
G1 X96.136 Y79.477 E0.15219
G1 X98.211 Y77.969 E0.15219
G1 X99.928 Y76.063 E0.15219
G1 X101.211 Y73.841 E0.15219
G1 X102.003 Y71.401 E0.15219
G1 X102.271 Y68.850 E0.15218
G1 X102.090 Y67.120 E0.10319
G1 X108.638 Y67.120 E0.38847
G1 X112.880 Y71.362 E0.35586
G1 X112.880 Y77.891 E0.38731
G1 X112.433 Y77.796 E0.02713
G1 X109.867 Y77.796 E0.15218
G1 X107.358 Y78.329 E0.15219
G1 X105.014 Y79.373 E0.15219
G1 X102.939 Y80.881 E0.15219
G1 X101.222 Y82.787 E0.15219
G1 X99.939 Y85.009 E0.15219
G1 X99.147 Y87.449 E0.15219
G1 X98.879 Y90.000 E0.15219
G1 X99.147 Y92.551 E0.15219
G1 X99.939 Y94.991 E0.15219
G1 X101.222 Y97.213 E0.15219
G1 X102.939 Y99.119 E0.15219
G1 X105.014 Y100.627 E0.15219
G1 X107.358 Y101.671 E0.15219
G1 X109.867 Y102.204 E0.15219
G1 X112.433 Y102.204 E0.15218
G1 X112.880 Y102.109 E0.02713
G1 X112.880 Y108.638 E0.38731
G1 X108.638 Y112.880 E0.35586
G1 X102.090 Y112.880 E0.38847
G1 X102.271 Y111.150 E0.10319
G1 X102.003 Y108.599 E0.15218
G1 X101.211 Y106.159 E0.15219
G1 X99.928 Y103.937 E0.15219
G1 X98.211 Y102.031 E0.15219
G1 X96.136 Y100.523 E0.15219
G1 X93.792 Y99.479 E0.15219
G1 X91.283 Y98.946 E0.15219
G1 X88.717 Y98.946 E0.15219
G1 X86.208 Y99.479 E0.15219
G1 X83.864 Y100.523 E0.15219
G1 X81.789 Y102.031 E0.15219
G1 X80.072 Y103.937 E0.15219
G1 X78.789 Y106.159 E0.15219
G1 X77.997 Y108.599 E0.15219
G1 X77.729 Y111.150 E0.15218
G1 X77.910 Y112.880 E0.10319
G1 X71.362 Y112.880 E0.38847
G1 X67.120 Y108.638 E0.35586
G1 X67.120 Y102.169 E0.38375
G1 X67.463 Y102.314 F7800.000
G1 F6240.000
G1 X67.567 Y102.204 E-0.24592
G1 F6240.000
G1 X69.372 Y102.204 E-0.98908
G1 E-0.06500 F3600.00000
G1 X81.843 Y92.483 F7800.000
G1 E1.30000 F3600.00000
G1 F360.000
G1 X81.895 Y91.496 E0.05400
G1 F360.000
G1 X81.947 Y90.508 E0.04253
G1 F360.000
G1 X81.973 Y89.986 E0.01641
G1 X81.921 Y88.998 E0.03105
G1 F360.000
G1 X81.869 Y88.010 E0.04253
G1 F360.000
G1 X81.843 Y87.517 E0.02700
G1 F6240.000
G1 X81.869 Y88.010 E-0.27105
G1 E-1.02895 F3600.00000
G1 X98.105 Y88.504 F7800.000
G1 E1.30000 F3600.00000
G1 F360.000
G1 X98.053 Y89.492 E0.04253
G1 F360.000
G1 X98.027 Y90.014 E0.01641
G1 X98.079 Y91.002 E0.03105
G1 F360.000
G1 X98.131 Y91.990 E0.04253
G1 F360.000
G1 X98.156 Y92.483 E0.02700
G1 F6240.000
G1 X98.131 Y91.990 E-0.27105
G1 E-1.02895 F3600.00000
G1 X98.105 Y88.504 F7800.000
G1 E1.30000 F3600.00000
G1 F360.000
G1 X98.156 Y87.517 E0.05400
G1 X97.980 Y87.084 F7800.000
G1 F1620.000
G1 X98.453 Y86.611 E0.03983
G1 X98.778 Y85.611 E0.06262
G1 X97.059 Y87.329 E0.14469
G1 X96.384 Y87.329 E0.04020
G1 X99.103 Y84.611 E0.22892
G1 X100.000 Y83.038 E0.10782
G1 X95.709 Y87.329 E0.36135
G1 X95.034 Y87.329 E0.04020
G1 F6240.000
G1 X95.709 Y87.329 E-0.37005
G1 F6240.000
G1 X96.825 Y86.213 E-0.86495
G1 E-0.06500 F3600.00000
G1 X87.135 Y89.827 F7800.000
G1 E1.30000 F3600.00000
G1 F1620.000
G1 X96.818 Y80.144 E0.81542
G1 X96.664 Y80.255 E0.01132
G1 X95.523 Y80.763 E0.07439
G1 X87.135 Y89.151 E0.70636
G1 X87.135 Y88.476 E0.04020
G1 X94.306 Y81.305 E0.60388
G1 X94.138 Y81.380 E0.01096
G1 X93.399 Y81.537 E0.04499
G1 X87.135 Y87.801 E0.52749
G1 X87.135 Y87.329 E0.02809
G1 X86.932 Y87.329 E0.01211
G1 X92.542 Y81.719 E0.47241
G1 X91.684 Y81.902 E0.05220
G1 X86.257 Y87.329 E0.45706
G1 X85.581 Y87.329 E0.04020
G1 X90.956 Y81.955 E0.45257
G1 X90.281 Y81.955 E0.04020
G1 X84.906 Y87.329 E0.45257
G1 X84.231 Y87.329 E0.04020
G1 X89.605 Y81.955 E0.45257
G1 X88.930 Y81.955 E0.04020
G1 X83.556 Y87.329 E0.45257
G1 X82.881 Y87.329 E0.04020
G1 X88.327 Y81.883 E0.45866
G1 X87.771 Y81.764 E0.03390
G1 X82.480 Y87.055 E0.44551
G1 X81.768 Y87.092 E0.04249
G1 X87.214 Y81.646 E0.45863
G1 X86.657 Y81.528 E0.03390
G1 X81.529 Y86.656 E0.43183
G1 X81.363 Y86.146 E0.03191
G1 X86.100 Y81.409 E0.39888
G1 X85.963 Y81.380 E0.00836
G1 X85.611 Y81.223 E0.02294
G1 X81.198 Y85.636 E0.37163
G1 X81.032 Y85.127 E0.03191
G1 X85.144 Y81.015 E0.34623
G1 X84.676 Y80.807 E0.03045
G1 X80.858 Y84.626 E0.32154
G1 X80.611 Y84.198 E0.02943
G1 X84.209 Y80.599 E0.30301
G1 X83.742 Y80.391 E0.03045
G1 X80.364 Y83.770 E0.28448
G1 X80.117 Y83.342 E0.02943
G1 X83.301 Y80.157 E0.26817
G1 X82.910 Y79.873 E0.02878
G1 X79.870 Y82.913 E0.25605
G1 X79.623 Y82.485 E0.02943
G1 X82.519 Y79.589 E0.24393
G1 X82.128 Y79.305 E0.02878
G1 X79.338 Y82.094 E0.23493
G1 X79.018 Y81.739 E0.02847
G1 X81.737 Y79.021 E0.22894
G1 X81.346 Y78.736 E0.02878
G1 X78.699 Y81.384 E0.22294
G1 X78.379 Y81.029 E0.02847
G1 X80.999 Y78.408 E0.22069
G1 X80.680 Y78.053 E0.02847
G1 X78.059 Y80.673 E0.22069
G1 X77.739 Y80.318 E0.02847
G1 X80.360 Y77.697 E0.22069
G1 X80.040 Y77.342 E0.02847
G1 X77.367 Y80.014 E0.22503
G1 X76.976 Y79.730 E0.02878
G1 X79.720 Y76.987 E0.23103
G1 X79.400 Y76.631 E0.02847
G1 X76.585 Y79.446 E0.23702
G1 X76.194 Y79.162 E0.02878
G1 X79.141 Y76.215 E0.24816
G1 X78.894 Y75.787 E0.02943
G1 X75.803 Y78.878 E0.26028
G1 X75.412 Y78.594 E0.02879
G1 X78.647 Y75.359 E0.27243
G1 X78.400 Y74.931 E0.02943
G1 X74.945 Y78.386 E0.29096
G1 X74.478 Y78.178 E0.03045
G1 X78.153 Y74.503 E0.30949
G1 X77.966 Y74.180 E0.02221
G1 X77.926 Y74.055 E0.00783
G1 X74.010 Y77.970 E0.32970
G1 X73.543 Y77.762 E0.03045
G1 X77.760 Y73.545 E0.35510
G1 X77.594 Y73.036 E0.03191
G1 X73.076 Y77.554 E0.38049
G1 X72.887 Y77.470 E0.01231
G1 X72.555 Y77.399 E0.02020
G1 X77.429 Y72.526 E0.41039
G1 X77.263 Y72.016 E0.03191
G1 X71.999 Y77.281 E0.44333
G1 X71.442 Y77.163 E0.03390
G1 X77.106 Y71.498 E0.47700
G1 X77.042 Y70.887 E0.03658
G1 X70.885 Y77.044 E0.51848
G1 X70.328 Y76.926 E0.03390
G1 X76.978 Y70.276 E0.55996
G1 X76.914 Y69.665 E0.03658
G1 X69.684 Y76.895 E0.60880
G1 X69.009 Y76.895 E0.04020
G1 X76.849 Y69.055 E0.66025
G1 X76.823 Y68.800 E0.01527
G1 X76.869 Y68.360 E0.02632
G1 X68.334 Y76.895 E0.71874
G1 X68.021 Y76.895 E0.01864
G1 X68.021 Y76.533 E0.02157
G1 X76.533 Y68.021 E0.71680
G1 X75.858 Y68.021 E0.04020
G1 X68.021 Y75.858 E0.65994
G1 X68.021 Y75.182 E0.04020
G1 X75.182 Y68.021 E0.60309
G1 X74.507 Y68.021 E0.04020
G1 X68.021 Y74.507 E0.54623
G1 X68.021 Y73.832 E0.04020
G1 X73.832 Y68.021 E0.48937
G1 X73.157 Y68.021 E0.04020
G1 X68.021 Y73.157 E0.43252
G1 X68.021 Y72.482 E0.04020
G1 X72.482 Y68.021 E0.37566
G1 X71.807 Y68.021 E0.04020
G1 X68.021 Y71.806 E0.31879
G1 X71.706 Y68.122 E0.31030
G1 F6240.000
G1 X70.112 Y69.715 E-1.23500
G1 E-0.06500 F3600.00000
G1 X81.919 Y93.017 F7800.000
G1 E1.30000 F3600.00000
G1 F1620.000
G1 X81.672 Y93.004 E0.01473
G1 X81.547 Y93.389 E0.02412
G1 X82.020 Y92.916 E0.03984
G1 X82.595 Y92.946 E0.03425
G1 X82.609 Y92.671 E0.01641
G1 X82.941 Y92.671 E0.01974
G1 X81.222 Y94.389 E0.14470
G1 X80.897 Y95.389 E0.06262
G1 X83.616 Y92.671 E0.22893
G1 X84.291 Y92.671 E0.04020
G1 X80.000 Y96.962 E0.36136
G1 F6240.000
G1 X81.593 Y95.369 E-1.23500
G1 E-0.06500 F3600.00000
G1 X68.455 Y103.105 F7800.000
G1 E1.30000 F3600.00000
G1 F1620.000
G1 X68.021 Y103.540 E0.03659
G1 X68.021 Y104.215 E0.04020
G1 X69.130 Y103.105 E0.09345
G1 X69.806 Y103.105 E0.04020
G1 X68.021 Y104.890 E0.15031
G1 X68.021 Y105.565 E0.04020
G1 X70.534 Y103.052 E0.21166
G1 X71.392 Y102.869 E0.05220
G1 X68.021 Y106.240 E0.28386
G1 X68.021 Y106.915 E0.04020
G1 X72.249 Y102.687 E0.35607
G1 X72.988 Y102.530 E0.04499
G1 X73.156 Y102.455 E0.01095
G1 X68.021 Y107.591 E0.43245
G1 X68.021 Y108.266 E0.04020
G1 X74.373 Y101.913 E0.53494
G1 X75.514 Y101.405 E0.07439
G1 X75.668 Y101.294 E0.01132
G1 X68.344 Y108.618 E0.61678
G1 X68.682 Y108.955 E0.02843
G1 X84.966 Y92.671 E1.37135
G1 X85.641 Y92.671 E0.04020
G1 X69.019 Y109.293 E1.39978
G1 X69.357 Y109.631 E0.02843
G1 X86.317 Y92.671 E1.42820
G1 X86.992 Y92.671 E0.04020
G1 X69.694 Y109.968 E1.45663
G1 X70.032 Y110.306 E0.02843
G1 X92.865 Y87.473 E1.92279
G1 X92.865 Y88.148 E0.04020
G1 X70.369 Y110.643 E1.89436
G1 X70.707 Y110.981 E0.02843
G1 X92.865 Y88.823 E1.86593
G1 X92.865 Y89.498 E0.04020
G1 X71.045 Y111.318 E1.83750
G1 X71.382 Y111.656 E0.02843
G1 X78.749 Y104.289 E0.62038
G1 X79.248 Y103.425 E0.05939
G1 X81.098 Y101.370 E0.16467
G1 X83.182 Y99.856 E0.15337
G1 X92.865 Y90.174 E0.81540
G1 X92.865 Y90.849 E0.04020
G1 X84.477 Y99.237 E0.70635
G1 X85.694 Y98.695 E0.07933
G1 X92.865 Y91.524 E0.60386
G1 X92.865 Y92.199 E0.04020
G1 X86.601 Y98.463 E0.52748
G1 X87.458 Y98.281 E0.05220
G1 X93.068 Y92.671 E0.47241
G1 X93.743 Y92.671 E0.04020
G1 X88.316 Y98.098 E0.45706
G1 X88.567 Y98.045 E0.01528
G1 X89.044 Y98.045 E0.02843
G1 X94.419 Y92.671 E0.45257
G1 X95.094 Y92.671 E0.04020
G1 X89.720 Y98.045 E0.45257
G1 X90.395 Y98.045 E0.04020
G1 X95.769 Y92.671 E0.45257
G1 X96.444 Y92.671 E0.04020
G1 X91.070 Y98.045 E0.45257
G1 X91.332 Y98.045 E0.01562
G1 X91.673 Y98.117 E0.02073
G1 X97.119 Y92.671 E0.45866
G1 X97.492 Y92.671 E0.02218
G1 X97.506 Y92.946 E0.01641
G1 X97.520 Y92.945 E0.00082
G1 X92.230 Y98.236 E0.44552
G1 X92.786 Y98.354 E0.03390
G1 X98.232 Y92.908 E0.45863
G1 X98.328 Y92.903 E0.00567
G1 X98.471 Y93.345 E0.02765
G1 X93.343 Y98.472 E0.43183
G1 X93.900 Y98.591 E0.03390
G1 X98.637 Y93.854 E0.39888
G1 X98.802 Y94.364 E0.03191
G1 X94.389 Y98.777 E0.37162
G1 X94.856 Y98.985 E0.03045
G1 X98.968 Y94.873 E0.34623
G1 X99.142 Y95.374 E0.03159
G1 X95.324 Y99.193 E0.32154
G1 X95.791 Y99.401 E0.03045
G1 X99.389 Y95.802 E0.30301
G1 X99.636 Y96.230 E0.02943
G1 X96.258 Y99.609 E0.28448
G1 X96.564 Y99.745 E0.01992
