; generated by Slic3r 1.3.1-dev (Build 2d100c4) on 2020-05-15 at 06:23:49

; external perimeters extrusion width = 0.44mm (3.91mm^3/s)
; perimeters extrusion width = 0.56mm (5.65mm^3/s)
; infill extrusion width = 0.50mm (5.02mm^3/s)
; solid infill extrusion width = 0.56mm (5.65mm^3/s)
; top infill extrusion width = 0.56mm (5.65mm^3/s)

M107
M190 S60 ; set bed temperature and wait for it to be reached
M104 S215 ; set temperature
G28 ; home all axes
G92 E0.0 ; reset extruder
; Filament gcode

M109 S215 ; set temperature and wait for it to be reached
G21 ; set units to millimeters
G90 ; use absolute coordinates
M83 ; use relative distances for extrusion
G1 E-1.30000 F3600.00000
G1 Z0.300 F7800.000
G1 X75.961 Y79.537 F7800.000
G1 E1.30000 F3600.00000
M201 X500 Y500
M204 P500 T500
G1 F684.610
G1 X78.357 Y77.811 E0.17519
G1 X81.128 Y76.789 E0.17519
G1 X83.500 Y76.529 E0.14158
G1 X96.500 Y76.529 E0.77118
G1 X99.426 Y76.927 E0.17519
G1 X102.140 Y78.093 E0.17519
G1 X104.443 Y79.941 E0.17519
G1 X106.169 Y82.337 E0.17519
G1 X107.191 Y85.108 E0.17519
G1 X107.451 Y87.480 E0.14158
G1 X107.451 Y88.800 E0.07830
G1 X107.053 Y91.726 E0.17519
G1 X105.684 Y94.764 E0.19768
G1 X103.269 Y98.484 E0.26313
G1 X101.341 Y100.722 E0.17519
G1 X98.886 Y102.363 E0.17519
G1 X96.081 Y103.288 E0.17519
G1 X94.084 Y103.471 E0.11897
G1 X85.916 Y103.471 E0.48456
G1 X82.990 Y103.073 E0.17519
G1 X80.276 Y101.907 E0.17519
G1 X77.973 Y100.059 E0.17519
G1 X76.731 Y98.484 E0.11897
G1 X74.316 Y94.764 E0.26313
G1 X73.056 Y92.094 E0.17519
G1 X72.549 Y88.800 E0.19768
G1 X72.549 Y87.480 E0.07830
G1 X72.947 Y84.554 E0.17519
G1 X74.113 Y81.840 E0.17519
G1 X75.923 Y79.584 E0.17163
G1 X76.428 Y79.752 F7800.000
G1 F684.610
G1 X78.807 Y78.114 E0.17132
G1 X81.543 Y77.189 E0.17132
G1 X83.500 Y77.004 E0.11663
G1 X96.500 Y77.004 E0.77118
G1 X99.360 Y77.402 E0.17132
G1 X102.003 Y78.566 E0.17132
G1 X104.228 Y80.408 E0.17132
G1 X105.866 Y82.787 E0.17132
G1 X106.791 Y85.523 E0.17132
G1 X106.976 Y87.480 E0.11663
G1 X106.976 Y88.800 E0.07830
G1 X106.578 Y91.660 E0.17132
G1 X105.286 Y94.505 E0.18536
G1 X102.870 Y98.225 E0.26313
G1 X100.978 Y100.408 E0.17132
G1 X98.562 Y101.990 E0.17132
G1 X95.806 Y102.853 E0.17132
G1 X94.084 Y102.996 E0.10250
G1 X85.916 Y102.996 E0.48456
G1 X83.055 Y102.598 E0.17132
G1 X80.412 Y101.434 E0.17132
G1 X78.188 Y99.592 E0.17132
G1 X77.130 Y98.225 E0.10250
G1 X74.714 Y94.505 E0.26313
G1 X73.490 Y91.890 E0.17132
G1 X73.024 Y88.800 E0.18536
G1 X73.024 Y87.480 E0.07830
G1 X73.422 Y84.620 E0.17132
G1 X74.586 Y81.977 E0.17132
G1 X76.390 Y79.798 E0.16776
G1 F6240.000
G1 X78.239 Y78.510 E-1.23500
G1 E-0.06500 F3600.00000
G1 X93.730 Y91.470 F7800.000
G1 E1.30000 F3600.00000
G1 F1458.000
G1 X94.444 Y91.470 E0.04236
G1 X93.938 Y92.250 E0.05517
G1 X92.950 Y92.250 E0.05859
G1 X92.950 Y88.530 E0.22068
G1 X87.050 Y88.530 E0.35000
G1 X87.050 Y92.250 E0.22068
G1 X86.062 Y92.250 E0.05859
G1 X85.556 Y91.470 E0.05517
G1 X86.270 Y91.470 E0.04236
G1 X86.270 Y88.530 E0.17441
G1 X83.770 Y88.530 E0.14830
G1 X83.770 Y87.750 E0.04627
G1 X96.230 Y87.750 E0.73915
G1 X96.230 Y88.530 E0.04627
G1 X93.730 Y88.530 E0.14830
G1 X93.730 Y91.410 E0.17085
G1 X93.637 Y91.859 F7800.000
G1 X93.907 Y91.860 F7800.000
G1 F600.000
G1 X93.429 Y91.847 E0.01432
G1 F600.000
G1 X93.366 Y91.834 E0.00235
G1 X93.340 Y91.708 E0.00469
G1 F600.000
G1 X93.340 Y88.235 E0.10395
G1 F600.000
G1 X93.340 Y88.178 E0.00225
G1 X93.492 Y88.140 E0.00618
G1 F600.000
G1 X95.992 Y88.140 E0.07484
G1 F6240.000
G1 X93.739 Y88.140 E-1.23500
G1 E-0.06500 F3600.00000
G1 X93.340 Y88.178 F7800.000
G1 E1.30000 F3600.00000
G1 F600.000
G1 X93.264 Y88.159 E0.00309
G1 F600.000
G1 X93.188 Y88.140 E0.00235
G1 X86.812 Y88.140 E0.19085
G1 F600.000
G1 X86.660 Y88.178 E0.00618
G1 X86.584 Y88.159 E0.00309
G1 F600.000
G1 X86.508 Y88.140 E0.00235
G1 X84.008 Y88.140 E0.07484
G1 F6240.000
G1 X86.261 Y88.140 E-1.23500
G1 E-0.06500 F3600.00000
G1 X86.660 Y88.178 F7800.000
G1 E1.30000 F3600.00000
G1 F600.000
G1 X86.660 Y88.292 E0.00450
G1 F600.000
G1 X86.660 Y91.708 E0.10224
G1 X86.647 Y91.771 E0.00193
G1 F600.000
G1 X86.634 Y91.834 E0.00235
G1 X86.508 Y91.860 E0.00469
G1 F600.000
G1 X86.093 Y91.860 E0.01243
M106 S255
M140 S50 ; set bed temperature
G1 F6240.000
G1 X86.508 Y91.860 E-0.22752
G1 E-1.07248 F3600.00000
G1 Z0.550 F7800.000
G1 X93.780 Y91.420 F7800.000
G1 E1.30000 F3600.00000
G1 F2430.000
G1 X94.536 Y91.420 E0.03037
G1 X93.965 Y92.300 E0.04214
G1 X92.900 Y92.300 E0.04276
G1 X92.900 Y88.580 E0.14938
G1 X87.100 Y88.580 E0.23291
G1 X87.100 Y92.300 E0.14938
G1 X86.035 Y92.300 E0.04276
G1 X85.464 Y91.420 E0.04214
G1 X86.220 Y91.420 E0.03037
G1 X86.220 Y88.580 E0.11404
G1 X83.720 Y88.580 E0.10039
G1 X83.720 Y87.700 E0.03534
G1 X96.280 Y87.700 E0.50436
G1 X96.280 Y88.580 E0.03534
G1 X93.780 Y88.580 E0.10039
G1 X93.780 Y91.360 E0.11163
G1 X93.685 Y91.808 F7800.000
G1 X93.340 Y91.642 F7800.000
G1 F600.000
G1 X93.340 Y88.303 E0.13252
G1 F600.000
G1 X93.340 Y88.194 E0.00514
G1 X93.558 Y88.140 E0.01060
G1 F600.000
G1 X96.058 Y88.140 E0.09922
G1 X93.340 Y88.194 F7800.000
G1 F600.000
G1 X93.195 Y88.158 E0.00707
G1 F600.000
G1 X93.122 Y88.140 E0.00297
G1 X86.878 Y88.140 E0.24784
G1 F600.000
G1 X86.660 Y88.194 E0.01060
G1 X86.515 Y88.158 E0.00707
G1 F600.000
G1 X86.442 Y88.140 E0.00297
G1 X83.942 Y88.140 E0.09922
G1 X86.660 Y88.194 F7800.000
G1 F600.000
G1 X86.660 Y88.303 E0.00555
G1 F600.000
G1 X86.660 Y91.642 E0.14511
G1 X86.623 Y91.823 E0.00801
G1 X86.442 Y91.860 E0.00801
G1 X86.015 Y91.860 E0.01859
G1 F6240.000
G1 X86.442 Y91.860 E-0.23443
G1 F6240.000
G1 X86.623 Y91.823 E-0.10097
G1 F6240.000
G1 X86.660 Y91.642 E-0.10097
G1 F6240.000
G1 X86.660 Y90.185 E-0.79864
G1 E-0.06500 F3600.00000
G1 X93.340 Y91.642 F7800.000
G1 E1.30000 F3600.00000
G1 F600.000
G1 X93.377 Y91.823 E0.00874
G1 X93.468 Y91.841 E0.00437
G1 F600.000
G1 X93.558 Y91.860 E0.00366
G1 X93.985 Y91.860 E0.01698
G1 F6240.000
G1 X93.558 Y91.860 E-0.23443
G1 F6240.000
G1 X93.468 Y91.841 E-0.05048
G1 E-1.01509 F3600.00000
G1 Z0.800 F7800.000
G1 X93.780 Y91.420 F7800.000
G1 E1.30000 F3600.00000
G1 F2430.000
G1 X94.536 Y91.420 E0.03037
G1 X93.965 Y92.300 E0.04214
G1 X92.900 Y92.300 E0.04276
G1 X92.900 Y88.580 E0.14938
G1 X87.100 Y88.580 E0.23291
G1 X87.100 Y92.300 E0.14938
G1 X86.035 Y92.300 E0.04276
G1 X85.464 Y91.420 E0.04214
G1 X86.220 Y91.420 E0.03037
G1 X86.220 Y88.580 E0.11404
G1 X83.720 Y88.580 E0.10039
G1 X83.720 Y87.700 E0.03534
G1 X96.280 Y87.700 E0.50436
G1 X96.280 Y88.580 E0.03534
G1 X93.780 Y88.580 E0.10039
G1 X93.780 Y91.360 E0.11163
G1 X93.685 Y91.808 F7800.000
G1 X93.340 Y91.642 F7800.000
G1 F600.000
G1 X93.340 Y88.303 E0.13252
G1 F600.000
G1 X93.340 Y88.194 E0.00514
G1 X93.558 Y88.140 E0.01060
G1 F600.000
G1 X96.058 Y88.140 E0.09922
G1 X93.340 Y88.194 F7800.000
G1 F600.000
G1 X93.195 Y88.158 E0.00707
G1 F600.000
G1 X93.122 Y88.140 E0.00297
G1 X86.878 Y88.140 E0.24784
G1 F600.000
G1 X86.660 Y88.194 E0.01060
G1 X86.515 Y88.158 E0.00707
G1 F600.000
G1 X86.442 Y88.140 E0.00297
G1 X83.942 Y88.140 E0.09922
G1 X86.660 Y88.194 F7800.000
G1 F600.000
G1 X86.660 Y88.303 E0.00555
G1 F600.000
G1 X86.660 Y91.642 E0.14511
G1 X86.623 Y91.823 E0.00801
G1 X86.442 Y91.860 E0.00801
G1 X86.015 Y91.860 E0.01859
G1 F6240.000
G1 X86.442 Y91.860 E-0.23443
G1 F6240.000
G1 X86.623 Y91.823 E-0.10097
G1 F6240.000
G1 X86.660 Y91.642 E-0.10097
G1 F6240.000
G1 X86.660 Y90.185 E-0.79864
G1 E-0.06500 F3600.00000
G1 X93.340 Y91.642 F7800.000
G1 E1.30000 F3600.00000
G1 F600.000
G1 X93.377 Y91.823 E0.00874
G1 X93.468 Y91.841 E0.00437
G1 F600.000
G1 X93.558 Y91.860 E0.00366
G1 X93.985 Y91.860 E0.01698
G1 F6240.000
G1 X93.558 Y91.860 E-0.23443
G1 F6240.000
G1 X93.468 Y91.841 E-0.05048
G1 E-1.01509 F3600.00000
G1 Z1.050 F7800.000
G1 X93.780 Y91.420 F7800.000
G1 E1.30000 F3600.00000
G1 F2430.000
G1 X94.536 Y91.420 E0.03037
G1 X93.965 Y92.300 E0.04214
G1 X92.900 Y92.300 E0.04276
G1 X92.900 Y88.580 E0.14938
G1 X87.100 Y88.580 E0.23291
G1 X87.100 Y92.300 E0.14938
G1 X86.035 Y92.300 E0.04276
G1 X85.464 Y91.420 E0.04214
G1 X86.220 Y91.420 E0.03037
G1 X86.220 Y88.580 E0.11404
G1 X83.720 Y88.580 E0.10039
G1 X83.720 Y87.700 E0.03534
G1 X96.280 Y87.700 E0.50436
G1 X96.280 Y88.580 E0.03534
G1 X93.780 Y88.580 E0.10039
G1 X93.780 Y91.360 E0.11163
G1 X93.685 Y91.808 F7800.000
G1 X93.340 Y91.642 F7800.000
G1 F600.000
G1 X93.340 Y88.303 E0.13252
G1 F600.000
G1 X93.340 Y88.194 E0.00514
G1 X93.558 Y88.140 E0.01060
G1 F600.000
G1 X96.058 Y88.140 E0.09922
G1 X93.340 Y88.194 F7800.000
G1 F600.000
G1 X93.195 Y88.158 E0.00707
G1 F600.000
G1 X93.122 Y88.140 E0.00297
G1 X86.878 Y88.140 E0.24784
G1 F600.000
G1 X86.660 Y88.194 E0.01060
G1 X86.515 Y88.158 E0.00707
G1 F600.000
G1 X86.442 Y88.140 E0.00297
G1 X83.942 Y88.140 E0.09922
G1 X86.660 Y88.194 F7800.000
G1 F600.000
G1 X86.660 Y88.303 E0.00555
G1 F600.000
G1 X86.660 Y91.642 E0.14511
G1 X86.623 Y91.823 E0.00801
G1 X86.442 Y91.860 E0.00801
G1 X86.015 Y91.860 E0.01859
G1 F6240.000
G1 X86.442 Y91.860 E-0.23443
G1 F6240.000
G1 X86.623 Y91.823 E-0.10097
G1 F6240.000
G1 X86.660 Y91.642 E-0.10097
G1 F6240.000
G1 X86.660 Y90.185 E-0.79864
G1 E-0.06500 F3600.00000
G1 X93.340 Y91.642 F7800.000
G1 E1.30000 F3600.00000
G1 F600.000
G1 X93.377 Y91.823 E0.00874
G1 X93.468 Y91.841 E0.00437
G1 F600.000
G1 X93.558 Y91.860 E0.00366
G1 X93.985 Y91.860 E0.01698
G1 F6240.000
G1 X93.558 Y91.860 E-0.23443
G1 F6240.000
G1 X93.468 Y91.841 E-0.05048
G1 E-1.01509 F3600.00000
G1 Z1.300 F7800.000
G1 X93.780 Y91.420 F7800.000
G1 E1.30000 F3600.00000
G1 F2430.000
G1 X94.536 Y91.420 E0.03037
G1 X93.965 Y92.300 E0.04214
G1 X92.900 Y92.300 E0.04276
G1 X92.900 Y88.580 E0.14938
G1 X87.100 Y88.580 E0.23291
G1 X87.100 Y92.300 E0.14938
G1 X86.035 Y92.300 E0.04276
G1 X85.464 Y91.420 E0.04214
G1 X86.220 Y91.420 E0.03037
G1 X86.220 Y88.580 E0.11404
G1 X83.720 Y88.580 E0.10039
G1 X83.720 Y87.700 E0.03534
G1 X96.280 Y87.700 E0.50436
G1 X96.280 Y88.580 E0.03534
G1 X93.780 Y88.580 E0.10039
G1 X93.780 Y91.360 E0.11163
G1 X93.685 Y91.808 F7800.000
G1 X93.340 Y91.642 F7800.000
G1 F600.000
G1 X93.340 Y88.303 E0.13252
G1 F600.000
G1 X93.340 Y88.194 E0.00514
G1 X93.558 Y88.140 E0.01060
G1 F600.000
G1 X96.058 Y88.140 E0.09922
G1 X93.340 Y88.194 F7800.000
G1 F600.000
G1 X93.195 Y88.158 E0.00707
G1 F600.000
G1 X93.122 Y88.140 E0.00297
G1 X86.878 Y88.140 E0.24784
G1 F600.000
G1 X86.660 Y88.194 E0.01060
G1 X86.515 Y88.158 E0.00707
G1 F600.000
G1 X86.442 Y88.140 E0.00297
G1 X83.942 Y88.140 E0.09922
G1 X86.660 Y88.194 F7800.000
G1 F600.000
G1 X86.660 Y88.303 E0.00555
G1 F600.000
G1 X86.660 Y91.642 E0.14511
G1 X86.623 Y91.823 E0.00801
G1 X86.442 Y91.860 E0.00801
G1 X86.015 Y91.860 E0.01859
G1 F6240.000
G1 X86.442 Y91.860 E-0.23443
G1 F6240.000
G1 X86.623 Y91.823 E-0.10097
G1 F6240.000
G1 X86.660 Y91.642 E-0.10097
G1 F6240.000
G1 X86.660 Y90.185 E-0.79864
G1 E-0.06500 F3600.00000
G1 X93.340 Y91.642 F7800.000
G1 E1.30000 F3600.00000
G1 F600.000
G1 X93.377 Y91.823 E0.00874
G1 X93.468 Y91.841 E0.00437
G1 F600.000
G1 X93.558 Y91.860 E0.00366
G1 X93.985 Y91.860 E0.01698
G1 F6240.000
G1 X93.558 Y91.860 E-0.23443
G1 F6240.000
G1 X93.468 Y91.841 E-0.05048
G1 E-1.01509 F3600.00000
G1 Z1.550 F7800.000
G1 X93.780 Y91.420 F7800.000
G1 E1.30000 F3600.00000
G1 F2430.000
G1 X94.536 Y91.420 E0.03037
G1 X93.965 Y92.300 E0.04214
G1 X92.900 Y92.300 E0.04276
G1 X92.900 Y88.580 E0.14938
G1 X87.100 Y88.580 E0.23291
G1 X87.100 Y92.300 E0.14938
G1 X86.035 Y92.300 E0.04276
G1 X85.464 Y91.420 E0.04214
G1 X86.220 Y91.420 E0.03037
G1 X86.220 Y88.580 E0.11404
G1 X83.720 Y88.580 E0.10039
G1 X83.720 Y87.700 E0.03534
G1 X96.280 Y87.700 E0.50436
G1 X96.280 Y88.580 E0.03534
G1 X93.780 Y88.580 E0.10039
G1 X93.780 Y91.360 E0.11163
G1 X93.685 Y91.808 F7800.000
G1 X93.340 Y91.642 F7800.000
G1 F600.000
G1 X93.340 Y88.303 E0.13252
G1 F600.000
G1 X93.340 Y88.194 E0.00514
G1 X93.558 Y88.140 E0.01060
G1 F600.000
G1 X96.058 Y88.140 E0.09922
G1 X93.340 Y88.194 F7800.000
G1 F600.000
G1 X93.195 Y88.158 E0.00707
G1 F600.000
G1 X93.122 Y88.140 E0.00297
G1 X86.878 Y88.140 E0.24784
G1 F600.000
G1 X86.660 Y88.194 E0.01060
G1 X86.515 Y88.158 E0.00707
G1 F600.000
G1 X86.442 Y88.140 E0.00297
G1 X83.942 Y88.140 E0.09922
G1 X86.660 Y88.194 F7800.000
G1 F600.000
G1 X86.660 Y88.303 E0.00555
G1 F600.000
G1 X86.660 Y91.642 E0.14511
G1 X86.623 Y91.823 E0.00801
G1 X86.442 Y91.860 E0.00801
G1 X86.015 Y91.860 E0.01859
G1 F6240.000
G1 X86.442 Y91.860 E-0.23443
G1 F6240.000
G1 X86.623 Y91.823 E-0.10097
G1 F6240.000
G1 X86.660 Y91.642 E-0.10097
G1 F6240.000
G1 X86.660 Y90.185 E-0.79864
G1 E-0.06500 F3600.00000
G1 X93.340 Y91.642 F7800.000
G1 E1.30000 F3600.00000
G1 F600.000
G1 X93.377 Y91.823 E0.00874
G1 X93.468 Y91.841 E0.00437
G1 F600.000
G1 X93.558 Y91.860 E0.00366
G1 X93.985 Y91.860 E0.01698
G1 F6240.000
G1 X93.558 Y91.860 E-0.23443
G1 F6240.000
G1 X93.468 Y91.841 E-0.05048
G1 E-1.01509 F3600.00000
G1 Z1.800 F7800.000
G1 X93.780 Y91.420 F7800.000
G1 E1.30000 F3600.00000
G1 F2430.000
G1 X94.536 Y91.420 E0.03037
G1 X93.965 Y92.300 E0.04214
G1 X92.900 Y92.300 E0.04276
G1 X92.900 Y88.580 E0.14938
G1 X87.100 Y88.580 E0.23291
G1 X87.100 Y92.300 E0.14938
G1 X86.035 Y92.300 E0.04276
G1 X85.464 Y91.420 E0.04214
G1 X86.220 Y91.420 E0.03037
G1 X86.220 Y88.580 E0.11404
G1 X83.720 Y88.580 E0.10039
G1 X83.720 Y87.700 E0.03534
G1 X96.280 Y87.700 E0.50436
G1 X96.280 Y88.580 E0.03534
G1 X93.780 Y88.580 E0.10039
G1 X93.780 Y91.360 E0.11163
G1 X93.685 Y91.808 F7800.000
G1 X93.340 Y91.642 F7800.000
G1 F600.000
G1 X93.340 Y88.303 E0.13252
G1 F600.000
G1 X93.340 Y88.194 E0.00514
G1 X93.558 Y88.140 E0.01060
G1 F600.000
G1 X96.058 Y88.140 E0.09922
G1 X93.340 Y88.194 F7800.000
G1 F600.000
G1 X93.195 Y88.158 E0.00707
G1 F600.000
G1 X93.122 Y88.140 E0.00297
G1 X86.878 Y88.140 E0.24784
G1 F600.000
G1 X86.660 Y88.194 E0.01060
G1 X86.515 Y88.158 E0.00707
G1 F600.000
G1 X86.442 Y88.140 E0.00297
G1 X83.942 Y88.140 E0.09922
G1 X86.660 Y88.194 F7800.000
G1 F600.000
G1 X86.660 Y88.303 E0.00555
G1 F600.000
G1 X86.660 Y91.642 E0.14511
G1 X86.623 Y91.823 E0.00801
G1 X86.442 Y91.860 E0.00801
G1 X86.015 Y91.860 E0.01859
G1 F6240.000
G1 X86.442 Y91.860 E-0.23443
G1 F6240.000
G1 X86.623 Y91.823 E-0.10097
G1 F6240.000
G1 X86.660 Y91.642 E-0.10097
G1 F6240.000
G1 X86.660 Y90.185 E-0.79864
G1 E-0.06500 F3600.00000
G1 X93.340 Y91.642 F7800.000
G1 E1.30000 F3600.00000
G1 F600.000
G1 X93.377 Y91.823 E0.00874
G1 X93.468 Y91.841 E0.00437
G1 F600.000
G1 X93.558 Y91.860 E0.00366
G1 X93.985 Y91.860 E0.01698
G1 F6240.000
G1 X93.558 Y91.860 E-0.23443
G1 F6240.000
G1 X93.468 Y91.841 E-0.05048
G1 E-1.01509 F3600.00000
G1 Z2.050 F7800.000
G1 X93.780 Y91.420 F7800.000
G1 E1.30000 F3600.00000
G1 F2430.000
G1 X94.536 Y91.420 E0.03037
G1 X93.965 Y92.300 E0.04214
G1 X92.900 Y92.300 E0.04276
G1 X92.900 Y88.580 E0.14938
G1 X87.100 Y88.580 E0.23291
G1 X87.100 Y92.300 E0.14938
G1 X86.035 Y92.300 E0.04276
G1 X85.464 Y91.420 E0.04214
G1 X86.220 Y91.420 E0.03037
G1 X86.220 Y88.580 E0.11404
G1 X83.720 Y88.580 E0.10039
G1 X83.720 Y87.700 E0.03534
G1 X96.280 Y87.700 E0.50436
G1 X96.280 Y88.580 E0.03534
G1 X93.780 Y88.580 E0.10039
G1 X93.780 Y91.360 E0.11163
G1 X93.685 Y91.808 F7800.000
G1 X93.340 Y91.642 F7800.000
G1 F600.000
G1 X93.340 Y88.303 E0.13252
G1 F600.000
G1 X93.340 Y88.194 E0.00514
G1 X93.558 Y88.140 E0.01060
G1 F600.000
G1 X96.058 Y88.140 E0.09922
G1 X93.340 Y88.194 F7800.000
G1 F600.000
G1 X93.195 Y88.158 E0.00707
G1 F600.000
G1 X93.122 Y88.140 E0.00297
G1 X86.878 Y88.140 E0.24784
G1 F600.000
G1 X86.660 Y88.194 E0.01060
G1 X86.515 Y88.158 E0.00707
G1 F600.000
G1 X86.442 Y88.140 E0.00297
G1 X83.942 Y88.140 E0.09922
G1 X86.660 Y88.194 F7800.000
G1 F600.000
G1 X86.660 Y88.303 E0.00555
G1 F600.000
G1 X86.660 Y91.642 E0.14511
G1 X86.623 Y91.823 E0.00801
G1 X86.442 Y91.860 E0.00801
G1 X86.015 Y91.860 E0.01859
G1 F6240.000
G1 X86.442 Y91.860 E-0.23443
G1 F6240.000
G1 X86.623 Y91.823 E-0.10097
G1 F6240.000
G1 X86.660 Y91.642 E-0.10097
G1 F6240.000
G1 X86.660 Y90.185 E-0.79864
G1 E-0.06500 F3600.00000
G1 X93.340 Y91.642 F7800.000
G1 E1.30000 F3600.00000
G1 F600.000
G1 X93.377 Y91.823 E0.00874
G1 X93.468 Y91.841 E0.00437
G1 F600.000
G1 X93.558 Y91.860 E0.00366
