; generated by Slic3r 1.2.9 on 2020-05-14 at 10:35:20

; external perimeters extrusion width = 0.40mm
; perimeters extrusion width = 0.56mm
; infill extrusion width = 0.56mm
; solid infill extrusion width = 0.56mm
; top infill extrusion width = 0.56mm

M107
M190 S60 ; set bed temperature
M104 S215 ; set temperature
G28 ; home all axes
G92 E0.0 ; reset extruder
M109 S215 ; wait for temperature to be reached
G21 ; set units to millimeters
G90 ; use absolute coordinates
M83 ; use relative distances for extrusion
G1 E-1.30000 F3600.00000
G1 Z0.300 F7800.000
G1 X85.961 Y89.537 F7800.000
G1 E1.30000 F3600.00000
M204 S500
G1 X88.357 Y87.811 E0.17519 F783.843
G1 X91.128 Y86.789 E0.17519
G1 X93.500 Y86.529 E0.14158
G1 X106.500 Y86.529 E0.77118
G1 X109.426 Y86.927 E0.17519
G1 X112.140 Y88.093 E0.17519 F783.843
G1 X114.443 Y89.941 E0.17519
G1 X116.169 Y92.337 E0.17519
G1 X117.191 Y95.108 E0.17519
G1 X117.451 Y97.480 E0.14158
G1 X117.451 Y98.800 E0.07830
G1 X117.053 Y101.726 E0.17519
G1 X115.684 Y104.764 E0.19768
G1 X113.269 Y108.484 E0.26313
G1 X111.341 Y110.722 E0.17519
G1 X108.886 Y112.363 E0.17519
G1 X106.081 Y113.288 E0.17519
G1 X104.084 Y113.471 E0.11897
G1 X95.916 Y113.471 E0.48456
G1 X92.990 Y113.073 E0.17519
G1 X90.276 Y111.907 E0.17519
G1 X87.973 Y110.059 E0.17519
G1 X86.731 Y108.485 E0.11896
G1 X84.316 Y104.764 E0.26313
G1 X83.056 Y102.094 E0.17519
G1 X82.549 Y98.800 E0.19768
G1 X82.549 Y97.480 E0.07830
G1 X82.947 Y94.554 E0.17519
G1 X84.113 Y91.840 E0.17519
G1 X85.923 Y89.584 E0.17163
G1 X86.343 Y89.854 F7800.000
G1 X86.428 Y89.752 E0.00787 F783.843
G1 X88.807 Y88.114 E0.17132
G1 X91.543 Y87.189 E0.17132
G1 X93.500 Y87.004 E0.11663
G1 X106.500 Y87.004 E0.77118
G1 X109.360 Y87.402 E0.17132
G1 X112.003 Y88.566 E0.17132 F783.843
G1 X114.228 Y90.408 E0.17132
G1 X115.866 Y92.787 E0.17132
G1 X116.791 Y95.523 E0.17132
G1 X116.976 Y97.480 E0.11663
G1 X116.976 Y98.800 E0.07830
G1 X116.578 Y101.660 E0.17132
G1 X115.286 Y104.505 E0.18536
G1 X112.870 Y108.225 E0.26313
G1 X110.978 Y110.408 E0.17132
G1 X108.562 Y111.990 E0.17132
G1 X105.806 Y112.853 E0.17132
G1 X104.084 Y112.996 E0.10250
G1 X95.916 Y112.996 E0.48456
G1 X93.055 Y112.598 E0.17132
G1 X90.412 Y111.434 E0.17132
G1 X88.188 Y109.592 E0.17132
G1 X87.130 Y108.225 E0.10250
G1 X84.714 Y104.505 E0.26313
G1 X83.490 Y101.890 E0.17132
G1 X83.024 Y98.800 E0.18536
G1 X83.024 Y97.480 E0.07830
G1 X83.422 Y94.620 E0.17132
G1 X84.586 Y91.977 E0.17132
G1 X86.305 Y89.900 E0.15990
G1 F6240
G1 X86.428 Y89.752 E-0.10555
G1 F6240
G1 X88.125 Y88.583 E-1.12945
G1 E-0.06500 F3600.00000
G1 X103.730 Y101.470 F7800.000
G1 E1.30000 F3600.00000
G1 X104.444 Y101.470 E0.04236 F600.000
G1 X103.938 Y102.250 E0.05517
G1 X102.950 Y102.250 E0.05859
G1 X102.950 Y98.530 E0.22068
G1 X97.050 Y98.530 E0.35000
G1 X97.050 Y102.250 E0.22068
G1 X96.062 Y102.250 E0.05859
G1 X95.556 Y101.470 E0.05517
G1 X96.270 Y101.470 E0.04236
G1 X96.270 Y98.530 E0.17441
G1 X93.770 Y98.530 E0.14830
G1 X93.770 Y97.750 E0.04627
G1 X106.230 Y97.750 E0.73915
G1 X106.230 Y98.530 E0.04627
G1 X103.730 Y98.530 E0.14830
G1 X103.730 Y101.410 E0.17085
G1 X103.730 Y101.870 F7800.000
G1 X103.907 Y101.860 F7800.000
G1 X103.492 Y101.860 E0.02463 F600.000
G1 X103.366 Y101.834 E0.00764
G1 X103.340 Y101.708 E0.00764
G1 X103.340 Y98.178 E0.20939
G1 X103.492 Y98.140 E0.00931
G1 X105.992 Y98.140 E0.14830
G1 X103.797 Y98.292 F7800.000
G1 X103.188 Y98.140 E0.03723 F600.000
G1 X96.812 Y98.140 E0.37821
G1 X96.660 Y98.178 E0.00931
G1 X96.660 Y101.708 E0.20939
G1 X96.634 Y101.834 E0.00764
G1 X96.508 Y101.860 E0.00764
G1 X96.093 Y101.860 E0.02463
G1 X97.117 Y98.292 F7800.000
G1 X96.508 Y98.140 E0.03723 F600.000
G1 X94.008 Y98.140 E0.14830
M106 S255
M140 S50 ; wait for bed temperature to be reached
G1 F6240
G1 X96.261 Y98.140 E-1.23500
G1 E-0.06500 F3600.00000
G1 Z0.550 F7800.000
G1 X103.800 Y101.400 F7800.000
G1 E1.30000 F3600.00000
G1 X104.573 Y101.400 E0.02783 F600.000
G1 X103.976 Y102.320 E0.03949
G1 X102.880 Y102.320 E0.03944
G1 X102.880 Y98.600 E0.13392
G1 X97.120 Y98.600 E0.20735
G1 X97.120 Y102.320 E0.13392
G1 X96.024 Y102.320 E0.03944
G1 X95.427 Y101.400 E0.03949
G1 X96.200 Y101.400 E0.02783
G1 X96.200 Y98.600 E0.10080
G1 X93.700 Y98.600 E0.09000
G1 X93.700 Y97.680 E0.03312
G1 X106.300 Y97.680 E0.45359
G1 X106.300 Y98.600 E0.03312
G1 X103.800 Y98.600 E0.09000
G1 X103.800 Y101.340 E0.09864
G1 X103.800 Y101.800 F7800.000
G1 X104.021 Y101.860 F7800.000
G1 X103.588 Y101.860 E0.04771 F600.000
G1 X103.383 Y101.817 E0.02307
G1 X103.340 Y101.612 E0.02307
G1 X103.340 Y98.202 E0.37536
G1 X103.588 Y98.140 E0.02811
G1 X106.088 Y98.140 E0.27517
G1 X104.083 Y98.388 F7800.000
G1 X103.092 Y98.140 E0.11243 F600.000
G1 X96.908 Y98.140 E0.68070
G1 X96.660 Y98.202 E0.02811
G1 X96.660 Y101.612 E0.37536
G1 X96.617 Y101.817 E0.02307
G1 X96.412 Y101.860 E0.02307
G1 X95.979 Y101.860 E0.04771
G1 X97.403 Y98.388 F7800.000
G1 X96.412 Y98.140 E0.11243 F600.000
G1 X93.912 Y98.140 E0.27517
G1 F6240
G1 X96.166 Y98.140 E-1.23500
G1 E-0.06500 F3600.00000
G1 Z0.800 F7800.000
G1 X103.800 Y101.400 F7800.000
G1 E1.30000 F3600.00000
G1 X104.573 Y101.400 E0.02783 F600.000
G1 X103.976 Y102.320 E0.03949
G1 X102.880 Y102.320 E0.03944
G1 X102.880 Y98.600 E0.13392
G1 X97.120 Y98.600 E0.20735
G1 X97.120 Y102.320 E0.13392
G1 X96.024 Y102.320 E0.03944
G1 X95.427 Y101.400 E0.03949
G1 X96.200 Y101.400 E0.02783
G1 X96.200 Y98.600 E0.10080
G1 X93.700 Y98.600 E0.09000
G1 X93.700 Y97.680 E0.03312
G1 X106.300 Y97.680 E0.45359
G1 X106.300 Y98.600 E0.03312
G1 X103.800 Y98.600 E0.09000
G1 X103.800 Y101.340 E0.09864
G1 X103.800 Y101.800 F7800.000
G1 X104.021 Y101.860 F7800.000
G1 X103.588 Y101.860 E0.04771 F600.000
G1 X103.383 Y101.817 E0.02307
G1 X103.340 Y101.612 E0.02307
G1 X103.340 Y98.202 E0.37536
G1 X103.588 Y98.140 E0.02811
G1 X106.088 Y98.140 E0.27517
G1 X104.083 Y98.388 F7800.000
G1 X103.092 Y98.140 E0.11243 F600.000
G1 X96.908 Y98.140 E0.68070
G1 X96.660 Y98.202 E0.02811
G1 X96.660 Y101.612 E0.37536
G1 X96.617 Y101.817 E0.02307
G1 X96.412 Y101.860 E0.02307
G1 X95.979 Y101.860 E0.04771
G1 X97.403 Y98.388 F7800.000
G1 X96.412 Y98.140 E0.11243 F600.000
G1 X93.912 Y98.140 E0.27517
G1 F6240
G1 X96.166 Y98.140 E-1.23500
G1 E-0.06500 F3600.00000
G1 Z1.050 F7800.000
G1 X103.800 Y101.400 F7800.000
G1 E1.30000 F3600.00000
G1 X104.573 Y101.400 E0.02783 F600.000
G1 X103.976 Y102.320 E0.03949
G1 X102.880 Y102.320 E0.03944
G1 X102.880 Y98.600 E0.13392
G1 X97.120 Y98.600 E0.20735
G1 X97.120 Y102.320 E0.13392
G1 X96.024 Y102.320 E0.03944
G1 X95.427 Y101.400 E0.03949
G1 X96.200 Y101.400 E0.02783
G1 X96.200 Y98.600 E0.10080
G1 X93.700 Y98.600 E0.09000
G1 X93.700 Y97.680 E0.03312
G1 X106.300 Y97.680 E0.45359
G1 X106.300 Y98.600 E0.03312
G1 X103.800 Y98.600 E0.09000
G1 X103.800 Y101.340 E0.09864
G1 X103.800 Y101.800 F7800.000
G1 X104.021 Y101.860 F7800.000
G1 X103.588 Y101.860 E0.04771 F600.000
G1 X103.383 Y101.817 E0.02307
G1 X103.340 Y101.612 E0.02307
G1 X103.340 Y98.202 E0.37536
G1 X103.588 Y98.140 E0.02811
G1 X106.088 Y98.140 E0.27517
G1 X104.083 Y98.388 F7800.000
G1 X103.092 Y98.140 E0.11243 F600.000
G1 X96.908 Y98.140 E0.68070
G1 X96.660 Y98.202 E0.02811
G1 X96.660 Y101.612 E0.37536
G1 X96.617 Y101.817 E0.02307
G1 X96.412 Y101.860 E0.02307
G1 X95.979 Y101.860 E0.04771
G1 X97.403 Y98.388 F7800.000
G1 X96.412 Y98.140 E0.11243 F600.000
G1 X93.912 Y98.140 E0.27517
G1 F6240
G1 X96.166 Y98.140 E-1.23500
G1 E-0.06500 F3600.00000
G1 Z1.300 F7800.000
G1 X103.800 Y101.400 F7800.000
G1 E1.30000 F3600.00000
G1 X104.573 Y101.400 E0.02783 F600.000
G1 X103.976 Y102.320 E0.03949
G1 X102.880 Y102.320 E0.03944
G1 X102.880 Y98.600 E0.13392
G1 X97.120 Y98.600 E0.20735
G1 X97.120 Y102.320 E0.13392
G1 X96.024 Y102.320 E0.03944
G1 X95.427 Y101.400 E0.03949
G1 X96.200 Y101.400 E0.02783
G1 X96.200 Y98.600 E0.10080
G1 X93.700 Y98.600 E0.09000
G1 X93.700 Y97.680 E0.03312
G1 X106.300 Y97.680 E0.45359
G1 X106.300 Y98.600 E0.03312
G1 X103.800 Y98.600 E0.09000
G1 X103.800 Y101.340 E0.09864
G1 X103.800 Y101.800 F7800.000
G1 X104.021 Y101.860 F7800.000
G1 X103.588 Y101.860 E0.04771 F600.000
G1 X103.383 Y101.817 E0.02307
G1 X103.340 Y101.612 E0.02307
G1 X103.340 Y98.202 E0.37536
G1 X103.588 Y98.140 E0.02811
G1 X106.088 Y98.140 E0.27517
G1 X104.083 Y98.388 F7800.000
G1 X103.092 Y98.140 E0.11243 F600.000
G1 X96.908 Y98.140 E0.68070
G1 X96.660 Y98.202 E0.02811
G1 X96.660 Y101.612 E0.37536
G1 X96.617 Y101.817 E0.02307
G1 X96.412 Y101.860 E0.02307
G1 X95.979 Y101.860 E0.04771
G1 X97.403 Y98.388 F7800.000
G1 X96.412 Y98.140 E0.11243 F600.000
G1 X93.912 Y98.140 E0.27517
G1 F6240
G1 X96.166 Y98.140 E-1.23500
G1 E-0.06500 F3600.00000
G1 Z1.550 F7800.000
G1 X103.800 Y101.400 F7800.000
G1 E1.30000 F3600.00000
G1 X104.573 Y101.400 E0.02783 F600.000
G1 X103.976 Y102.320 E0.03949
G1 X102.880 Y102.320 E0.03944
G1 X102.880 Y98.600 E0.13392
G1 X97.120 Y98.600 E0.20735
G1 X97.120 Y102.320 E0.13392
G1 X96.024 Y102.320 E0.03944
G1 X95.427 Y101.400 E0.03949
G1 X96.200 Y101.400 E0.02783
G1 X96.200 Y98.600 E0.10080
G1 X93.700 Y98.600 E0.09000
G1 X93.700 Y97.680 E0.03312
G1 X106.300 Y97.680 E0.45359
G1 X106.300 Y98.600 E0.03312
G1 X103.800 Y98.600 E0.09000
G1 X103.800 Y101.340 E0.09864
G1 X103.800 Y101.800 F7800.000
G1 X104.021 Y101.860 F7800.000
G1 X103.588 Y101.860 E0.04771 F600.000
G1 X103.383 Y101.817 E0.02307
G1 X103.340 Y101.612 E0.02307
G1 X103.340 Y98.202 E0.37536
G1 X103.588 Y98.140 E0.02811
G1 X106.088 Y98.140 E0.27517
G1 X104.083 Y98.388 F7800.000
G1 X103.092 Y98.140 E0.11243 F600.000
G1 X96.908 Y98.140 E0.68070
G1 X96.660 Y98.202 E0.02811
G1 X96.660 Y101.612 E0.37536
G1 X96.617 Y101.817 E0.02307
G1 X96.412 Y101.860 E0.02307
G1 X95.979 Y101.860 E0.04771
G1 X97.403 Y98.388 F7800.000
G1 X96.412 Y98.140 E0.11243 F600.000
G1 X93.912 Y98.140 E0.27517
G1 F6240
G1 X96.166 Y98.140 E-1.23500
G1 E-0.06500 F3600.00000
G1 Z1.800 F7800.000
G1 X103.800 Y101.400 F7800.000
G1 E1.30000 F3600.00000
G1 X104.573 Y101.400 E0.02783 F600.000
G1 X103.976 Y102.320 E0.03949
G1 X102.880 Y102.320 E0.03944
G1 X102.880 Y98.600 E0.13392
G1 X97.120 Y98.600 E0.20735
G1 X97.120 Y102.320 E0.13392
G1 X96.024 Y102.320 E0.03944
G1 X95.427 Y101.400 E0.03949
G1 X96.200 Y101.400 E0.02783
G1 X96.200 Y98.600 E0.10080
G1 X93.700 Y98.600 E0.09000
G1 X93.700 Y97.680 E0.03312
G1 X106.300 Y97.680 E0.45359
G1 X106.300 Y98.600 E0.03312
G1 X103.800 Y98.600 E0.09000
G1 X103.800 Y101.340 E0.09864
G1 X103.800 Y101.800 F7800.000
G1 X104.021 Y101.860 F7800.000
G1 X103.588 Y101.860 E0.04771 F600.000
G1 X103.383 Y101.817 E0.02307
G1 X103.340 Y101.612 E0.02307
G1 X103.340 Y98.202 E0.37536
G1 X103.588 Y98.140 E0.02811
G1 X106.088 Y98.140 E0.27517
G1 X104.083 Y98.388 F7800.000
G1 X103.092 Y98.140 E0.11243 F600.000
G1 X96.908 Y98.140 E0.68070
G1 X96.660 Y98.202 E0.02811
G1 X96.660 Y101.612 E0.37536
G1 X96.617 Y101.817 E0.02307
G1 X96.412 Y101.860 E0.02307
G1 X95.979 Y101.860 E0.04771
G1 X97.403 Y98.388 F7800.000
G1 X96.412 Y98.140 E0.11243 F600.000
G1 X93.912 Y98.140 E0.27517
G1 F6240
G1 X96.166 Y98.140 E-1.23500
G1 E-0.06500 F3600.00000
G1 Z2.050 F7800.000
G1 X103.800 Y101.400 F7800.000
G1 E1.30000 F3600.00000
G1 X104.573 Y101.400 E0.02783 F600.000
G1 X103.976 Y102.320 E0.03949
G1 X102.880 Y102.320 E0.03944
G1 X102.880 Y98.600 E0.13392
G1 X97.120 Y98.600 E0.20735
G1 X97.120 Y102.320 E0.13392
G1 X96.024 Y102.320 E0.03944
G1 X95.427 Y101.400 E0.03949
G1 X96.200 Y101.400 E0.02783
G1 X96.200 Y98.600 E0.10080
G1 X93.700 Y98.600 E0.09000
G1 X93.700 Y97.680 E0.03312
G1 X106.300 Y97.680 E0.45359
G1 X106.300 Y98.600 E0.03312
G1 X103.800 Y98.600 E0.09000
G1 X103.800 Y101.340 E0.09864
G1 X103.800 Y101.800 F7800.000
G1 X104.021 Y101.860 F7800.000
G1 X103.588 Y101.860 E0.04771 F600.000
G1 X103.383 Y101.817 E0.02307
G1 X103.340 Y101.612 E0.02307
G1 X103.340 Y98.202 E0.37536
G1 X103.588 Y98.140 E0.02811
G1 X106.088 Y98.140 E0.27517
G1 X104.083 Y98.388 F7800.000
G1 X103.092 Y98.140 E0.11243 F600.000
G1 X96.908 Y98.140 E0.68070
G1 X96.660 Y98.202 E0.02811
G1 X96.660 Y101.612 E0.37536
G1 X96.617 Y101.817 E0.02307
G1 X96.412 Y101.860 E0.02307
G1 X95.979 Y101.860 E0.04771
G1 X97.403 Y98.388 F7800.000
G1 X96.412 Y98.140 E0.11243 F600.000
G1 X93.912 Y98.140 E0.27517
G1 F6240
G1 X96.166 Y98.140 E-1.23500
G1 E-0.06500 F3600.00000
G1 Z2.300 F7800.000
G1 X103.800 Y101.400 F7800.000
G1 E1.30000 F3600.00000
G1 X104.573 Y101.400 E0.02783 F600.000
G1 X103.976 Y102.320 E0.03949
G1 X102.880 Y102.320 E0.03944
G1 X102.880 Y98.600 E0.13392
G1 X97.120 Y98.600 E0.20735
G1 X97.120 Y102.320 E0.13392
G1 X96.024 Y102.320 E0.03944
G1 X95.427 Y101.400 E0.03949
G1 X96.200 Y101.400 E0.02783
G1 X96.200 Y98.600 E0.10080
G1 X93.700 Y98.600 E0.09000
G1 X93.700 Y97.680 E0.03312
G1 X106.300 Y97.680 E0.45359
G1 X106.300 Y98.600 E0.03312
G1 X103.800 Y98.600 E0.09000
G1 X103.800 Y101.340 E0.09864
G1 X103.800 Y101.800 F7800.000
G1 X104.021 Y101.860 F7800.000
G1 X103.588 Y101.860 E0.04771 F600.000
G1 X103.383 Y101.817 E0.02307
G1 X103.340 Y101.612 E0.02307
G1 X103.340 Y98.202 E0.37536
G1 X103.588 Y98.140 E0.02811
G1 X106.088 Y98.140 E0.27517
G1 X104.083 Y98.388 F7800.000
G1 X103.092 Y98.140 E0.11243 F600.000
G1 X96.908 Y98.140 E0.68070
G1 X96.660 Y98.202 E0.02811
G1 X96.660 Y101.612 E0.37536
G1 X96.617 Y101.817 E0.02307
G1 X96.412 Y101.860 E0.02307
G1 X95.979 Y101.860 E0.04771
G1 X97.403 Y98.388 F7800.000
G1 X96.412 Y98.140 E0.11243 F600.000
G1 X93.912 Y98.140 E0.27517
G1 F6240
G1 X96.166 Y98.140 E-1.23500
G1 E-0.06500 F3600.00000
G1 Z2.550 F7800.000
G1 X103.800 Y101.400 F7800.000
G1 E1.30000 F3600.00000
G1 X104.573 Y101.400 E0.02783 F600.000
G1 X103.976 Y102.320 E0.03949
G1 X102.880 Y102.320 E0.03944
G1 X102.880 Y98.600 E0.13392
G1 X97.120 Y98.600 E0.20735
G1 X97.120 Y102.320 E0.13392
G1 X96.024 Y102.320 E0.03944
G1 X95.427 Y101.400 E0.03949
G1 X96.200 Y101.400 E0.02783
G1 X96.200 Y98.600 E0.10080
G1 X93.700 Y98.600 E0.09000
G1 X93.700 Y97.680 E0.03312
G1 X106.300 Y97.680 E0.45359
G1 X106.300 Y98.600 E0.03312
G1 X103.800 Y98.600 E0.09000
G1 X103.800 Y101.340 E0.09864
G1 X103.800 Y101.800 F7800.000
G1 X104.021 Y101.860 F7800.000
G1 X103.588 Y101.860 E0.04771 F600.000
G1 X103.383 Y101.817 E0.02307
G1 X103.340 Y101.612 E0.02307
G1 X103.340 Y98.202 E0.37536
G1 X103.588 Y98.140 E0.02811
G1 X106.088 Y98.140 E0.27517
G1 X104.083 Y98.388 F7800.000
G1 X103.092 Y98.140 E0.11243 F600.000
G1 X96.908 Y98.140 E0.68070
G1 X96.660 Y98.202 E0.02811
G1 X96.660 Y101.612 E0.37536
G1 X96.617 Y101.817 E0.02307
G1 X96.412 Y101.860 E0.02307
G1 X95.979 Y101.860 E0.04771
G1 X97.403 Y98.388 F7800.000
G1 X96.412 Y98.140 E0.11243 F600.000
G1 X93.912 Y98.140 E0.27517
G1 F6240
G1 X96.166 Y98.140 E-1.23500
G1 E-0.06500 F3600.00000
G1 Z2.800 F7800.000
G1 X103.800 Y101.400 F7800.000
G1 E1.30000 F3600.00000
G1 X104.573 Y101.400 E0.02783 F600.000
G1 X103.976 Y102.320 E0.03949
G1 X102.880 Y102.320 E0.03944
G1 X102.880 Y98.600 E0.13392
G1 X97.120 Y98.600 E0.20735
G1 X97.120 Y102.320 E0.13392
G1 X96.024 Y102.320 E0.03944
G1 X95.427 Y101.400 E0.03949
G1 X96.200 Y101.400 E0.02783
G1 X96.200 Y98.600 E0.10080
G1 X93.700 Y98.600 E0.09000
G1 X93.700 Y97.680 E0.03312
G1 X106.300 Y97.680 E0.45359
G1 X106.300 Y98.600 E0.03312
G1 X103.800 Y98.600 E0.09000
G1 X103.800 Y101.340 E0.09864
G1 X103.800 Y101.800 F7800.000
G1 X104.021 Y101.860 F7800.000
G1 X103.588 Y101.860 E0.04771 F600.000
G1 X103.383 Y101.817 E0.02307
G1 X103.340 Y101.612 E0.02307
G1 X103.340 Y98.202 E0.37536
G1 X103.588 Y98.140 E0.02811
G1 X106.088 Y98.140 E0.27517
G1 X104.083 Y98.388 F7800.000
G1 X103.092 Y98.140 E0.11243 F600.000
G1 X96.908 Y98.140 E0.68070
G1 X96.660 Y98.202 E0.02811
G1 X96.660 Y101.612 E0.37536
G1 X96.617 Y101.817 E0.02307
G1 X96.412 Y101.860 E0.02307
G1 X95.979 Y101.860 E0.04771
G1 X97.403 Y98.388 F7800.000
G1 X96.412 Y98.140 E0.11243 F600.000
G1 X93.912 Y98.140 E0.27517
G1 F6240
G1 X96.166 Y98.140 E-1.23500
G1 E-0.06500 F3600.00000
G1 Z3.050 F7800.000
G1 X103.800 Y101.400 F7800.000
G1 E1.30000 F3600.00000
G1 X104.573 Y101.400 E0.02783 F600.000
G1 X103.976 Y102.320 E0.03949
G1 X102.880 Y102.320 E0.03944
G1 X102.880 Y98.600 E0.13392
G1 X97.120 Y98.600 E0.20735
G1 X97.120 Y102.320 E0.13392
