; generated by Slic3r 1.2.9 on 2020-05-14 at 10:35:03

; external perimeters extrusion width = 0.40mm
; perimeters extrusion width = 0.56mm
; infill extrusion width = 0.56mm
; solid infill extrusion width = 0.56mm
; top infill extrusion width = 0.56mm

M107
M190 S60 ; set bed temperature
M104 S215 ; set temperature
G28 ; home all axes
G92 E0.0 ; reset extruder
M109 S215 ; wait for temperature to be reached
G21 ; set units to millimeters
G90 ; use absolute coordinates
M83 ; use relative distances for extrusion
G1 E-1.30000 F3600.00000
G1 Z0.300 F7800.000
G1 X71.306 Y71.306 F7800.000
G1 E1.30000 F3600.00000
M204 S500
G1 X73.506 Y69.106 E0.18457 F2160.000
G1 X75.857 Y67.319 E0.17519
G1 X78.600 Y66.224 E0.17519
G1 X81.250 Y65.899 E0.15839
G1 X118.750 Y65.899 E2.22457
G1 X121.676 Y66.297 E0.17519 F2160.000
G1 X124.390 Y67.463 E0.17519
G1 X126.494 Y69.106 E0.15840
G1 X130.852 Y73.465 E0.36565
G1 X132.681 Y75.857 E0.17864
G1 X133.776 Y78.600 E0.17519
G1 X134.101 Y81.250 E0.15839
G1 X134.101 Y118.750 E2.22457
G1 X133.703 Y121.676 E0.17519
G1 X132.538 Y124.390 E0.17519
G1 X130.894 Y126.494 E0.15840
G1 X126.494 Y130.894 E0.36913
G1 X124.143 Y132.681 E0.17519
G1 X121.400 Y133.776 E0.17519
G1 X118.750 Y134.101 E0.15840
G1 X81.250 Y134.101 E2.22457
G1 X78.324 Y133.703 E0.17519
G1 X75.610 Y132.537 E0.17519
G1 X73.506 Y130.894 E0.15839
G1 X69.106 Y126.494 E0.36914
G1 X67.319 Y124.143 E0.17519
G1 X66.224 Y121.400 E0.17519
G1 X65.899 Y118.750 E0.15840
G1 X65.899 Y81.250 E2.22457
G1 X66.297 Y78.324 E0.17519
G1 X67.463 Y75.610 E0.17519
G1 X69.106 Y73.506 E0.15840
G1 X71.264 Y71.349 E0.18101
G1 X71.643 Y71.643 F7800.000
G1 X73.843 Y69.443 E0.18457 F2160.000
G1 X76.147 Y67.701 E0.17132
G1 X78.839 Y66.656 E0.17132
G1 X81.250 Y66.374 E0.14400
G1 X118.750 Y66.374 E2.22457
G1 X121.610 Y66.772 E0.17132 F2160.000
G1 X124.253 Y67.936 E0.17132
G1 X126.157 Y69.443 E0.14401
G1 X130.516 Y73.801 E0.36565
G1 X132.299 Y76.147 E0.17478
G1 X133.344 Y78.839 E0.17132
G1 X133.626 Y81.250 E0.14400
G1 X133.626 Y118.750 E2.22457
G1 X133.228 Y121.610 E0.17132
G1 X132.064 Y124.253 E0.17132
G1 X130.557 Y126.157 E0.14401
G1 X126.157 Y130.557 E0.36913
G1 X123.853 Y132.299 E0.17132
G1 X121.161 Y133.344 E0.17132
G1 X118.750 Y133.626 E0.14401
G1 X81.250 Y133.626 E2.22457
G1 X78.390 Y133.228 E0.17132
G1 X75.747 Y132.064 E0.17132
G1 X73.843 Y130.557 E0.14400
G1 X69.443 Y126.157 E0.36914
G1 X67.701 Y123.853 E0.17132
G1 X66.656 Y121.161 E0.17132
G1 X66.374 Y118.750 E0.14401
G1 X66.374 Y81.250 E2.22457
G1 X66.772 Y78.390 E0.17132
G1 X67.936 Y75.747 E0.17132
G1 X69.443 Y73.843 E0.14401
G1 X71.600 Y71.685 E0.18101
G1 F6240
G1 X73.194 Y70.092 E-1.23500
G1 E-0.06500 F3600.00000
G1 X107.654 Y102.246 F7800.000
G1 E1.30000 F3600.00000
G1 X103.290 Y102.246 E0.25891 F1080.000
G1 X103.290 Y97.754 E0.26643
G1 X107.654 Y97.754 E0.25891
G1 X107.654 Y102.186 E0.26287
G1 X107.179 Y101.770 F7800.000
G1 X103.766 Y101.770 E0.20248 F1080.000
G1 X103.766 Y98.230 E0.21000
G1 X107.179 Y98.230 E0.20248
G1 X107.179 Y101.710 E0.20644
G1 X107.179 Y102.170 F7800.000
G1 X96.710 Y102.246 F7800.000
G1 X92.346 Y102.246 E0.25891 F1080.000
G1 X92.346 Y97.754 E0.26643
G1 X96.710 Y97.754 E0.25891
G1 X96.710 Y102.186 E0.26287
G1 X96.234 Y101.770 F7800.000
G1 X92.821 Y101.770 E0.20248 F1080.000
G1 X92.821 Y98.230 E0.21000
G1 X96.234 Y98.230 E0.20248
G1 X96.234 Y101.710 E0.20644
G1 X96.234 Y102.170 F7800.000
G1 F6240
G1 X93.981 Y101.750 E-1.23500
G1 E-0.06500 F3600.00000
G1 X77.596 Y112.680 F7800.000
G1 E1.30000 F3600.00000
G1 X80.183 Y112.680 E0.15347 F1620.000
G1 X82.790 Y112.126 E0.15812
G1 X85.225 Y111.042 E0.15812
G1 X87.381 Y109.475 E0.15812
G1 X89.165 Y107.494 E0.15812
G1 X90.497 Y105.186 E0.15812
G1 X91.321 Y102.651 E0.15812
G1 X91.600 Y100.000 E0.15812
G1 X91.321 Y97.349 E0.15812
G1 X90.497 Y94.814 E0.15812
G1 X89.165 Y92.506 E0.15812
G1 X87.381 Y90.525 E0.15812
G1 X85.225 Y88.958 E0.15812
G1 X82.790 Y87.874 E0.15812
G1 X80.183 Y87.320 E0.15812
G1 X77.596 Y87.320 E0.15347
G1 X77.596 Y81.559 E0.34177
G1 X81.559 Y77.596 E0.33249
G1 X87.382 Y77.596 E0.34545
G1 X87.250 Y78.850 E0.07482
G1 X87.529 Y81.501 E0.15812
G1 X88.353 Y84.036 E0.15812
G1 X89.685 Y86.344 E0.15812
G1 X91.469 Y88.325 E0.15812
G1 X93.625 Y89.892 E0.15812
G1 X96.060 Y90.976 E0.15812
G1 X98.667 Y91.530 E0.15812
G1 X101.333 Y91.530 E0.15812
G1 X103.940 Y90.976 E0.15812
G1 X106.375 Y89.892 E0.15812
G1 X108.531 Y88.325 E0.15812
G1 X110.315 Y86.344 E0.15812
G1 X111.647 Y84.036 E0.15812
G1 X112.471 Y81.501 E0.15812
G1 X112.750 Y78.850 E0.15812
G1 X112.618 Y77.596 E0.07482
G1 X118.441 Y77.596 E0.34545
G1 X122.404 Y81.559 E0.33249
G1 X122.404 Y87.320 E0.34177
G1 X119.817 Y87.320 E0.15347
G1 X117.210 Y87.874 E0.15812
G1 X114.775 Y88.958 E0.15812
G1 X112.619 Y90.525 E0.15812
G1 X110.835 Y92.506 E0.15812
G1 X109.503 Y94.814 E0.15812
G1 X108.679 Y97.349 E0.15812
G1 X108.400 Y100.000 E0.15812
G1 X108.679 Y102.651 E0.15812
G1 X109.503 Y105.186 E0.15812
G1 X110.835 Y107.494 E0.15812
G1 X112.619 Y109.475 E0.15812
G1 X114.775 Y111.042 E0.15812
G1 X117.210 Y112.126 E0.15812
G1 X119.817 Y112.680 E0.15812
G1 X122.404 Y112.680 E0.15347
G1 X122.404 Y118.441 E0.34177
G1 X118.441 Y122.404 E0.33249
G1 X112.618 Y122.404 E0.34545
G1 X112.750 Y121.150 E0.07482
G1 X112.471 Y118.499 E0.15812
G1 X111.647 Y115.964 E0.15812
G1 X110.315 Y113.656 E0.15812
G1 X108.531 Y111.675 E0.15812
G1 X106.375 Y110.108 E0.15812
G1 X103.940 Y109.024 E0.15812
G1 X101.333 Y108.470 E0.15812
G1 X98.667 Y108.470 E0.15812
G1 X96.060 Y109.024 E0.15812
G1 X93.625 Y110.108 E0.15812
G1 X91.469 Y111.675 E0.15812
G1 X89.685 Y113.656 E0.15812
G1 X88.353 Y115.964 E0.15812
G1 X87.529 Y118.499 E0.15812
G1 X87.250 Y121.150 E0.15812
G1 X87.382 Y122.404 E0.07482
G1 X81.559 Y122.404 E0.34545
G1 X77.596 Y118.441 E0.33249
G1 X77.596 Y112.740 E0.33821
G1 X77.120 Y112.109 F7800.000
G1 X77.567 Y112.204 E0.02713 F1458.000
G1 X80.133 Y112.204 E0.15218
G1 X82.642 Y111.671 E0.15219
G1 X84.986 Y110.627 E0.15219
G1 X87.061 Y109.119 E0.15219
G1 X88.778 Y107.213 E0.15219
G1 X90.061 Y104.991 E0.15219
G1 X90.853 Y102.551 E0.15219
G1 X91.121 Y100.000 E0.15219
G1 X90.853 Y97.449 E0.15219
G1 X90.061 Y95.009 E0.15219
G1 X88.778 Y92.787 E0.15219
G1 X87.061 Y90.881 E0.15219
G1 X84.986 Y89.373 E0.15219
G1 X82.642 Y88.329 E0.15219
G1 X80.133 Y87.796 E0.15219
G1 X77.567 Y87.796 E0.15218
G1 X77.120 Y87.891 E0.02713
G1 X77.120 Y81.362 E0.38731
G1 X81.362 Y77.120 E0.35586
G1 X87.910 Y77.120 E0.38847
G1 X87.729 Y78.850 E0.10319
G1 X87.997 Y81.401 E0.15218
G1 X88.789 Y83.841 E0.15219
G1 X90.072 Y86.063 E0.15219
G1 X91.789 Y87.969 E0.15219
G1 X93.864 Y89.477 E0.15219
G1 X96.208 Y90.521 E0.15219
G1 X98.717 Y91.054 E0.15219
G1 X101.283 Y91.054 E0.15219
G1 X103.792 Y90.521 E0.15219
G1 X106.136 Y89.477 E0.15219
G1 X108.211 Y87.969 E0.15219
G1 X109.928 Y86.063 E0.15219
G1 X111.211 Y83.841 E0.15219
G1 X112.003 Y81.401 E0.15219
G1 X112.271 Y78.850 E0.15218
G1 X112.090 Y77.120 E0.10319
G1 X118.638 Y77.120 E0.38847
G1 X122.880 Y81.362 E0.35586
G1 X122.880 Y87.891 E0.38731
G1 X122.433 Y87.796 E0.02713
G1 X119.867 Y87.796 E0.15218
G1 X117.358 Y88.329 E0.15219
G1 X115.014 Y89.373 E0.15219
G1 X112.939 Y90.881 E0.15219
G1 X111.222 Y92.787 E0.15219
G1 X109.939 Y95.009 E0.15219
G1 X109.147 Y97.449 E0.15219
G1 X108.879 Y100.000 E0.15219
G1 X109.147 Y102.551 E0.15219
G1 X109.939 Y104.991 E0.15219
G1 X111.222 Y107.213 E0.15219
G1 X112.939 Y109.119 E0.15219
G1 X115.014 Y110.627 E0.15219
G1 X117.358 Y111.671 E0.15219
G1 X119.867 Y112.204 E0.15219
G1 X122.433 Y112.204 E0.15218
G1 X122.880 Y112.109 E0.02713
G1 X122.880 Y118.638 E0.38731
G1 X118.638 Y122.880 E0.35586
G1 X112.090 Y122.880 E0.38847
G1 X112.271 Y121.150 E0.10319
G1 X112.003 Y118.599 E0.15218
G1 X111.211 Y116.159 E0.15219
G1 X109.928 Y113.937 E0.15219
G1 X108.211 Y112.031 E0.15219
G1 X106.136 Y110.523 E0.15219
G1 X103.792 Y109.479 E0.15219
G1 X101.283 Y108.946 E0.15219
G1 X98.717 Y108.946 E0.15219
G1 X96.208 Y109.479 E0.15219
G1 X93.864 Y110.523 E0.15219
G1 X91.789 Y112.031 E0.15219
G1 X90.072 Y113.937 E0.15219
G1 X88.789 Y116.159 E0.15219
G1 X87.997 Y118.599 E0.15219
G1 X87.729 Y121.150 E0.15218
G1 X87.910 Y122.880 E0.10319
G1 X81.362 Y122.880 E0.38847
G1 X77.120 Y118.638 E0.35586
G1 X77.120 Y112.169 E0.38375
G1 X77.435 Y112.355 F7800.000
G1 F6240
G1 X77.567 Y112.204 E-0.24592
G1 F6240
G1 X79.372 Y112.204 E-0.98908
G1 E-0.06500 F3600.00000
G1 X91.843 Y102.483 F7800.000
G1 E1.30000 F3600.00000
G1 X91.954 Y100.371 E0.26792 F360.000
G1 X91.954 Y100.371 F7800.000
G1 X91.973 Y100.014 E0.02122 F360.000
G1 X91.954 Y99.629 E0.02289
G1 X91.954 Y99.629 F7800.000
G1 X91.843 Y97.517 E0.26792 F360.000
G1 X108.157 Y97.517 F7800.000
G1 X108.046 Y99.629 E0.26792 F360.000
G1 X108.046 Y99.629 F7800.000
G1 X108.027 Y99.986 E0.02122 F360.000
G1 X108.046 Y100.371 E0.02289
G1 X108.157 Y102.483 E0.26792 F360.000
G1 X107.854 Y102.778 F7800.000
G1 X108.639 Y103.563 E0.06627 F1620.000
G1 X108.965 Y104.565 E0.06294
G1 X106.929 Y102.529 E0.17193
G1 X106.252 Y102.529 E0.04041
G1 X109.365 Y105.642 E0.26285
G1 X110.290 Y107.244 F7800.000
G1 X105.575 Y102.529 E0.39804 F1620.000
G1 X104.898 Y102.529 E0.04041
G1 X121.422 Y119.053 E1.39504
G1 X121.084 Y119.392 E0.02857
G1 X104.221 Y102.529 E1.42361
G1 X103.544 Y102.529 E0.04041
G1 X120.745 Y119.730 E1.45218
G1 X122.121 Y113.660 F7800.000
G1 X121.424 Y112.963 E0.05883 F1620.000
G1 X120.747 Y112.963 E0.04041
G1 X122.121 Y114.337 E0.11598
G1 X122.121 Y115.014 E0.04041
G1 X120.070 Y112.963 E0.17312
G1 X119.317 Y112.887 E0.04519
G1 X122.121 Y115.691 E0.23670
G1 X122.121 Y116.368 E0.04041
G1 X118.458 Y112.704 E0.30927
G1 X117.598 Y112.522 E0.05246
G1 X122.121 Y117.045 E0.38184
G1 X122.121 Y117.721 E0.04041
G1 X116.633 Y112.233 E0.46331
G1 X115.413 Y111.690 F7800.000
G1 X122.099 Y118.376 E0.56447 F1620.000
G1 X121.761 Y118.715 E0.02857
G1 X113.896 Y110.851 E0.66393
G1 X110.860 Y113.906 F7800.000
G1 X118.715 Y121.761 E0.66310 F1620.000
G1 X119.053 Y121.422 E0.02857
G1 X96.993 Y99.363 E1.86236
G1 X96.993 Y98.686 E0.04041
G1 X119.392 Y121.084 E1.89093
G1 X119.730 Y120.745 E0.02857
G1 X96.993 Y98.009 E1.91951
G1 X96.993 Y100.039 F7800.000
G1 X107.253 Y110.299 E0.86617 F1620.000
G1 X105.737 Y109.460 F7800.000
G1 X96.993 Y100.716 E0.73815 F1620.000
G1 X96.993 Y101.393 E0.04041
G1 X104.517 Y108.916 E0.63515
G1 X111.785 Y115.508 F7800.000
G1 X118.376 Y122.099 E0.55648 F1620.000
G1 X117.721 Y122.121 E0.03913
G1 X112.185 Y116.585 E0.46740
G1 X112.511 Y117.587 E0.06294
G1 X117.044 Y122.121 E0.38275
G1 X116.368 Y122.121 E0.04041
G1 X112.770 Y118.523 E0.30374
G1 X112.849 Y119.280 E0.04540
G1 X115.691 Y122.121 E0.23989
G1 X115.014 Y122.121 E0.04041
G1 X112.929 Y120.036 E0.17603
G1 X113.008 Y120.792 E0.04540
G1 X114.337 Y122.121 E0.11218
G1 X113.660 Y122.121 E0.04041
G1 X112.993 Y121.454 E0.05634
G1 F6240
G1 X113.660 Y122.121 E-0.51730
G1 F6240
G1 X114.337 Y122.121 E-0.37098
G1 F6240
G1 X113.890 Y121.674 E-0.34673
G1 E-0.06500 F3600.00000
G1 X96.993 Y102.070 F7800.000
G1 E1.30000 F3600.00000
G1 X103.552 Y108.628 E0.55368 F1620.000
G1 X102.692 Y108.446 E0.05246
G1 X96.776 Y102.529 E0.49951
G1 X96.099 Y102.529 E0.04041
G1 X101.833 Y108.263 E0.48408
G1 X101.080 Y108.187 E0.04519
G1 X95.422 Y102.529 E0.47765
G1 X94.745 Y102.529 E0.04041
G1 X100.403 Y108.187 E0.47765
G1 X99.726 Y108.187 E0.04041
G1 X94.068 Y102.529 E0.47765
G1 X93.391 Y102.529 E0.04041
G1 X99.049 Y108.187 E0.47765
G1 X98.434 Y108.249 E0.03687
G1 X92.714 Y102.529 E0.48291
G1 X92.305 Y102.797 F7800.000
G1 X97.876 Y108.368 E0.47032 F1620.000
G1 X97.318 Y108.486 E0.03407
G1 X91.591 Y102.759 E0.48350
G1 X91.399 Y103.244 E0.03112
G1 X96.760 Y108.605 E0.45260
G1 X96.202 Y108.724 E0.03407
G1 X91.233 Y103.755 E0.41949
G1 X91.067 Y104.266 E0.03207
G1 X95.707 Y108.906 E0.39179
G1 X95.239 Y109.115 E0.03060
G1 X90.901 Y104.777 E0.36626
G1 X90.727 Y105.280 E0.03179
G1 X94.771 Y109.324 E0.34135
G1 X94.302 Y109.532 E0.03060
G1 X90.480 Y105.709 E0.32273
G1 X90.232 Y106.138 E0.02958
G1 X93.834 Y109.741 E0.30410
G1 X93.393 Y109.976 E0.02986
G1 X89.984 Y106.568 E0.28778
G1 X89.736 Y106.997 E0.02958
G1 X93.001 Y110.261 E0.27560
G1 X92.609 Y110.546 E0.02893
G1 X89.489 Y107.426 E0.26342
G1 X89.201 Y107.815 E0.02889
G1 X92.217 Y110.831 E0.25460
G1 X91.825 Y111.116 E0.02893
G1 X88.880 Y108.171 E0.24858
G1 X88.560 Y108.527 E0.02861
G1 X91.433 Y111.401 E0.24256
G1 X91.090 Y111.735 E0.02857
G1 X88.239 Y108.884 E0.24069
G1 X87.918 Y109.240 E0.02861
G1 X90.769 Y112.091 E0.24069
G1 X90.449 Y112.447 E0.02861
G1 X87.598 Y109.596 E0.24069
G1 X87.219 Y109.894 E0.02878
G1 X90.128 Y112.803 E0.24561
G1 X89.807 Y113.159 E0.02861
G1 X86.827 Y110.179 E0.25163
G1 X86.435 Y110.464 E0.02893
G1 X89.486 Y113.515 E0.25765
G1 X89.236 Y113.942 E0.02952
G1 X86.042 Y110.748 E0.26959
G1 X85.650 Y111.033 E0.02893
G1 X88.988 Y114.371 E0.28177
G1 X88.740 Y114.800 E0.02958
G1 X85.247 Y111.307 E0.29492
G1 X84.779 Y111.515 E0.03060
G1 X88.493 Y115.229 E0.31354
G1 X88.245 Y115.658 E0.02958
G1 X84.310 Y111.724 E0.33216
G1 X83.842 Y111.932 E0.03060
G1 X88.031 Y116.121 E0.35367
G1 X87.865 Y116.632 E0.03207
G1 X83.374 Y112.141 E0.37920
G1 X82.905 Y112.349 E0.03060
G1 X87.699 Y117.143 E0.40472
G1 X87.533 Y117.654 E0.03207
G1 X82.366 Y112.486 E0.43626
G1 X81.807 Y112.605 E0.03407
G1 X87.367 Y118.165 E0.46937
G1 X87.232 Y118.707 E0.03334
G1 X81.249 Y112.724 E0.50511
G1 X80.691 Y112.842 E0.03407
G1 X87.168 Y119.319 E0.54680
G1 X87.103 Y119.932 E0.03677
G1 X80.133 Y112.961 E0.58849
G1 X79.458 Y112.963 E0.04027
G1 X87.039 Y120.544 E0.64001
G1 X86.975 Y121.157 E0.03677
G1 X78.781 Y112.963 E0.69172
G1 X78.104 Y112.963 E0.04041
G1 X87.032 Y121.891 E0.75371
G1 X86.585 Y122.121 E0.03000
G1 X77.879 Y113.415 E0.73501
G1 X77.879 Y114.092 E0.04041
G1 X85.908 Y122.121 E0.67786
G1 X85.231 Y122.121 E0.04041
G1 X77.879 Y114.769 E0.62072
G1 X77.879 Y115.445 E0.04041
G1 X84.555 Y122.121 E0.56358
G1 X83.878 Y122.121 E0.04041
G1 X77.879 Y116.122 E0.50643
G1 X77.879 Y116.799 E0.04041
G1 X83.201 Y122.121 E0.44929
G1 X82.524 Y122.121 E0.04041
G1 X77.879 Y117.476 E0.39215
G1 X77.879 Y118.153 E0.04041
G1 X81.847 Y122.121 E0.33500
G1 F6240
G1 X80.254 Y120.528 E-1.23500
G1 E-0.06500 F3600.00000
G1 X92.146 Y97.222 F7800.000
G1 E1.30000 F3600.00000
G1 X91.361 Y96.437 E0.06626 F1620.000
G1 X91.035 Y95.435 E0.06294
G1 X93.071 Y97.471 E0.17192
G1 X93.748 Y97.471 E0.04041
G1 X90.635 Y94.358 E0.26283
G1 X89.710 Y92.756 F7800.000
G1 X94.425 Y97.471 E0.39803 F1620.000
G1 X95.102 Y97.471 E0.04041
G1 X78.578 Y80.947 E1.39503
G1 X78.916 Y80.608 E0.02857
G1 X95.779 Y97.471 E1.42360
G1 X96.456 Y97.471 E0.04041
G1 X79.255 Y80.270 E1.45218
G1 X79.593 Y79.931 E0.02857
G1 X120.069 Y120.407 E3.41708
G1 X120.407 Y120.069 E0.02857
G1 X79.931 Y79.593 E3.41708
G1 X80.270 Y79.255 E0.02857
G1 X103.007 Y101.991 E1.91951
G1 X103.007 Y101.314 E0.04041
G1 X80.608 Y78.916 E1.89094
G1 X87.007 Y78.546 F7800.000
G1 X86.340 Y77.879 E0.05635 F1620.000
G1 X85.663 Y77.879 E0.04041
G1 X86.992 Y79.208 E0.11218
G1 X87.071 Y79.964 E0.04540
G1 X84.986 Y77.879 E0.17604
G1 X84.309 Y77.879 E0.04041
G1 X87.151 Y80.721 E0.23989
G1 X87.230 Y81.477 E0.04540
G1 X83.632 Y77.879 E0.30375
G1 X82.955 Y77.879 E0.04041
G1 X87.489 Y82.413 E0.38276
G1 X87.815 Y83.415 E0.06294
G1 X82.279 Y77.879 E0.46741
G1 X81.624 Y77.901 E0.03913
G1 X88.215 Y84.492 E0.55649
G1 X89.140 Y86.094 F7800.000
G1 X81.285 Y78.239 E0.66311 F1620.000
G1 X80.947 Y78.578 E0.02857
G1 X103.007 Y100.638 E1.86237
G1 X103.007 Y99.961 E0.04041
G1 X92.746 Y89.701 E0.86620
G1 X94.263 Y90.540 F7800.000
G1 X103.007 Y99.284 E0.73816 F1620.000
G1 X103.007 Y98.607 E0.04041
G1 X95.483 Y91.083 E0.63516
G1 X96.448 Y91.372 E0.06012
G1 X103.007 Y97.930 E0.55369
G1 X103.224 Y97.471 F7800.000
G1 X97.308 Y91.554 E0.49951 F1620.000
G1 X98.167 Y91.737 E0.05246
G1 X103.901 Y97.471 E0.48409
G1 X104.578 Y97.471 E0.04041
G1 X98.920 Y91.813 E0.47765
G1 X99.597 Y91.813 E0.04041
G1 X105.255 Y97.471 E0.47765
G1 X105.932 Y97.471 E0.04041
G1 X100.274 Y91.813 E0.47765
G1 X100.951 Y91.813 E0.04041
G1 X106.609 Y97.471 E0.47765
G1 X107.286 Y97.471 E0.04041
G1 X101.565 Y91.751 E0.48291
G1 X102.124 Y91.632 E0.03407
