; generated by Slic3r 1.3.1-dev (Build 2d100c4) on 2020-05-15 at 13:15:41

; external perimeters extrusion width = 0.44mm (3.91mm^3/s)
; perimeters extrusion width = 0.56mm (5.65mm^3/s)
; infill extrusion width = 0.50mm (5.02mm^3/s)
; solid infill extrusion width = 0.56mm (5.65mm^3/s)
; top infill extrusion width = 0.56mm (5.65mm^3/s)

M107
M190 S60 ; set bed temperature and wait for it to be reached
M104 S215 ; set temperature
G28 ; home all axes
G92 E0.0 ; reset extruder
; Filament gcode

M109 S215 ; set temperature and wait for it to be reached
G21 ; set units to millimeters
G90 ; use absolute coordinates
M83 ; use relative distances for extrusion
G1 E-1.30000 F3600.00000
G1 Z0.300 F7800.000
G1 X60.575 Y62.814 F7800.000
G1 E1.30000 F3600.00000
M201 X500 Y500
M204 P500 T500
G1 F2160.000
G1 X61.302 Y62.155 E0.05821
G1 X62.132 Y61.474 E0.06373
G1 X62.921 Y60.889 E0.05822
G1 X63.814 Y60.292 E0.06376
G1 X64.656 Y59.788 E0.05821
G1 X65.604 Y59.281 E0.06376
G1 X66.491 Y58.861 E0.05822
G1 X67.484 Y58.450 E0.06375
G1 X68.408 Y58.119 E0.05822
G1 X69.436 Y57.808 E0.06370
G1 X70.388 Y57.569 E0.05821
G1 X71.443 Y57.359 E0.06385
G1 X72.414 Y57.215 E0.05821
G1 X73.482 Y57.110 E0.06367
G1 X74.462 Y57.062 E0.05822
G1 X75.538 Y57.062 E0.06381
G1 X76.518 Y57.110 E0.05822
G1 X77.586 Y57.215 E0.06367
G1 X78.557 Y57.359 E0.05821
G1 X79.612 Y57.569 E0.06385
G1 X80.564 Y57.808 E0.05821
G1 X81.538 Y58.100 E0.06032
G1 X122.714 Y72.591 E2.58948
G1 X125.342 Y73.938 E0.17519
G1 X127.515 Y75.938 E0.17519
G1 X129.074 Y78.446 E0.17519
G1 X129.906 Y81.279 E0.17519
G1 X130.030 Y82.921 E0.09766
G1 X130.030 Y111.079 E1.67038
G1 X129.632 Y114.005 E0.17519
G1 X128.466 Y116.718 E0.17519
G1 X126.618 Y119.022 E0.17519
G1 X124.222 Y120.747 E0.17519
G1 X121.451 Y121.770 E0.17519
G1 X119.079 Y122.030 E0.14158
G1 X60.921 Y122.030 E3.45003
G1 X57.995 Y121.632 E0.17519
G1 X55.282 Y120.466 E0.17519
G1 X52.978 Y118.618 E0.17519
G1 X51.253 Y116.222 E0.17519
G1 X50.230 Y113.451 E0.17519
G1 X49.970 Y111.079 E0.14158
G1 X49.970 Y82.921 E1.67038
G1 X50.368 Y79.995 E0.17519
G1 X51.309 Y77.674 E0.14857
G1 X56.569 Y68.039 E0.65119
G1 X57.292 Y66.814 E0.08437
G1 X57.889 Y65.920 E0.06377
G1 X58.474 Y65.132 E0.05821
G1 X59.155 Y64.302 E0.06371
G1 X59.814 Y63.575 E0.05822
G1 X60.532 Y62.857 E0.06024
G1 X60.894 Y63.167 F7800.000
G1 F2160.000
G1 X61.621 Y62.508 E0.05821
G1 X62.416 Y61.856 E0.06096
G1 X63.204 Y61.271 E0.05822
G1 X64.059 Y60.700 E0.06099
G1 X64.900 Y60.196 E0.05821
G1 X65.807 Y59.711 E0.06099
G1 X66.694 Y59.291 E0.05822
G1 X67.644 Y58.898 E0.06098
G1 X68.568 Y58.567 E0.05822
G1 X69.551 Y58.269 E0.06094
G1 X70.503 Y58.031 E0.05821
G1 X71.513 Y57.830 E0.06108
G1 X72.484 Y57.686 E0.05821
G1 X73.505 Y57.585 E0.06090
G1 X74.486 Y57.537 E0.05822
G1 X75.514 Y57.537 E0.06104
G1 X76.495 Y57.585 E0.05822
G1 X77.516 Y57.686 E0.06090
G1 X78.487 Y57.830 E0.05821
G1 X79.497 Y58.031 E0.06108
G1 X80.449 Y58.269 E0.05821
G1 X81.380 Y58.549 E0.05770
G1 X122.556 Y73.039 E2.58948
G1 X125.122 Y74.365 E0.17132
G1 X127.229 Y76.340 E0.17132
G1 X128.716 Y78.815 E0.17132
G1 X129.555 Y82.921 E0.24857
G1 X129.555 Y111.079 E1.67038
G1 X129.156 Y113.939 E0.17132
G1 X127.992 Y116.582 E0.17132
G1 X126.151 Y118.807 E0.17132
G1 X123.772 Y120.444 E0.17132
G1 X121.036 Y121.370 E0.17132
G1 X119.079 Y121.555 E0.11663
G1 X60.921 Y121.555 E3.45003
G1 X58.061 Y121.156 E0.17132
G1 X55.418 Y119.992 E0.17132
G1 X53.193 Y118.151 E0.17132
G1 X51.556 Y115.772 E0.17132
G1 X50.630 Y113.036 E0.17132
G1 X50.445 Y111.079 E0.11663
G1 X50.445 Y82.921 E1.67038
G1 X50.844 Y80.061 E0.17132
G1 X51.726 Y77.902 E0.13837
G1 X56.986 Y68.267 E0.65119
G1 X57.700 Y67.059 E0.08324
G1 X58.271 Y66.204 E0.06100
G1 X58.856 Y65.416 E0.05821
G1 X59.508 Y64.621 E0.06095
G1 X60.167 Y63.894 E0.05822
G1 X60.852 Y63.209 E0.05747
G1 F6240.000
G1 X61.621 Y62.508 E-0.57069
G1 F6240.000
G1 X62.416 Y61.856 E-0.56322
G1 F6240.000
G1 X62.564 Y61.746 E-0.10109
G1 E-0.06500 F3600.00000
G1 X106.550 Y100.741 F7800.000
G1 E1.30000 F3600.00000
G1 F1080.000
G1 X105.790 Y100.971 E0.04709
G1 X105.000 Y101.049 E0.04709
G1 X104.210 Y100.971 E0.04709
G1 X103.450 Y100.741 E0.04709
G1 X102.750 Y100.367 E0.04709
G1 X102.137 Y99.863 E0.04709
G1 X101.633 Y99.250 E0.04709
G1 X101.259 Y98.550 E0.04709
G1 X101.029 Y97.790 E0.04709
G1 X100.951 Y97.000 E0.04709
G1 X101.029 Y96.210 E0.04709
G1 X101.259 Y95.450 E0.04709
G1 X101.633 Y94.750 E0.04709
G1 X102.137 Y94.137 E0.04709
G1 X102.750 Y93.633 E0.04709
G1 X103.450 Y93.259 E0.04709
G1 X104.210 Y93.029 E0.04709
G1 X105.000 Y92.951 E0.04709
G1 X105.790 Y93.029 E0.04709
G1 X106.550 Y93.259 E0.04709
G1 X107.250 Y93.633 E0.04709
G1 X107.863 Y94.137 E0.04709
G1 X108.367 Y94.750 E0.04709
G1 X108.741 Y95.450 E0.04709
G1 X108.971 Y96.210 E0.04709
G1 X109.049 Y97.000 E0.04709
G1 X108.971 Y97.790 E0.04709
G1 X108.741 Y98.550 E0.04709
G1 X108.367 Y99.250 E0.04709
G1 X107.863 Y99.863 E0.04709
G1 X107.250 Y100.367 E0.04709
G1 X106.603 Y100.713 E0.04353
G1 X106.367 Y100.299 F7800.000
G1 F1080.000
G1 X105.697 Y100.503 E0.04153
G1 X105.000 Y100.571 E0.04153
G1 X104.303 Y100.503 E0.04153
G1 X103.633 Y100.299 E0.04153
G1 X103.016 Y99.969 E0.04153
G1 X102.475 Y99.525 E0.04153
G1 X102.031 Y98.984 E0.04153
G1 X101.701 Y98.367 E0.04153
G1 X101.497 Y97.697 E0.04153
G1 X101.429 Y97.000 E0.04153
G1 X101.497 Y96.303 E0.04153
G1 X101.701 Y95.633 E0.04153
G1 X102.031 Y95.016 E0.04153
G1 X102.475 Y94.475 E0.04153
G1 X103.016 Y94.031 E0.04153
G1 X103.633 Y93.701 E0.04153
G1 X104.303 Y93.497 E0.04153
G1 X105.000 Y93.429 E0.04153
G1 X105.697 Y93.497 E0.04153
G1 X106.367 Y93.701 E0.04153
G1 X106.984 Y94.031 E0.04153
G1 X107.525 Y94.475 E0.04153
G1 X107.969 Y95.016 E0.04153
G1 X108.299 Y95.633 E0.04153
G1 X108.503 Y96.303 E0.04153
G1 X108.571 Y97.000 E0.04153
G1 X108.503 Y97.697 E0.04153
G1 X108.299 Y98.367 E0.04153
G1 X107.969 Y98.984 E0.04153
G1 X107.525 Y99.525 E0.04153
G1 X106.984 Y99.969 E0.04153
G1 X106.420 Y100.271 E0.03797
G1 X106.367 Y100.299 F7800.000
G1 F6240.000
G1 X106.367 Y100.299 E-0.03288
G1 F6240.000
G1 X105.697 Y100.503 E-0.38374
G1 F6240.000
G1 X105.000 Y100.571 E-0.38371
G1 F6240.000
G1 X104.303 Y100.503 E-0.38371
G1 F6240.000
G1 X104.214 Y100.476 E-0.05096
G1 E-0.06500 F3600.00000
G1 X78.990 Y97.603 F7800.000
G1 E1.30000 F3600.00000
G1 F1080.000
G1 X78.971 Y97.790 E0.01112
G1 X78.741 Y98.550 E0.04709
G1 X78.367 Y99.250 E0.04709
G1 X77.863 Y99.863 E0.04709
G1 X77.250 Y100.367 E0.04709
G1 X76.550 Y100.741 E0.04709
G1 X75.790 Y100.971 E0.04709
G1 X75.000 Y101.049 E0.04709
G1 X74.210 Y100.971 E0.04709
G1 X73.450 Y100.741 E0.04709
G1 X72.750 Y100.367 E0.04709
G1 X72.137 Y99.863 E0.04709
G1 X71.633 Y99.250 E0.04709
G1 X71.259 Y98.550 E0.04709
G1 X71.029 Y97.790 E0.04709
G1 X70.951 Y97.000 E0.04709
G1 X71.029 Y96.210 E0.04709
G1 X71.259 Y95.450 E0.04709
G1 X71.633 Y94.750 E0.04709
G1 X72.137 Y94.137 E0.04709
G1 X72.750 Y93.633 E0.04709
G1 X73.450 Y93.259 E0.04709
G1 X74.210 Y93.029 E0.04709
G1 X75.000 Y92.951 E0.04709
G1 X75.790 Y93.029 E0.04709
G1 X76.550 Y93.259 E0.04709
G1 X77.250 Y93.633 E0.04709
G1 X77.863 Y94.137 E0.04709
G1 X78.367 Y94.750 E0.04709
G1 X78.741 Y95.450 E0.04709
G1 X78.971 Y96.210 E0.04709
G1 X79.049 Y97.000 E0.04709
G1 X78.996 Y97.544 E0.03241
G1 X78.516 Y97.557 F7800.000
G1 F1080.000
G1 X78.503 Y97.697 E0.00834
G1 X78.299 Y98.367 E0.04153
G1 X77.969 Y98.984 E0.04153
G1 X77.525 Y99.525 E0.04153
G1 X76.984 Y99.969 E0.04153
G1 X76.367 Y100.299 E0.04153
G1 X75.697 Y100.503 E0.04153
G1 X75.000 Y100.571 E0.04153
G1 X74.303 Y100.503 E0.04153
G1 X73.633 Y100.299 E0.04153
G1 X73.016 Y99.969 E0.04153
G1 X72.475 Y99.525 E0.04153
G1 X72.031 Y98.984 E0.04153
G1 X71.701 Y98.367 E0.04153
G1 X71.497 Y97.697 E0.04153
G1 X71.429 Y97.000 E0.04153
G1 X71.497 Y96.303 E0.04153
G1 X71.701 Y95.633 E0.04153
G1 X72.031 Y95.016 E0.04153
G1 X72.475 Y94.475 E0.04153
G1 X73.016 Y94.031 E0.04153
G1 X73.633 Y93.701 E0.04153
G1 X74.303 Y93.497 E0.04153
G1 X75.000 Y93.429 E0.04153
G1 X75.697 Y93.497 E0.04153
G1 X76.367 Y93.701 E0.04153
G1 X76.984 Y94.031 E0.04153
G1 X77.525 Y94.475 E0.04153
G1 X77.969 Y95.016 E0.04153
G1 X78.299 Y95.633 E0.04153
G1 X78.503 Y96.303 E0.04153
G1 X78.571 Y97.000 E0.04153
G1 X78.522 Y97.497 E0.02963
G1 X78.634 Y97.634 F7800.000
G1 F6240.000
G1 X78.503 Y97.697 E-0.10995
G1 F6240.000
G1 X78.299 Y98.367 E-0.38374
G1 F6240.000
G1 X77.969 Y98.984 E-0.38370
G1 F6240.000
G1 X77.556 Y99.489 E-0.35761
G1 E-0.06500 F3600.00000
G1 X75.073 Y80.246 F7800.000
G1 E1.30000 F3600.00000
G1 F1080.000
G1 X75.000 Y80.260 E0.00441
G1 X74.135 Y80.088 E0.05231
G1 X73.402 Y79.598 E0.05232
G1 X72.912 Y78.865 E0.05231
G1 X72.740 Y78.000 E0.05232
G1 X72.912 Y77.135 E0.05231
G1 X73.402 Y76.402 E0.05231
G1 X74.135 Y75.912 E0.05232
G1 X75.000 Y75.740 E0.05231
G1 X75.865 Y75.912 E0.05231
G1 X76.598 Y76.402 E0.05232
G1 X77.088 Y77.135 E0.05231
G1 X77.260 Y78.000 E0.05231
G1 X77.088 Y78.865 E0.05232
G1 X76.598 Y79.598 E0.05231
G1 X75.865 Y80.088 E0.05232
G1 X75.132 Y80.234 E0.04434
G1 X75.000 Y79.775 F7800.000
G1 F1080.000
G1 X74.321 Y79.640 E0.04109
G1 X73.745 Y79.255 E0.04110
G1 X73.360 Y78.679 E0.04109
G1 X73.225 Y78.000 E0.04109
G1 X73.360 Y77.321 E0.04109
G1 X73.745 Y76.745 E0.04109
G1 X74.321 Y76.360 E0.04110
G1 X75.000 Y76.225 E0.04109
G1 X75.679 Y76.360 E0.04109
G1 X76.255 Y76.745 E0.04110
G1 X76.640 Y77.321 E0.04109
G1 X76.775 Y78.000 E0.04109
G1 X76.640 Y78.679 E0.04109
G1 X76.255 Y79.255 E0.04109
G1 X75.679 Y79.640 E0.04110
G1 X75.059 Y79.764 E0.03753
G1 X75.000 Y79.775 F7800.000
G1 F6240.000
G1 X75.000 Y79.775 E-0.03288
G1 F6240.000
G1 X74.321 Y79.640 E-0.37963
G1 F6240.000
G1 X73.745 Y79.255 E-0.37968
G1 F6240.000
G1 X73.360 Y78.679 E-0.37963
G1 F6240.000
G1 X73.337 Y78.566 E-0.06318
G1 E-0.06500 F3600.00000
G1 X65.746 Y83.667 F7800.000
G1 E1.30000 F3600.00000
G1 F1620.000
G1 X65.746 Y78.018 E0.33507
G1 X65.791 Y77.093 E0.05496
G1 X65.924 Y76.195 E0.05387
G1 X66.145 Y75.314 E0.05387
G1 X66.451 Y74.459 E0.05387
G1 X66.839 Y73.638 E0.05387
G1 X67.306 Y72.859 E0.05387
G1 X67.847 Y72.130 E0.05387
G1 X68.457 Y71.457 E0.05387
G1 X69.130 Y70.847 E0.05387
G1 X69.859 Y70.306 E0.05387
G1 X70.638 Y69.839 E0.05387
G1 X71.459 Y69.451 E0.05387
G1 X72.314 Y69.145 E0.05387
G1 X73.195 Y68.924 E0.05387
G1 X74.093 Y68.791 E0.05387
G1 X75.000 Y68.747 E0.05387
G1 X75.907 Y68.791 E0.05387
G1 X76.805 Y68.924 E0.05387
G1 X77.686 Y69.145 E0.05387
G1 X78.541 Y69.451 E0.05387
G1 X79.362 Y69.839 E0.05387
G1 X80.141 Y70.306 E0.05387
G1 X80.870 Y70.847 E0.05387
G1 X81.543 Y71.457 E0.05387
G1 X82.153 Y72.130 E0.05387
G1 X82.694 Y72.859 E0.05387
G1 X83.161 Y73.638 E0.05387
G1 X83.549 Y74.459 E0.05387
G1 X83.855 Y75.314 E0.05387
G1 X84.076 Y76.195 E0.05387
G1 X84.209 Y77.093 E0.05387
G1 X84.254 Y78.018 E0.05496
G1 X84.254 Y83.667 E0.33507
G1 X118.333 Y83.667 E2.02162
G1 X118.333 Y110.333 E1.58191
G1 X61.667 Y110.333 E3.36157
G1 X61.667 Y83.667 E1.58191
G1 X65.686 Y83.667 E0.23841
G1 X65.270 Y83.191 F7800.000
G1 F1458.000
G1 X65.270 Y78.007 E0.30755
G1 X65.317 Y77.046 E0.05704
G1 X65.457 Y76.102 E0.05664
G1 X65.689 Y75.176 E0.05664
G1 X66.011 Y74.277 E0.05664
G1 X66.419 Y73.413 E0.05664
G1 X66.910 Y72.594 E0.05664
G1 X67.479 Y71.828 E0.05664
G1 X68.120 Y71.120 E0.05664
G1 X68.828 Y70.479 E0.05664
G1 X69.594 Y69.910 E0.05664
G1 X70.413 Y69.419 E0.05664
G1 X71.277 Y69.011 E0.05665
G1 X72.176 Y68.689 E0.05664
G1 X73.102 Y68.457 E0.05664
G1 X74.046 Y68.317 E0.05664
G1 X75.000 Y68.270 E0.05664
G1 X75.954 Y68.317 E0.05664
G1 X76.898 Y68.457 E0.05664
G1 X77.824 Y68.689 E0.05664
G1 X78.723 Y69.011 E0.05664
G1 X79.587 Y69.419 E0.05665
G1 X80.406 Y69.910 E0.05664
G1 X81.172 Y70.479 E0.05664
G1 X81.880 Y71.120 E0.05664
G1 X82.521 Y71.828 E0.05664
G1 X83.090 Y72.594 E0.05664
G1 X83.581 Y73.413 E0.05664
G1 X83.989 Y74.277 E0.05664
G1 X84.311 Y75.176 E0.05664
G1 X84.543 Y76.102 E0.05664
G1 X84.683 Y77.046 E0.05664
G1 X84.730 Y78.007 E0.05704
G1 X84.730 Y83.191 E0.30755
G1 X118.809 Y83.191 E2.02162
G1 X118.809 Y110.809 E1.63834
G1 X61.191 Y110.809 E3.41800
G1 X61.191 Y83.191 E1.63834
G1 X65.210 Y83.191 E0.23841
G1 X65.626 Y83.008 F7800.000
G1 X66.171 Y82.521 F7800.000
G1 F1620.000
G1 X66.171 Y83.197 E0.04023
G1 X72.607 Y76.761 E0.54216
G1 X72.514 Y76.899 E0.00989
G1 X72.358 Y77.685 E0.04773
G1 X66.171 Y83.872 E0.52121
G1 F6240.000
G1 X67.764 Y82.279 E-1.23500
G1 E-0.06500 F3600.00000
G1 X62.473 Y84.193 F7800.000
G1 E1.30000 F3600.00000
G1 F1620.000
G1 X62.092 Y84.193 E0.02271
G1 X62.092 Y84.574 E0.02271
G1 X62.574 Y84.092 E0.04062
G1 X63.249 Y84.092 E0.04023
G1 X62.092 Y85.249 E0.09752
G1 X62.092 Y85.925 E0.04023
G1 X63.925 Y84.092 E0.15441
G1 X64.600 Y84.092 E0.04023
G1 X62.092 Y86.600 E0.21131
G1 X62.092 Y87.276 E0.04023
G1 X65.276 Y84.092 E0.26821
G1 X65.951 Y84.092 E0.04023
G1 X62.092 Y87.951 E0.32511
G1 X62.092 Y88.626 E0.04023
G1 X72.382 Y78.336 E0.86687
G1 X72.494 Y78.899 E0.03421
G1 X62.092 Y89.302 E0.87631
G1 X62.092 Y89.977 E0.04023
G1 X72.736 Y79.333 E0.89672
G1 X73.007 Y79.738 E0.02901
G1 X62.092 Y90.653 E0.91950
G1 X62.092 Y91.328 E0.04023
G1 X73.361 Y80.059 E0.94933
G1 X73.766 Y80.329 E0.02901
G1 X62.092 Y92.004 E0.98344
G1 X62.092 Y92.679 E0.04023
G1 X74.238 Y80.533 E1.02318
G1 X74.801 Y80.645 E0.03421
G1 X62.092 Y93.354 E1.07064
G1 X62.092 Y94.030 E0.04023
G1 X75.520 Y80.601 E1.13124
G1 X76.101 Y80.486 E0.03526
G1 X76.735 Y80.062 E0.04541
G1 X62.092 Y94.705 E1.23354
G1 F6240.000
G1 X63.685 Y93.112 E-1.23500
G1 E-0.06500 F3600.00000
G1 X70.694 Y95.559 F7800.000
G1 E1.30000 F3600.00000
G1 F1620.000
G1 X70.767 Y95.318 E0.01500
G1 X71.185 Y94.535 E0.05286
G1 X71.748 Y93.849 E0.05286
G1 X72.434 Y93.286 E0.05286
G1 X73.217 Y92.868 E0.05286
G1 X73.458 Y92.795 E0.01500
G1 X83.829 Y82.424 E0.87369
G1 X83.829 Y83.099 E0.04023
G1 X74.345 Y92.583 E0.79893
G1 X74.950 Y92.523 E0.03616
G1 X75.069 Y92.535 E0.00712
G1 X83.829 Y83.774 E0.73801
G1 X83.829 Y84.092 E0.01891
G1 X84.187 Y84.092 E0.02132
G1 X75.683 Y92.596 E0.71636
G1 X75.833 Y92.610 E0.00894
G1 X76.225 Y92.729 E0.02442
G1 X84.863 Y84.092 E0.72763
G1 X85.538 Y84.092 E0.04023
G1 X76.734 Y92.896 E0.74165
G1 X77.174 Y93.131 E0.02973
G1 X86.213 Y84.092 E0.76147
G1 X86.889 Y84.092 E0.04023
G1 X77.591 Y93.390 E0.78327
G1 X77.962 Y93.694 E0.02859
G1 X87.564 Y84.092 E0.80891
G1 X88.240 Y84.092 E0.04023
G1 X78.300 Y94.031 E0.83731
G1 X78.605 Y94.402 E0.02859
G1 X88.915 Y84.092 E0.86857
G1 X89.590 Y84.092 E0.04023
G1 X78.865 Y94.818 E0.90356
G1 X79.100 Y95.258 E0.02973
G1 X90.266 Y84.092 E0.94063
G1 X90.941 Y84.092 E0.04023
G1 X79.268 Y95.765 E0.98339
G1 X79.390 Y96.167 E0.02502
G1 X79.403 Y96.305 E0.00826
G1 X91.617 Y84.092 E1.02887
G1 X92.292 Y84.092 E0.04023
G1 X79.464 Y96.920 E1.08067
G1 X79.477 Y97.050 E0.00780
G1 X79.419 Y97.641 E0.03534
G1 X92.968 Y84.092 E1.14138
G1 X93.643 Y84.092 E0.04023
G1 X79.211 Y98.524 E1.21580
G1 F6240.000
G1 X80.804 Y96.931 E-1.23500
G1 E-0.06500 F3600.00000
G1 X86.063 Y109.908 F7800.000
G1 E1.30000 F3600.00000
G1 F1620.000
G1 X86.738 Y109.908 E0.04023
G1 X100.624 Y96.023 E1.16972
G1 X100.540 Y96.782 E0.04549
G1 X87.414 Y109.908 E1.10577
G1 X88.089 Y109.908 E0.04023
G1 X100.570 Y97.427 E1.05144
G1 X100.610 Y97.833 E0.02430
G1 X100.664 Y98.009 E0.01096
G1 X88.764 Y109.908 E1.00241
G1 X89.440 Y109.908 E0.04023
G1 X100.821 Y98.527 E0.95875
G1 X100.868 Y98.682 E0.00965
G1 X101.033 Y98.991 E0.02083
G1 X90.115 Y109.908 E0.91971
G1 X90.791 Y109.908 E0.04023
G1 X101.268 Y99.431 E0.88263
G1 X101.567 Y99.807 E0.02863
G1 X91.466 Y109.908 E0.85093
G1 X92.141 Y109.908 E0.04023
G1 X101.876 Y100.173 E0.82009
G1 X102.247 Y100.478 E0.02859
G1 X92.817 Y109.908 E0.79444
G1 X93.492 Y109.908 E0.04023
G1 X102.634 Y100.766 E0.77011
G1 X103.074 Y101.002 E0.02973
G1 X94.168 Y109.908 E0.75029
G1 X94.843 Y109.908 E0.04023
G1 X103.549 Y101.202 E0.73340
G1 X104.067 Y101.359 E0.03226
G1 X95.519 Y109.908 E0.72016
G1 X96.194 Y109.908 E0.04023
G1 X104.663 Y101.439 E0.71348
G1 X105.050 Y101.477 E0.02316
G1 X105.328 Y101.449 E0.01662
G1 X96.869 Y109.908 E0.71258
G1 X97.545 Y109.908 E0.04023
G1 X106.120 Y101.333 E0.72235
G1 X106.783 Y101.132 E0.04129
G1 X107.241 Y100.887 E0.03095
G1 X98.220 Y109.908 E0.75994
