; generated by Slic3r 1.2.9 on 2020-05-25 at 12:26:52

; external perimeters extrusion width = 0.40mm
; perimeters extrusion width = 0.56mm
; infill extrusion width = 0.56mm
; solid infill extrusion width = 0.56mm
; top infill extrusion width = 0.56mm

M107
M190 S60 ; set bed temperature
M104 S215 ; set temperature
G28 ; home all axes
G92 E0.0 ; reset extruder
M109 S215 ; wait for temperature to be reached
G21 ; set units to millimeters
G90 ; use absolute coordinates
M83 ; use relative distances for extrusion
G1 E-1.30000 F3600.00000
G1 Z0.300 F7800.000
G1 X63.382 Y77.978 F7800.000
G1 E1.30000 F3600.00000
M204 S500
G1 X65.778 Y76.253 E0.17519 F2160.000
G1 X68.549 Y75.230 E0.17519
G1 X70.921 Y74.970 E0.14158
G1 X129.079 Y74.970 E3.45003
G1 X132.005 Y75.368 E0.17519
G1 X134.718 Y76.534 E0.17519 F2160.000
G1 X137.022 Y78.382 E0.17519
G1 X138.747 Y80.778 E0.17519
G1 X139.770 Y83.549 E0.17519
G1 X140.030 Y85.921 E0.14158
G1 X140.030 Y114.079 E1.67038
G1 X139.632 Y117.005 E0.17519
G1 X138.466 Y119.718 E0.17519
G1 X136.618 Y122.022 E0.17519
G1 X134.222 Y123.747 E0.17519
G1 X131.451 Y124.770 E0.17519
G1 X129.079 Y125.030 E0.14158
G1 X70.921 Y125.030 E3.45003
G1 X67.995 Y124.632 E0.17519
G1 X65.282 Y123.466 E0.17519
G1 X62.978 Y121.618 E0.17519
G1 X61.253 Y119.222 E0.17519
G1 X60.230 Y116.451 E0.17519
G1 X59.970 Y114.079 E0.14158
G1 X59.970 Y85.921 E1.67038
G1 X60.368 Y82.995 E0.17519
G1 X61.534 Y80.282 E0.17519
G1 X63.344 Y78.025 E0.17163
G1 X63.764 Y78.295 F7800.000
G1 X63.849 Y78.193 E0.00787 F2160.000
G1 X66.228 Y76.556 E0.17132
G1 X68.964 Y75.630 E0.17132
G1 X70.921 Y75.445 E0.11663
G1 X129.079 Y75.445 E3.45003
G1 X131.939 Y75.844 E0.17132
G1 X134.582 Y77.008 E0.17132 F2160.000
G1 X136.807 Y78.849 E0.17132
G1 X138.444 Y81.228 E0.17132
G1 X139.370 Y83.964 E0.17132
G1 X139.555 Y85.921 E0.11663
G1 X139.555 Y114.079 E1.67038
G1 X139.156 Y116.939 E0.17132
G1 X137.992 Y119.582 E0.17132
G1 X136.151 Y121.807 E0.17132
G1 X133.772 Y123.444 E0.17132
G1 X131.036 Y124.370 E0.17132
G1 X129.079 Y124.555 E0.11663
G1 X70.921 Y124.555 E3.45003
G1 X68.061 Y124.156 E0.17132
G1 X65.418 Y122.992 E0.17132
G1 X63.193 Y121.151 E0.17132
G1 X61.556 Y118.772 E0.17132
G1 X60.630 Y116.036 E0.17132
G1 X60.445 Y114.079 E0.11663
G1 X60.445 Y85.921 E1.67038
G1 X60.844 Y83.061 E0.17132
G1 X62.008 Y80.418 E0.17132
G1 X63.726 Y78.341 E0.15990
G1 F6240
G1 X63.849 Y78.193 E-0.10555
G1 F6240
G1 X65.547 Y77.025 E-1.12945
G1 E-0.06500 F3600.00000
G1 X87.250 Y103.367 F7800.000
G1 E1.30000 F3600.00000
G1 X86.550 Y103.741 E0.04709 F1080.000
G1 X85.790 Y103.971 E0.04709
G1 X85.000 Y104.049 E0.04709
G1 X84.210 Y103.971 E0.04709
G1 X83.450 Y103.741 E0.04709
G1 X82.750 Y103.367 E0.04709
G1 X82.137 Y102.863 E0.04709
G1 X81.633 Y102.250 E0.04709
G1 X81.259 Y101.550 E0.04709
G1 X81.029 Y100.790 E0.04709
G1 X80.951 Y100.000 E0.04709
G1 X81.029 Y99.210 E0.04709
G1 X81.259 Y98.450 E0.04709
G1 X81.633 Y97.750 E0.04709
G1 X82.137 Y97.137 E0.04709
G1 X82.750 Y96.633 E0.04709
G1 X83.450 Y96.259 E0.04709
G1 X84.210 Y96.029 E0.04709
G1 X84.964 Y95.954 E0.04496 F1080.000
G1 X85.787 Y96.028 E0.04897
G1 X86.550 Y96.259 E0.04730
G1 X87.250 Y96.633 E0.04709
G1 X87.863 Y97.137 E0.04709
G1 X88.367 Y97.750 E0.04709
G1 X88.741 Y98.450 E0.04709
G1 X88.971 Y99.210 E0.04709
G1 X89.049 Y100.000 E0.04709
G1 X88.971 Y100.790 E0.04709
G1 X88.741 Y101.550 E0.04709
G1 X88.367 Y102.250 E0.04709
G1 X87.863 Y102.863 E0.04709
G1 X87.296 Y103.329 E0.04353
G1 X86.984 Y102.969 F7800.000
G1 X86.367 Y103.299 E0.04153 F1080.000
G1 X85.697 Y103.503 E0.04153
G1 X85.000 Y103.571 E0.04153
G1 X84.303 Y103.503 E0.04153
G1 X83.633 Y103.299 E0.04153
G1 X83.016 Y102.969 E0.04153
G1 X82.475 Y102.525 E0.04153
G1 X82.031 Y101.984 E0.04153
G1 X81.701 Y101.367 E0.04153
G1 X81.497 Y100.697 E0.04153
G1 X81.429 Y100.000 E0.04153
G1 X81.497 Y99.303 E0.04153
G1 X81.701 Y98.633 E0.04153
G1 X82.031 Y98.016 E0.04153
G1 X82.475 Y97.475 E0.04153
G1 X83.016 Y97.031 E0.04153
G1 X83.633 Y96.701 E0.04153
G1 X84.303 Y96.497 E0.04153
G1 X84.967 Y96.432 E0.03954 F1080.000
G1 X85.696 Y96.497 E0.04341
G1 X86.367 Y96.701 E0.04161
G1 X86.984 Y97.031 E0.04153
G1 X87.525 Y97.475 E0.04153
G1 X87.969 Y98.016 E0.04153
G1 X88.299 Y98.633 E0.04153
G1 X88.503 Y99.303 E0.04153
G1 X88.571 Y100.000 E0.04153
G1 X88.503 Y100.697 E0.04153
G1 X88.299 Y101.367 E0.04153
G1 X87.969 Y101.984 E0.04153
G1 X87.525 Y102.525 E0.04153
G1 X87.031 Y102.931 E0.03797
G1 X86.997 Y103.369 F7800.000
G1 X111.010 Y100.603 F7800.000
G1 X110.951 Y100.000 E0.03596 F1080.000
G1 X111.029 Y99.210 E0.04709
G1 X111.259 Y98.450 E0.04709
G1 X111.633 Y97.750 E0.04709
G1 X112.137 Y97.137 E0.04709
G1 X112.750 Y96.633 E0.04709
G1 X113.450 Y96.259 E0.04709
G1 X114.210 Y96.029 E0.04709
G1 X114.964 Y95.954 E0.04496 F1080.000
G1 X115.787 Y96.028 E0.04897
G1 X116.550 Y96.259 E0.04730
G1 X117.250 Y96.633 E0.04709
G1 X117.863 Y97.137 E0.04709
G1 X118.367 Y97.750 E0.04709
G1 X118.741 Y98.450 E0.04709
G1 X118.971 Y99.210 E0.04709
G1 X119.049 Y100.000 E0.04709
G1 X118.971 Y100.790 E0.04709
G1 X118.741 Y101.550 E0.04709
G1 X118.367 Y102.250 E0.04709
G1 X117.863 Y102.863 E0.04709
G1 X117.250 Y103.367 E0.04709
G1 X116.550 Y103.741 E0.04709
G1 X115.790 Y103.971 E0.04709
G1 X115.000 Y104.049 E0.04709
G1 X114.210 Y103.971 E0.04709
G1 X113.450 Y103.741 E0.04709
G1 X112.750 Y103.367 E0.04709
G1 X112.137 Y102.863 E0.04709
G1 X111.633 Y102.250 E0.04709
G1 X111.259 Y101.550 E0.04709
G1 X111.029 Y100.790 E0.04709
G1 X111.016 Y100.663 E0.00757
G1 X111.484 Y100.557 F7800.000
G1 X111.429 Y100.000 E0.03319 F1080.000
G1 X111.497 Y99.303 E0.04153
G1 X111.701 Y98.633 E0.04153
G1 X112.031 Y98.016 E0.04153
G1 X112.475 Y97.475 E0.04153
G1 X113.016 Y97.031 E0.04153
G1 X113.633 Y96.701 E0.04153
G1 X114.303 Y96.497 E0.04153
G1 X114.967 Y96.432 E0.03954 F1080.000
G1 X115.696 Y96.497 E0.04341
G1 X116.367 Y96.701 E0.04161
G1 X116.984 Y97.031 E0.04153
G1 X117.525 Y97.475 E0.04153
G1 X117.969 Y98.016 E0.04153
G1 X118.299 Y98.633 E0.04153
G1 X118.503 Y99.303 E0.04153
G1 X118.571 Y100.000 E0.04153
G1 X118.503 Y100.697 E0.04153
G1 X118.299 Y101.367 E0.04153
G1 X117.969 Y101.984 E0.04153
G1 X117.525 Y102.525 E0.04153
G1 X116.984 Y102.969 E0.04153
G1 X116.367 Y103.299 E0.04153
G1 X115.697 Y103.503 E0.04153
G1 X115.000 Y103.571 E0.04153
G1 X114.303 Y103.503 E0.04153
G1 X113.633 Y103.299 E0.04153
G1 X113.016 Y102.969 E0.04153
G1 X112.475 Y102.525 E0.04153
G1 X112.031 Y101.984 E0.04153
G1 X111.701 Y101.367 E0.04153
G1 X111.497 Y100.697 E0.04153
G1 X111.489 Y100.616 E0.00479
G1 X111.119 Y100.392 F7800.000
G1 F6240
G1 X111.429 Y100.000 E-0.33949
G1 F6240
G1 X111.497 Y99.303 E-0.38371
G1 F6240
G1 X111.701 Y98.633 E-0.38374
G1 F6240
G1 X111.811 Y98.427 E-0.12806
G1 E-0.06500 F3600.00000
G1 X128.333 Y113.333 F7800.000
G1 E1.30000 F3600.00000
G1 X71.667 Y113.333 E3.36157 F1620.000
G1 X71.667 Y86.667 E1.58191
G1 X128.333 Y86.667 E3.36157
G1 X128.333 Y113.273 E1.57835
G1 X128.809 Y113.809 F7800.000
G1 X71.191 Y113.809 E3.41800 F1458.000
G1 X71.191 Y86.191 E1.63834
G1 X128.809 Y86.191 E3.41800
G1 X128.809 Y113.749 E1.63478
G1 X128.462 Y113.609 F7800.000
G1 X114.042 Y104.250 F7800.000
G1 X122.842 Y113.050 E0.74123 F1620.000
G1 X123.518 Y113.050 E0.04022
G1 X114.792 Y104.324 E0.73502
G1 X115.426 Y104.283 E0.03785
G1 X124.193 Y113.050 E0.73849
G1 X124.868 Y113.050 E0.04022
G1 X115.997 Y104.179 E0.74725
G1 X116.515 Y104.021 E0.03225
G1 X125.544 Y113.050 E0.76049
G1 X126.219 Y113.050 E0.04022
G1 X116.968 Y103.798 E0.77927
G1 X117.401 Y103.556 E0.02956
G1 X126.894 Y113.050 E0.79968
G1 X127.570 Y113.050 E0.04022
G1 X117.772 Y103.252 E0.82531
G1 X118.123 Y102.928 E0.02847
G1 X128.050 Y112.855 E0.83614
G1 X128.050 Y112.179 E0.04022
G1 X118.428 Y102.557 E0.81050
G1 X118.699 Y102.153 E0.02899
G1 X128.050 Y111.504 E0.78764
G1 X128.050 Y110.829 E0.04022
G1 X118.934 Y101.713 E0.76782
G1 X119.112 Y101.216 E0.03147
G1 X128.050 Y110.153 E0.75284
G1 X128.050 Y109.478 E0.04022
G1 X119.257 Y100.685 E0.74064
G1 X119.318 Y100.070 E0.03680
G1 X128.050 Y108.803 E0.73555
G1 X128.050 Y108.127 E0.04022
G1 X119.281 Y99.359 E0.73861
G1 X119.083 Y98.485 E0.05337
G1 X128.050 Y107.452 E0.75533
G1 X128.050 Y106.777 E0.04022
G1 X108.223 Y86.950 E1.67005
G1 X108.899 Y86.950 E0.04022
G1 X128.050 Y106.101 E1.61316
G1 X128.050 Y105.426 E0.04022
G1 X109.574 Y86.950 E1.55627
G1 X110.249 Y86.950 E0.04022
G1 X128.050 Y104.751 E1.49939
G1 X128.050 Y104.075 E0.04022
G1 X110.925 Y86.950 E1.44250
G1 X111.600 Y86.950 E0.04022
G1 X128.050 Y103.400 E1.38562
G1 X128.050 Y102.725 E0.04022
G1 X112.275 Y86.950 E1.32873
G1 X112.951 Y86.950 E0.04022
G1 X128.050 Y102.049 E1.27185
G1 X128.050 Y101.374 E0.04022
G1 X113.626 Y86.950 E1.21496
G1 X114.301 Y86.950 E0.04022
G1 X128.050 Y100.699 E1.15808
G1 X128.050 Y100.023 E0.04022
G1 X114.977 Y86.950 E1.10119
G1 X115.652 Y86.950 E0.04022
G1 X128.050 Y99.348 E1.04430
G1 X128.050 Y98.673 E0.04022
G1 X116.327 Y86.950 E0.98742
G1 X117.003 Y86.950 E0.04022
G1 X128.050 Y97.997 E0.93053
G1 X128.050 Y97.322 E0.04022
G1 X117.678 Y86.950 E0.87365
G1 X118.353 Y86.950 E0.04022
G1 X128.050 Y96.647 E0.81676
G1 X128.050 Y95.971 E0.04022
G1 X119.029 Y86.950 E0.75988
G1 X119.704 Y86.950 E0.04022
G1 X128.050 Y95.296 E0.70299
G1 X128.050 Y94.621 E0.04022
G1 X120.379 Y86.950 E0.64611
G1 X121.055 Y86.950 E0.04022
G1 X128.050 Y93.945 E0.58922
G1 X128.050 Y93.270 E0.04022
G1 X121.730 Y86.950 E0.53234
G1 X122.405 Y86.950 E0.04022
G1 X128.050 Y92.595 E0.47545
G1 X128.050 Y91.919 E0.04022
G1 X123.081 Y86.950 E0.41856
G1 X123.756 Y86.950 E0.04022
G1 X128.050 Y91.244 E0.36168
G1 X128.050 Y90.569 E0.04022
G1 X124.431 Y86.950 E0.30479
G1 X125.107 Y86.950 E0.04022
G1 X128.050 Y89.893 E0.24791
G1 X128.050 Y89.218 E0.04022
G1 X125.782 Y86.950 E0.19102
G1 X126.457 Y86.950 E0.04022
G1 X128.050 Y88.543 E0.13414
G1 X128.050 Y87.867 E0.04022
G1 X127.133 Y86.950 E0.07725
G1 X127.808 Y86.950 E0.04022
G1 X128.050 Y87.192 E0.02037
G1 X107.548 Y86.950 F7800.000
G1 X116.515 Y95.917 E0.75533 F1620.000
G1 X115.643 Y95.721 E0.05322
G1 X106.873 Y86.950 E0.73879
G1 X106.197 Y86.950 E0.04022
G1 X114.930 Y95.682 E0.73555
G1 X114.315 Y95.743 E0.03680
G1 X105.522 Y86.950 E0.74065
G1 X104.847 Y86.950 E0.04022
G1 X113.784 Y95.888 E0.75284
G1 X113.287 Y96.066 E0.03147
G1 X104.171 Y86.950 E0.76782
G1 X103.496 Y86.950 E0.04022
G1 X112.847 Y96.301 E0.78764
G1 X112.443 Y96.572 E0.02899
G1 X102.821 Y86.950 E0.81050
G1 X102.145 Y86.950 E0.04022
G1 X112.072 Y96.877 E0.83614
G1 X111.748 Y97.228 E0.02847
G1 X101.470 Y86.950 E0.86576
G1 X100.795 Y86.950 E0.04022
G1 X111.444 Y97.599 E0.89701
G1 X111.202 Y98.032 E0.02956
G1 X100.119 Y86.950 E0.93349
G1 X99.444 Y86.950 E0.04022
G1 X110.979 Y98.485 E0.97159
G1 X110.821 Y99.003 E0.03225
G1 X98.768 Y86.950 E1.01524
G1 X98.093 Y86.950 E0.04022
G1 X110.717 Y99.574 E1.06337
G1 X110.676 Y100.208 E0.03785
G1 X97.418 Y86.950 E1.11678
G1 X96.742 Y86.950 E0.04022
G1 X110.750 Y100.957 E1.17988
G1 X111.104 Y101.987 F7800.000
G1 X96.067 Y86.950 E1.26660 F1620.000
G1 X95.392 Y86.950 E0.04022
G1 X121.492 Y113.050 E2.19845
G1 X122.167 Y113.050 E0.04022
G1 X113.013 Y103.896 E0.77106
G1 X89.250 Y99.043 F7800.000
G1 X103.257 Y113.050 E1.17987 F1620.000
G1 X102.582 Y113.050 E0.04022
G1 X89.324 Y99.792 E1.11677
G1 X89.283 Y100.426 E0.03785
G1 X101.907 Y113.050 E1.06336
G1 X101.231 Y113.050 E0.04022
G1 X89.179 Y100.997 E1.01523
G1 X89.021 Y101.515 E0.03225
G1 X100.556 Y113.050 E0.97159
G1 X99.881 Y113.050 E0.04022
G1 X88.798 Y101.968 E0.93349
G1 X88.556 Y102.401 E0.02956
G1 X99.205 Y113.050 E0.89701
G1 X98.530 Y113.050 E0.04022
G1 X88.252 Y102.772 E0.86576
G1 X87.928 Y103.123 E0.02847
G1 X97.855 Y113.050 E0.83613
G1 X97.179 Y113.050 E0.04022
G1 X87.557 Y103.428 E0.81050
G1 X87.153 Y103.699 E0.02899
G1 X96.504 Y113.050 E0.78764
G1 X95.829 Y113.050 E0.04022
G1 X86.713 Y103.934 E0.76782
G1 X86.216 Y104.112 E0.03147
G1 X95.153 Y113.050 E0.75283
G1 X94.478 Y113.050 E0.04022
G1 X85.685 Y104.257 E0.74064
G1 X85.070 Y104.318 E0.03680
G1 X93.803 Y113.050 E0.73554
G1 X93.127 Y113.050 E0.04022
G1 X84.359 Y104.281 E0.73861
G1 X83.485 Y104.083 E0.05338
G1 X92.452 Y113.050 E0.75533
G1 X91.777 Y113.050 E0.04022
G1 X71.950 Y93.223 E1.67004
G1 X71.950 Y92.548 E0.04022
G1 X80.917 Y101.515 E0.75533
G1 X80.719 Y100.641 E0.05338
G1 X71.950 Y91.873 E0.73861
G1 X71.950 Y91.197 E0.04022
G1 X80.682 Y99.930 E0.73555
G1 X80.743 Y99.315 E0.03680
G1 X71.950 Y90.522 E0.74065
G1 X71.950 Y89.847 E0.04022
G1 X80.888 Y98.784 E0.75284
G1 X81.066 Y98.287 E0.03147
G1 X71.950 Y89.171 E0.76782
G1 X71.950 Y88.496 E0.04022
G1 X81.301 Y97.847 E0.78764
G1 X81.572 Y97.443 E0.02899
G1 X71.950 Y87.821 E0.81050
G1 X71.950 Y87.145 E0.04022
G1 X81.877 Y97.072 E0.83614
G1 X82.228 Y96.748 E0.02847
G1 X72.430 Y86.950 E0.82532
G1 X73.106 Y86.950 E0.04022
G1 X82.599 Y96.444 E0.79968
G1 X83.032 Y96.202 E0.02956
G1 X73.781 Y86.950 E0.77928
G1 X74.456 Y86.950 E0.04022
G1 X83.485 Y95.979 E0.76049
G1 X84.003 Y95.821 E0.03225
G1 X75.132 Y86.950 E0.74725
G1 X75.807 Y86.950 E0.04022
G1 X84.574 Y95.717 E0.73849
G1 X85.215 Y95.683 E0.03821
G1 X76.482 Y86.950 E0.73557
G1 X77.158 Y86.950 E0.04022
G1 X85.956 Y95.749 E0.74114
G1 X86.987 Y96.104 F7800.000
G1 X77.833 Y86.950 E0.77105 F1620.000
G1 X71.950 Y93.899 F7800.000
G1 X91.101 Y113.050 E1.61315 F1620.000
G1 X90.426 Y113.050 E0.04022
G1 X71.950 Y94.574 E1.55627
G1 X71.950 Y95.249 E0.04022
G1 X89.751 Y113.050 E1.49938
G1 X89.075 Y113.050 E0.04022
G1 X71.950 Y95.925 E1.44250
G1 X71.950 Y96.600 E0.04022
G1 X88.400 Y113.050 E1.38561
G1 X87.725 Y113.050 E0.04022
G1 X71.950 Y97.275 E1.32873
G1 X71.950 Y97.951 E0.04022
G1 X87.049 Y113.050 E1.27184
G1 X86.374 Y113.050 E0.04022
G1 X71.950 Y98.626 E1.21495
G1 X71.950 Y99.301 E0.04022
G1 X85.699 Y113.050 E1.15807
G1 X85.023 Y113.050 E0.04022
G1 X71.950 Y99.977 E1.10118
G1 X71.950 Y100.652 E0.04022
G1 X84.348 Y113.050 E1.04430
G1 X83.673 Y113.050 E0.04022
G1 X71.950 Y101.327 E0.98741
G1 X71.950 Y102.003 E0.04022
G1 X82.997 Y113.050 E0.93053
G1 X82.322 Y113.050 E0.04022
G1 X71.950 Y102.678 E0.87364
G1 X71.950 Y103.353 E0.04022
G1 X81.647 Y113.050 E0.81676
G1 X80.971 Y113.050 E0.04022
G1 X71.950 Y104.029 E0.75987
G1 X71.950 Y104.704 E0.04022
G1 X80.296 Y113.050 E0.70299
G1 X79.621 Y113.050 E0.04022
G1 X71.950 Y105.379 E0.64610
G1 X71.950 Y106.055 E0.04022
G1 X78.945 Y113.050 E0.58921
G1 X78.270 Y113.050 E0.04022
G1 X71.950 Y106.730 E0.53233
G1 X71.950 Y107.405 E0.04022
G1 X77.594 Y113.050 E0.47544
G1 X76.919 Y113.050 E0.04022
G1 X71.950 Y108.081 E0.41856
G1 X71.950 Y108.756 E0.04022
G1 X76.244 Y113.050 E0.36167
G1 X75.568 Y113.050 E0.04022
G1 X71.950 Y109.432 E0.30479
G1 X71.950 Y110.107 E0.04022
G1 X74.893 Y113.050 E0.24790
G1 X74.218 Y113.050 E0.04022
G1 X71.950 Y110.782 E0.19102
G1 X71.950 Y111.458 E0.04022
G1 X73.542 Y113.050 E0.13413
G1 X72.867 Y113.050 E0.04022
G1 X71.950 Y112.133 E0.07725
G1 X71.950 Y112.808 E0.04022
G1 X72.192 Y113.050 E0.02036
G1 F6240
G1 X71.950 Y112.808 E-0.18735
G1 F6240
G1 X71.950 Y112.133 E-0.37014
G1 F6240
G1 X72.824 Y113.007 E-0.67751
G1 E-0.06500 F3600.00000
G1 X88.896 Y98.013 F7800.000
G1 E1.30000 F3600.00000
G1 X103.933 Y113.050 E1.26658 F1620.000
G1 X104.608 Y113.050 E0.04022
G1 X78.508 Y86.950 E2.19845
G1 X79.184 Y86.950 E0.04022
G1 X105.283 Y113.050 E2.19845
G1 X105.959 Y113.050 E0.04022
G1 X79.859 Y86.950 E2.19845
G1 X80.534 Y86.950 E0.04022
G1 X106.634 Y113.050 E2.19845
G1 X107.309 Y113.050 E0.04022
G1 X81.210 Y86.950 E2.19845
G1 X81.885 Y86.950 E0.04022
G1 X107.985 Y113.050 E2.19845
G1 X108.660 Y113.050 E0.04022
G1 X82.560 Y86.950 E2.19845
G1 X83.236 Y86.950 E0.04022
G1 X109.336 Y113.050 E2.19845
G1 X110.011 Y113.050 E0.04022
G1 X83.911 Y86.950 E2.19845
G1 X84.586 Y86.950 E0.04022
G1 X110.686 Y113.050 E2.19845
G1 X111.362 Y113.050 E0.04022
G1 X85.262 Y86.950 E2.19845
G1 X85.937 Y86.950 E0.04022
G1 X112.037 Y113.050 E2.19845
G1 X112.712 Y113.050 E0.04022
G1 X86.612 Y86.950 E2.19845
G1 X87.288 Y86.950 E0.04022
G1 X113.388 Y113.050 E2.19845
G1 X114.063 Y113.050 E0.04022
G1 X87.963 Y86.950 E2.19845
G1 X88.638 Y86.950 E0.04022
G1 X114.738 Y113.050 E2.19845
G1 X115.414 Y113.050 E0.04022
