; generated by Slic3r 1.2.9 on 2020-05-14 at 10:35:25

; external perimeters extrusion width = 0.40mm
; perimeters extrusion width = 0.56mm
; infill extrusion width = 0.56mm
; solid infill extrusion width = 0.56mm
; top infill extrusion width = 0.56mm

M107
M190 S60 ; set bed temperature
M104 S215 ; set temperature
G28 ; home all axes
G92 E0.0 ; reset extruder
M109 S215 ; wait for temperature to be reached
G21 ; set units to millimeters
G90 ; use absolute coordinates
M83 ; use relative distances for extrusion
G1 E-1.30000 F3600.00000
G1 Z0.300 F7800.000
G1 X70.575 Y72.814 F7800.000
G1 E1.30000 F3600.00000
M204 S500
G1 X71.302 Y72.155 E0.05821 F2160.000
G1 X72.132 Y71.474 E0.06373
G1 X72.921 Y70.889 E0.05822
G1 X73.814 Y70.292 E0.06376
G1 X74.656 Y69.788 E0.05821
G1 X75.604 Y69.281 E0.06376
G1 X76.491 Y68.861 E0.05822
G1 X77.484 Y68.450 E0.06375
G1 X78.408 Y68.119 E0.05822
G1 X79.436 Y67.808 E0.06370
G1 X80.388 Y67.569 E0.05822
G1 X81.443 Y67.359 E0.06385
G1 X82.414 Y67.215 E0.05821
G1 X83.482 Y67.110 E0.06367
G1 X84.462 Y67.062 E0.05823
G1 X85.538 Y67.062 E0.06380
G1 X86.518 Y67.110 E0.05823 F2160.000
G1 X87.586 Y67.215 E0.06365
G1 X88.557 Y67.359 E0.05821
G1 X89.612 Y67.569 E0.06385
G1 X90.564 Y67.808 E0.05822
G1 X91.538 Y68.100 E0.06032
G1 X132.714 Y82.591 E2.58948
G1 X135.342 Y83.938 E0.17519
G1 X137.515 Y85.938 E0.17519
G1 X139.074 Y88.446 E0.17519
G1 X139.906 Y91.279 E0.17519
G1 X140.030 Y92.921 E0.09766
G1 X140.030 Y121.079 E1.67038
G1 X139.632 Y124.005 E0.17519
G1 X138.466 Y126.718 E0.17519
G1 X136.618 Y129.022 E0.17519
G1 X134.222 Y130.747 E0.17519
G1 X131.451 Y131.770 E0.17519
G1 X129.079 Y132.030 E0.14158
G1 X70.921 Y132.030 E3.45003
G1 X67.995 Y131.632 E0.17519
G1 X65.282 Y130.466 E0.17519
G1 X62.978 Y128.618 E0.17519
G1 X61.253 Y126.222 E0.17519
G1 X60.230 Y123.451 E0.17519
G1 X59.970 Y121.079 E0.14158
G1 X59.970 Y92.921 E1.67038
G1 X60.368 Y89.995 E0.17519
G1 X61.309 Y87.674 E0.14857
G1 X66.569 Y78.039 E0.65119
G1 X67.292 Y76.814 E0.08437
G1 X67.889 Y75.920 E0.06376
G1 X68.474 Y75.132 E0.05822
G1 X69.155 Y74.302 E0.06371
G1 X69.814 Y73.575 E0.05822
G1 X70.532 Y72.857 E0.06024
G1 X70.894 Y73.167 F7800.000
G1 X71.621 Y72.508 E0.05821 F2160.000
G1 X72.416 Y71.856 E0.06096
G1 X73.204 Y71.271 E0.05822
G1 X74.059 Y70.700 E0.06099
G1 X74.900 Y70.196 E0.05821
G1 X75.807 Y69.711 E0.06099
G1 X76.694 Y69.291 E0.05822
G1 X77.644 Y68.898 E0.06098
G1 X78.568 Y68.567 E0.05822
G1 X79.551 Y68.269 E0.06094
G1 X80.503 Y68.031 E0.05822
G1 X81.513 Y67.830 E0.06108
G1 X82.484 Y67.686 E0.05821
G1 X83.505 Y67.585 E0.06090
G1 X84.486 Y67.537 E0.05823
G1 X85.514 Y67.537 E0.06103
G1 X86.495 Y67.585 E0.05823 F2160.000
G1 X87.516 Y67.686 E0.06089
G1 X88.487 Y67.830 E0.05821
G1 X89.497 Y68.031 E0.06108
G1 X90.449 Y68.269 E0.05822
G1 X91.380 Y68.549 E0.05770
G1 X132.556 Y83.039 E2.58948
G1 X135.122 Y84.365 E0.17132
G1 X137.229 Y86.340 E0.17132
G1 X138.716 Y88.815 E0.17132
G1 X139.555 Y92.921 E0.24857
G1 X139.555 Y121.079 E1.67038
G1 X139.156 Y123.939 E0.17132
G1 X137.992 Y126.582 E0.17132
G1 X136.151 Y128.807 E0.17132
G1 X133.772 Y130.444 E0.17132
G1 X131.036 Y131.370 E0.17132
G1 X129.079 Y131.555 E0.11663
G1 X70.921 Y131.555 E3.45003
G1 X68.061 Y131.156 E0.17132
G1 X65.418 Y129.992 E0.17132
G1 X63.193 Y128.151 E0.17132
G1 X61.556 Y125.772 E0.17132
G1 X60.630 Y123.036 E0.17132
G1 X60.445 Y121.079 E0.11663
G1 X60.445 Y92.921 E1.67038
G1 X60.844 Y90.061 E0.17132
G1 X61.726 Y87.902 E0.13837
G1 X67.196 Y77.901 E0.67621
G1 X67.700 Y77.059 E0.05822
G1 X68.271 Y76.204 E0.06100
G1 X68.856 Y75.416 E0.05822
G1 X69.508 Y74.621 E0.06094
G1 X70.167 Y73.894 E0.05822
G1 X70.852 Y73.209 E0.05747
G1 F6240
G1 X71.621 Y72.508 E-0.57070
G1 F6240
G1 X72.416 Y71.856 E-0.56320
G1 F6240
G1 X72.564 Y71.746 E-0.10110
G1 E-0.06500 F3600.00000
G1 X88.367 Y109.250 F7800.000
G1 E1.30000 F3600.00000
G1 X87.863 Y109.863 E0.04709 F1080.000
G1 X87.250 Y110.367 E0.04709
G1 X86.550 Y110.741 E0.04709
G1 X85.790 Y110.971 E0.04709
G1 X85.000 Y111.049 E0.04709
G1 X84.210 Y110.971 E0.04709
G1 X83.450 Y110.741 E0.04709
G1 X82.750 Y110.367 E0.04709
G1 X82.137 Y109.863 E0.04709
G1 X81.633 Y109.250 E0.04709
G1 X81.259 Y108.550 E0.04709
G1 X81.029 Y107.790 E0.04709
G1 X80.951 Y107.000 E0.04709
G1 X81.029 Y106.210 E0.04709
G1 X81.259 Y105.450 E0.04709
G1 X81.633 Y104.750 E0.04709
G1 X82.137 Y104.137 E0.04709
G1 X82.750 Y103.633 E0.04709
G1 X83.450 Y103.259 E0.04709
G1 X84.210 Y103.029 E0.04709
G1 X84.964 Y102.954 E0.04496 F1080.000
G1 X85.787 Y103.028 E0.04897
G1 X86.550 Y103.259 E0.04730
G1 X87.250 Y103.633 E0.04709
G1 X87.863 Y104.137 E0.04709
G1 X88.367 Y104.750 E0.04709
G1 X88.741 Y105.450 E0.04709
G1 X88.971 Y106.210 E0.04709
G1 X89.049 Y107.000 E0.04709
G1 X88.971 Y107.790 E0.04709
G1 X88.741 Y108.550 E0.04709
G1 X88.395 Y109.197 E0.04353
G1 X87.969 Y108.984 F7800.000
G1 X87.525 Y109.525 E0.04153 F1080.000
G1 X86.984 Y109.969 E0.04153
G1 X86.367 Y110.299 E0.04153
G1 X85.697 Y110.503 E0.04153
G1 X85.000 Y110.571 E0.04153
G1 X84.303 Y110.503 E0.04153
G1 X83.633 Y110.299 E0.04153
G1 X83.016 Y109.969 E0.04153
G1 X82.475 Y109.525 E0.04153
G1 X82.031 Y108.984 E0.04153
G1 X81.701 Y108.367 E0.04153
G1 X81.497 Y107.697 E0.04153
G1 X81.429 Y107.000 E0.04153
G1 X81.497 Y106.303 E0.04153
G1 X81.701 Y105.633 E0.04153
G1 X82.031 Y105.016 E0.04153
G1 X82.475 Y104.475 E0.04153
G1 X83.016 Y104.031 E0.04153
G1 X83.633 Y103.701 E0.04153
G1 X84.303 Y103.497 E0.04153
G1 X84.967 Y103.432 E0.03954 F1080.000
G1 X85.696 Y103.497 E0.04341
G1 X86.367 Y103.701 E0.04161
G1 X86.984 Y104.031 E0.04153
G1 X87.525 Y104.475 E0.04153
G1 X87.969 Y105.016 E0.04153
G1 X88.299 Y105.633 E0.04153
G1 X88.503 Y106.303 E0.04153
G1 X88.571 Y107.000 E0.04153
G1 X88.503 Y107.697 E0.04153
G1 X88.299 Y108.367 E0.04153
G1 X87.998 Y108.931 E0.03797
G1 X88.134 Y109.348 F7800.000
G1 F6240
G1 X87.525 Y109.525 E-0.41599
G1 F6240
G1 X86.984 Y109.969 E-0.38369
G1 F6240
G1 X86.367 Y110.299 E-0.38370
G1 F6240
G1 X86.277 Y110.327 E-0.05162
G1 E-0.06500 F3600.00000
G1 X85.786 Y85.583 F7800.000
G1 E1.30000 F3600.00000
G1 X85.786 Y85.859 E0.01636 F1080.000
G1 X86.598 Y86.402 E0.05794
G1 X87.088 Y87.135 E0.05231
G1 X87.260 Y88.000 E0.05231
G1 X87.088 Y88.865 E0.05232
G1 X86.598 Y89.598 E0.05231
G1 X85.865 Y90.088 E0.05232
G1 X85.000 Y90.260 E0.05231
G1 X84.135 Y90.088 E0.05231
G1 X83.402 Y89.598 E0.05232
G1 X82.912 Y88.865 E0.05231
G1 X82.740 Y88.000 E0.05232
G1 X82.912 Y87.135 E0.05231
G1 X83.402 Y86.402 E0.05231
G1 X84.135 Y85.912 E0.05232
G1 X85.727 Y85.595 E0.09630
G1 X85.311 Y86.163 F7800.000
G1 X85.311 Y86.286 E0.00733 F1080.000
G1 X85.679 Y86.360 E0.02231
G1 X86.255 Y86.745 E0.04110
G1 X86.640 Y87.321 E0.04109
G1 X86.775 Y88.000 E0.04109
G1 X86.640 Y88.679 E0.04109
G1 X86.255 Y89.255 E0.04109
G1 X85.679 Y89.640 E0.04110
G1 X85.000 Y89.775 E0.04109
G1 X84.321 Y89.640 E0.04109
G1 X83.745 Y89.255 E0.04110
G1 X83.360 Y88.679 E0.04109
G1 X83.225 Y88.000 E0.04109
G1 X83.360 Y87.321 E0.04109
G1 X83.745 Y86.745 E0.04109
G1 X84.321 Y86.360 E0.04110
G1 X85.252 Y86.175 E0.05631 F1080.000
G1 X85.434 Y86.155 F7800.000
G1 X111.633 Y104.750 F7800.000
G1 X112.137 Y104.137 E0.04709 F1080.000
G1 X112.750 Y103.633 E0.04709
G1 X113.450 Y103.259 E0.04709
G1 X114.210 Y103.029 E0.04709
G1 X114.964 Y102.954 E0.04496 F1080.000
G1 X115.787 Y103.028 E0.04897
G1 X116.550 Y103.259 E0.04730
G1 X117.250 Y103.633 E0.04709
G1 X117.863 Y104.137 E0.04709
G1 X118.367 Y104.750 E0.04709
G1 X118.741 Y105.450 E0.04709
G1 X118.971 Y106.210 E0.04709
G1 X119.049 Y107.000 E0.04709
G1 X118.971 Y107.790 E0.04709
G1 X118.741 Y108.550 E0.04709
G1 X118.367 Y109.250 E0.04709
G1 X117.863 Y109.863 E0.04709
G1 X117.250 Y110.367 E0.04709
G1 X116.550 Y110.741 E0.04709
G1 X115.790 Y110.971 E0.04709
G1 X115.000 Y111.049 E0.04709
G1 X114.210 Y110.971 E0.04709
G1 X113.450 Y110.741 E0.04709
G1 X112.750 Y110.367 E0.04709
G1 X112.137 Y109.863 E0.04709
G1 X111.633 Y109.250 E0.04709
G1 X111.259 Y108.550 E0.04709
G1 X111.029 Y107.790 E0.04709
G1 X110.951 Y107.000 E0.04709
G1 X111.029 Y106.210 E0.04709
G1 X111.259 Y105.450 E0.04709
G1 X111.605 Y104.803 E0.04353
G1 X112.031 Y105.016 F7800.000
G1 X112.475 Y104.475 E0.04153 F1080.000
G1 X113.016 Y104.031 E0.04153
G1 X113.633 Y103.701 E0.04153
G1 X114.303 Y103.497 E0.04153
G1 X114.967 Y103.432 E0.03954 F1080.000
G1 X115.696 Y103.497 E0.04342
G1 X116.367 Y103.701 E0.04161
G1 X116.984 Y104.031 E0.04153
G1 X117.525 Y104.475 E0.04153
G1 X117.969 Y105.016 E0.04153
G1 X118.299 Y105.633 E0.04153
G1 X118.503 Y106.303 E0.04153
G1 X118.571 Y107.000 E0.04153
G1 X118.503 Y107.697 E0.04153
G1 X118.299 Y108.367 E0.04153
G1 X117.969 Y108.984 E0.04153
G1 X117.525 Y109.525 E0.04153
G1 X116.984 Y109.969 E0.04153
G1 X116.367 Y110.299 E0.04153
G1 X115.697 Y110.503 E0.04153
G1 X115.000 Y110.571 E0.04153
G1 X114.303 Y110.503 E0.04153
G1 X113.633 Y110.299 E0.04153
G1 X113.016 Y109.969 E0.04153
G1 X112.475 Y109.525 E0.04153
G1 X112.031 Y108.984 E0.04153
G1 X111.701 Y108.367 E0.04153
G1 X111.497 Y107.697 E0.04153
G1 X111.429 Y107.000 E0.04153
G1 X111.497 Y106.303 E0.04153
G1 X111.701 Y105.633 E0.04153
G1 X112.002 Y105.069 E0.03797
G1 X111.866 Y104.652 F7800.000
G1 X94.254 Y93.667 F7800.000
G1 X128.333 Y93.667 E2.02162 F1620.000
G1 X128.333 Y120.333 E1.58191
G1 X71.667 Y120.333 E3.36157
G1 X71.667 Y93.667 E1.58191
G1 X75.746 Y93.667 E0.24197
G1 X75.746 Y88.018 E0.33507
G1 X75.791 Y87.093 E0.05496
G1 X75.924 Y86.195 E0.05387
G1 X76.145 Y85.314 E0.05387
G1 X76.435 Y84.503 E0.05106
G1 X76.840 Y83.636 E0.05677
G1 X77.306 Y82.859 E0.05377
G1 X77.847 Y82.130 E0.05387
G1 X78.457 Y81.457 E0.05387
G1 X79.130 Y80.847 E0.05387
G1 X79.859 Y80.306 E0.05387
G1 X80.638 Y79.839 E0.05387
G1 X81.459 Y79.451 E0.05387
G1 X82.314 Y79.145 E0.05387
G1 X83.195 Y78.924 E0.05387
G1 X84.093 Y78.791 E0.05387
G1 X85.000 Y78.747 E0.05387
G1 X85.860 Y78.789 E0.05107
G1 X86.807 Y78.925 E0.05676
G1 X87.686 Y79.145 E0.05376
G1 X88.541 Y79.451 E0.05387
G1 X89.362 Y79.839 E0.05387
G1 X90.141 Y80.306 E0.05387
G1 X90.870 Y80.847 E0.05387
G1 X91.543 Y81.457 E0.05387
G1 X92.153 Y82.130 E0.05387
G1 X92.694 Y82.859 E0.05387
G1 X93.161 Y83.638 E0.05387
G1 X93.549 Y84.459 E0.05387
G1 X93.855 Y85.314 E0.05387
G1 X94.076 Y86.195 E0.05387
G1 X94.209 Y87.093 E0.05387
G1 X94.254 Y88.018 E0.05496
G1 X94.254 Y93.607 E0.33151
G1 X94.730 Y93.191 F7800.000
G1 X128.809 Y93.191 E2.02162 F1458.000
G1 X128.809 Y120.809 E1.63834
G1 X71.191 Y120.809 E3.41800
G1 X71.191 Y93.191 E1.63834
G1 X75.270 Y93.191 E0.24197
G1 X75.270 Y88.007 E0.30755
G1 X75.317 Y87.046 E0.05704
G1 X75.457 Y86.102 E0.05664
G1 X75.689 Y85.176 E0.05664
G1 X75.995 Y84.322 E0.05377
G1 X76.420 Y83.413 E0.05954
G1 X76.910 Y82.594 E0.05660
G1 X77.479 Y81.828 E0.05664
G1 X78.120 Y81.120 E0.05664
G1 X78.828 Y80.479 E0.05664
G1 X79.594 Y79.910 E0.05664
G1 X80.413 Y79.419 E0.05664
G1 X81.277 Y79.011 E0.05665
G1 X82.176 Y78.689 E0.05664
G1 X83.102 Y78.457 E0.05664
G1 X84.046 Y78.317 E0.05664
G1 X85.000 Y78.270 E0.05664
G1 X85.905 Y78.315 E0.05377
G1 X86.899 Y78.457 E0.05954
G1 X87.824 Y78.689 E0.05660
G1 X88.723 Y79.011 E0.05664
G1 X89.587 Y79.419 E0.05665
G1 X90.406 Y79.910 E0.05664
G1 X91.172 Y80.479 E0.05664
G1 X91.880 Y81.120 E0.05664
G1 X92.521 Y81.828 E0.05664
G1 X93.090 Y82.594 E0.05664
G1 X93.581 Y83.413 E0.05664
G1 X93.989 Y84.277 E0.05664
G1 X94.311 Y85.176 E0.05664
G1 X94.543 Y86.102 E0.05664
G1 X94.683 Y87.046 E0.05664
G1 X94.730 Y88.007 E0.05704
G1 X94.730 Y93.131 E0.30399
G1 X94.730 Y93.591 F7800.000
G1 X94.716 Y93.950 F7800.000
G1 X120.816 Y120.050 E2.19845 F1620.000
G1 X120.141 Y120.050 E0.04022
G1 X87.442 Y87.351 E2.75430
G1 X87.512 Y88.096 E0.04458
G1 X119.466 Y120.050 E2.69153
G1 X118.790 Y120.050 E0.04022
G1 X87.400 Y88.659 E2.64409
G1 X87.201 Y89.136 E0.03075
G1 X118.115 Y120.050 E2.60396
G1 X117.440 Y120.050 E0.04022
G1 X86.930 Y89.541 E2.56985
G1 X86.603 Y89.889 E0.02846
G1 X116.764 Y120.050 E2.54054
G1 X116.089 Y120.050 E0.04022
G1 X86.198 Y90.159 E2.51776
G1 X85.746 Y90.383 E0.03003
G1 X115.414 Y120.050 E2.49894
G1 X114.738 Y120.050 E0.04022
G1 X85.183 Y90.495 E2.48951
G1 X84.481 Y90.468 E0.04185
G1 X114.063 Y120.050 E2.49176
G1 X113.388 Y120.050 E0.04022
G1 X77.071 Y83.733 E3.05903
G1 X77.323 Y83.310 E0.02935
G1 X82.532 Y88.519 E0.43881
G1 X82.505 Y87.817 E0.04185
G1 X77.583 Y82.894 E0.41466
G1 X77.870 Y82.507 E0.02875
G1 X82.617 Y87.254 E0.39987
G1 X82.841 Y86.802 E0.03003
G1 X78.171 Y82.132 E0.39334
G1 X78.499 Y81.785 E0.02845
G1 X83.111 Y86.397 E0.38847
G1 X83.459 Y86.070 E0.02846
G1 X78.837 Y81.447 E0.38935
G1 X79.187 Y81.122 E0.02846
G1 X83.864 Y85.799 E0.39399
G1 X84.340 Y85.600 E0.03075
G1 X79.566 Y80.826 E0.40215
G1 X79.954 Y80.538 E0.02875
G1 X84.904 Y85.488 E0.41693
G1 X85.467 Y85.376 E0.03421
G1 X80.375 Y80.284 E0.42895
G1 X80.804 Y80.037 E0.02946
G1 X93.971 Y93.205 E1.10912
G1 X93.971 Y92.529 E0.04022
G1 X81.262 Y79.820 E1.07050
G1 X81.739 Y79.622 E0.03076
G1 X93.971 Y91.854 E1.03034
G1 X93.971 Y91.179 E0.04022
G1 X82.236 Y79.444 E0.98844
G1 X82.769 Y79.301 E0.03284
G1 X93.971 Y90.503 E0.94359
G1 X93.971 Y89.828 E0.04022
G1 X83.321 Y79.178 E0.89706
G1 X83.909 Y79.091 E0.03541
G1 X93.971 Y89.153 E0.84752
G1 X93.971 Y88.477 E0.04022
G1 X84.542 Y79.048 E0.79425
G1 X85.215 Y79.046 E0.04010
G1 X93.954 Y87.785 E0.73612
G1 X93.901 Y87.056 E0.04351
G1 X85.948 Y79.103 E0.66993
G1 X86.751 Y79.231 E0.04845
G1 X93.769 Y86.249 E0.59113
G1 X93.513 Y85.318 E0.05750
G1 X87.682 Y79.487 E0.49118
G1 X88.830 Y79.959 F7800.000
G1 X93.041 Y84.170 E0.35470 F1620.000
G1 X76.856 Y84.194 F7800.000
G1 X112.712 Y120.050 E3.02026 F1620.000
G1 X112.037 Y120.050 E0.04022
G1 X76.649 Y84.662 E2.98078
G1 X76.471 Y85.160 E0.03146
G1 X111.362 Y120.050 E2.93889
G1 X110.686 Y120.050 E0.04022
G1 X76.322 Y85.686 E2.89459
G1 X76.192 Y86.231 E0.03338
G1 X110.011 Y120.050 E2.84867
G1 X109.336 Y120.050 E0.04022
G1 X76.104 Y86.819 E2.79913
G1 X76.053 Y87.443 E0.03728
G1 X108.660 Y120.050 E2.74659
G1 X107.985 Y120.050 E0.04022
G1 X76.029 Y88.094 E2.69171
G1 X76.029 Y88.769 E0.04022
G1 X107.309 Y120.050 E2.63483
G1 X106.634 Y120.050 E0.04022
G1 X76.029 Y89.445 E2.57794
G1 X76.029 Y90.120 E0.04022
G1 X105.959 Y120.050 E2.52106
G1 X105.283 Y120.050 E0.04022
G1 X76.029 Y90.795 E2.46417
G1 X76.029 Y91.471 E0.04022
G1 X104.608 Y120.050 E2.40728
G1 X103.933 Y120.050 E0.04022
G1 X88.896 Y105.013 E1.26658
G1 X89.250 Y106.043 F7800.000
G1 X103.257 Y120.050 E1.17987 F1620.000
G1 X102.582 Y120.050 E0.04022
G1 X89.324 Y106.792 E1.11677
G1 X89.283 Y107.426 E0.03785
G1 X101.907 Y120.050 E1.06336
G1 X101.231 Y120.050 E0.04022
G1 X89.179 Y107.997 E1.01523
G1 X89.021 Y108.515 E0.03225
G1 X100.556 Y120.050 E0.97159
G1 X99.881 Y120.050 E0.04022
G1 X88.798 Y108.968 E0.93349
G1 X88.556 Y109.401 E0.02956
G1 X99.205 Y120.050 E0.89701
G1 X98.530 Y120.050 E0.04022
G1 X88.252 Y109.772 E0.86576
G1 X87.928 Y110.123 E0.02847
G1 X97.855 Y120.050 E0.83613
G1 X97.179 Y120.050 E0.04022
G1 X87.557 Y110.428 E0.81050
G1 X87.153 Y110.699 E0.02899
G1 X96.504 Y120.050 E0.78764
G1 X95.829 Y120.050 E0.04022
G1 X86.713 Y110.934 E0.76782
G1 X86.216 Y111.112 E0.03147
G1 X95.153 Y120.050 E0.75283
G1 X94.478 Y120.050 E0.04022
G1 X85.685 Y111.257 E0.74064
G1 X85.070 Y111.318 E0.03680
G1 X93.803 Y120.050 E0.73554
G1 X93.127 Y120.050 E0.04022
G1 X84.359 Y111.281 E0.73861
G1 X83.485 Y111.083 E0.05338
G1 X92.452 Y120.050 E0.75533
G1 X91.777 Y120.050 E0.04022
G1 X71.950 Y100.223 E1.67004
G1 X71.950 Y100.899 E0.04022
G1 X91.101 Y120.050 E1.61315
G1 X90.426 Y120.050 E0.04022
G1 X71.950 Y101.574 E1.55627
G1 X71.950 Y102.249 E0.04022
G1 X89.751 Y120.050 E1.49938
G1 X89.075 Y120.050 E0.04022
G1 X71.950 Y102.925 E1.44250
G1 X71.950 Y103.600 E0.04022
G1 X88.400 Y120.050 E1.38561
G1 X87.725 Y120.050 E0.04022
G1 X71.950 Y104.275 E1.32873
G1 X71.950 Y104.951 E0.04022
G1 X87.049 Y120.050 E1.27184
G1 X86.374 Y120.050 E0.04022
G1 X71.950 Y105.626 E1.21495
G1 X71.950 Y106.301 E0.04022
G1 X85.699 Y120.050 E1.15807
G1 X85.023 Y120.050 E0.04022
G1 X71.950 Y106.977 E1.10118
G1 X71.950 Y107.652 E0.04022
G1 X84.348 Y120.050 E1.04430
G1 X83.673 Y120.050 E0.04022
G1 X71.950 Y108.327 E0.98741
G1 X71.950 Y109.003 E0.04022
