; generated by Slic3r 1.3.1-dev (Build 2d100c4) on 2020-05-15 at 06:24:05

; external perimeters extrusion width = 0.44mm (3.91mm^3/s)
; perimeters extrusion width = 0.56mm (5.65mm^3/s)
; infill extrusion width = 0.50mm (5.02mm^3/s)
; solid infill extrusion width = 0.56mm (5.65mm^3/s)
; top infill extrusion width = 0.56mm (5.65mm^3/s)

M107
M190 S60 ; set bed temperature and wait for it to be reached
M104 S215 ; set temperature
G28 ; home all axes
G92 E0.0 ; reset extruder
; Filament gcode

M109 S215 ; set temperature and wait for it to be reached
G21 ; set units to millimeters
G90 ; use absolute coordinates
M83 ; use relative distances for extrusion
G1 E-1.30000 F3600.00000
G1 Z0.300 F7800.000
G1 X53.382 Y67.978 F7800.000
G1 E1.30000 F3600.00000
M201 X500 Y500
M204 P500 T500
G1 F2160.000
G1 X55.778 Y66.253 E0.17519
G1 X58.549 Y65.230 E0.17519
G1 X60.921 Y64.970 E0.14158
G1 X119.079 Y64.970 E3.45003
G1 X122.005 Y65.368 E0.17519
G1 X124.718 Y66.534 E0.17519
G1 X127.022 Y68.382 E0.17519
G1 X128.747 Y70.778 E0.17519
G1 X129.770 Y73.549 E0.17519
G1 X130.030 Y75.921 E0.14158
G1 X130.030 Y104.079 E1.67038
G1 X129.632 Y107.005 E0.17519
G1 X128.466 Y109.718 E0.17519
G1 X126.618 Y112.022 E0.17519
G1 X124.222 Y113.747 E0.17519
G1 X121.451 Y114.770 E0.17519
G1 X119.079 Y115.030 E0.14158
G1 X60.921 Y115.030 E3.45003
G1 X57.995 Y114.632 E0.17519
G1 X55.282 Y113.466 E0.17519
G1 X52.978 Y111.618 E0.17519
G1 X51.253 Y109.222 E0.17519
G1 X50.230 Y106.451 E0.17519
G1 X49.970 Y104.079 E0.14158
G1 X49.970 Y75.921 E1.67038
G1 X50.368 Y72.995 E0.17519
G1 X51.534 Y70.282 E0.17519
G1 X53.344 Y68.025 E0.17163
G1 X53.849 Y68.193 F7800.000
G1 F2160.000
G1 X56.228 Y66.556 E0.17132
G1 X58.964 Y65.630 E0.17132
G1 X60.921 Y65.445 E0.11663
G1 X119.079 Y65.445 E3.45003
G1 X121.939 Y65.844 E0.17132
G1 X124.582 Y67.008 E0.17132
G1 X126.807 Y68.849 E0.17132
G1 X128.444 Y71.228 E0.17132
G1 X129.370 Y73.964 E0.17132
G1 X129.555 Y75.921 E0.11663
G1 X129.555 Y104.079 E1.67038
G1 X129.156 Y106.939 E0.17132
G1 X127.992 Y109.582 E0.17132
G1 X126.151 Y111.807 E0.17132
G1 X123.772 Y113.444 E0.17132
G1 X121.036 Y114.370 E0.17132
G1 X119.079 Y114.555 E0.11663
G1 X60.921 Y114.555 E3.45003
G1 X58.061 Y114.156 E0.17132
G1 X55.418 Y112.992 E0.17132
G1 X53.193 Y111.151 E0.17132
G1 X51.556 Y108.772 E0.17132
G1 X50.630 Y106.036 E0.17132
G1 X50.445 Y104.079 E0.11663
G1 X50.445 Y75.921 E1.67038
G1 X50.844 Y73.061 E0.17132
G1 X52.008 Y70.418 E0.17132
G1 X53.811 Y68.239 E0.16776
G1 F6240.000
G1 X55.660 Y66.951 E-1.23500
G1 E-0.06500 F3600.00000
G1 X77.250 Y93.367 F7800.000
G1 E1.30000 F3600.00000
G1 F1080.000
G1 X76.550 Y93.741 E0.04709
G1 X75.790 Y93.971 E0.04709
G1 X75.000 Y94.049 E0.04709
G1 X74.210 Y93.971 E0.04709
G1 X73.450 Y93.741 E0.04709
G1 X72.750 Y93.367 E0.04709
G1 X72.137 Y92.863 E0.04709
G1 X71.633 Y92.250 E0.04709
G1 X71.259 Y91.550 E0.04709
G1 X71.029 Y90.790 E0.04709
G1 X70.951 Y90.000 E0.04709
G1 X71.029 Y89.210 E0.04709
G1 X71.259 Y88.450 E0.04709
G1 X71.633 Y87.750 E0.04709
G1 X72.137 Y87.137 E0.04709
G1 X72.750 Y86.633 E0.04709
G1 X73.450 Y86.259 E0.04709
G1 X74.210 Y86.029 E0.04709
G1 X75.000 Y85.951 E0.04709
G1 X75.790 Y86.029 E0.04709
G1 X76.550 Y86.259 E0.04709
G1 X77.250 Y86.633 E0.04709
G1 X77.863 Y87.137 E0.04709
G1 X78.367 Y87.750 E0.04709
G1 X78.741 Y88.450 E0.04709
G1 X78.971 Y89.210 E0.04709
G1 X79.049 Y90.000 E0.04709
G1 X78.971 Y90.790 E0.04709
G1 X78.741 Y91.550 E0.04709
G1 X78.367 Y92.250 E0.04709
G1 X77.863 Y92.863 E0.04709
G1 X77.296 Y93.329 E0.04353
G1 X76.984 Y92.969 F7800.000
G1 F1080.000
G1 X76.367 Y93.299 E0.04153
G1 X75.697 Y93.503 E0.04153
G1 X75.000 Y93.571 E0.04153
G1 X74.303 Y93.503 E0.04153
G1 X73.633 Y93.299 E0.04153
G1 X73.016 Y92.969 E0.04153
G1 X72.475 Y92.525 E0.04153
G1 X72.031 Y91.984 E0.04153
G1 X71.701 Y91.367 E0.04153
G1 X71.497 Y90.697 E0.04153
G1 X71.429 Y90.000 E0.04153
G1 X71.497 Y89.303 E0.04153
G1 X71.701 Y88.633 E0.04153
G1 X72.031 Y88.016 E0.04153
G1 X72.475 Y87.475 E0.04153
G1 X73.016 Y87.031 E0.04153
G1 X73.633 Y86.701 E0.04153
G1 X74.303 Y86.497 E0.04153
G1 X75.000 Y86.429 E0.04153
G1 X75.697 Y86.497 E0.04153
G1 X76.367 Y86.701 E0.04153
G1 X76.984 Y87.031 E0.04153
G1 X77.525 Y87.475 E0.04153
G1 X77.969 Y88.016 E0.04153
G1 X78.299 Y88.633 E0.04153
G1 X78.503 Y89.303 E0.04153
G1 X78.571 Y90.000 E0.04153
G1 X78.503 Y90.697 E0.04153
G1 X78.299 Y91.367 E0.04153
G1 X77.969 Y91.984 E0.04153
G1 X77.525 Y92.525 E0.04153
G1 X77.031 Y92.931 E0.03797
G1 X76.984 Y92.969 F7800.000
G1 F6240.000
G1 X76.984 Y92.969 E-0.03288
G1 F6240.000
G1 X76.367 Y93.299 E-0.38370
G1 F6240.000
G1 X75.697 Y93.503 E-0.38374
G1 F6240.000
G1 X75.000 Y93.571 E-0.38371
G1 F6240.000
G1 X74.907 Y93.562 E-0.05097
G1 E-0.06500 F3600.00000
G1 X101.010 Y90.603 F7800.000
G1 E1.30000 F3600.00000
G1 F1080.000
G1 X100.951 Y90.000 E0.03596
G1 X101.029 Y89.210 E0.04709
G1 X101.259 Y88.450 E0.04709
G1 X101.633 Y87.750 E0.04709
G1 X102.137 Y87.137 E0.04709
G1 X102.750 Y86.633 E0.04709
G1 X103.450 Y86.259 E0.04709
G1 X104.210 Y86.029 E0.04709
G1 X105.000 Y85.951 E0.04709
G1 X105.790 Y86.029 E0.04709
G1 X106.550 Y86.259 E0.04709
G1 X107.250 Y86.633 E0.04709
G1 X107.863 Y87.137 E0.04709
G1 X108.367 Y87.750 E0.04709
G1 X108.741 Y88.450 E0.04709
G1 X108.971 Y89.210 E0.04709
G1 X109.049 Y90.000 E0.04709
G1 X108.971 Y90.790 E0.04709
G1 X108.741 Y91.550 E0.04709
G1 X108.367 Y92.250 E0.04709
G1 X107.863 Y92.863 E0.04709
G1 X107.250 Y93.367 E0.04709
G1 X106.550 Y93.741 E0.04709
G1 X105.790 Y93.971 E0.04709
G1 X105.000 Y94.049 E0.04709
G1 X104.210 Y93.971 E0.04709
G1 X103.450 Y93.741 E0.04709
G1 X102.750 Y93.367 E0.04709
G1 X102.137 Y92.863 E0.04709
G1 X101.633 Y92.250 E0.04709
G1 X101.259 Y91.550 E0.04709
G1 X101.029 Y90.790 E0.04709
G1 X101.016 Y90.663 E0.00756
G1 X101.484 Y90.557 F7800.000
G1 F1080.000
G1 X101.429 Y90.000 E0.03319
G1 X101.497 Y89.303 E0.04153
G1 X101.701 Y88.633 E0.04153
G1 X102.031 Y88.016 E0.04153
G1 X102.475 Y87.475 E0.04153
G1 X103.016 Y87.031 E0.04153
G1 X103.633 Y86.701 E0.04153
G1 X104.303 Y86.497 E0.04153
G1 X105.000 Y86.429 E0.04153
G1 X105.697 Y86.497 E0.04153
G1 X106.367 Y86.701 E0.04153
G1 X106.984 Y87.031 E0.04153
G1 X107.525 Y87.475 E0.04153
G1 X107.969 Y88.016 E0.04153
G1 X108.299 Y88.633 E0.04153
G1 X108.503 Y89.303 E0.04153
G1 X108.571 Y90.000 E0.04153
G1 X108.503 Y90.697 E0.04153
G1 X108.299 Y91.367 E0.04153
G1 X107.969 Y91.984 E0.04153
G1 X107.525 Y92.525 E0.04153
G1 X106.984 Y92.969 E0.04153
G1 X106.367 Y93.299 E0.04153
G1 X105.697 Y93.503 E0.04153
G1 X105.000 Y93.571 E0.04153
G1 X104.303 Y93.503 E0.04153
G1 X103.633 Y93.299 E0.04153
G1 X103.016 Y92.969 E0.04153
G1 X102.475 Y92.525 E0.04153
G1 X102.031 Y91.984 E0.04153
G1 X101.701 Y91.367 E0.04153
G1 X101.497 Y90.697 E0.04153
G1 X101.489 Y90.616 E0.00479
G1 X101.111 Y90.412 F7800.000
G1 F6240.000
G1 X101.429 Y90.000 E-0.33949
G1 F6240.000
G1 X101.497 Y89.303 E-0.38371
G1 F6240.000
G1 X101.701 Y88.633 E-0.38374
G1 F6240.000
G1 X101.811 Y88.427 E-0.12806
G1 E-0.06500 F3600.00000
G1 X118.333 Y103.333 F7800.000
G1 E1.30000 F3600.00000
G1 F1620.000
G1 X61.667 Y103.333 E3.36157
G1 X61.667 Y76.667 E1.58191
G1 X118.333 Y76.667 E3.36157
G1 X118.333 Y103.273 E1.57835
G1 X118.809 Y103.809 F7800.000
G1 F1458.000
G1 X61.191 Y103.809 E3.41800
G1 X61.191 Y76.191 E1.63834
G1 X118.809 Y76.191 E3.41800
G1 X118.809 Y103.749 E1.63478
G1 X118.413 Y103.750 F7800.000
G1 X117.807 Y102.908 F7800.000
G1 F1620.000
G1 X117.908 Y102.807 E0.00848
G1 X117.908 Y102.134 E0.03994
G1 X117.134 Y102.908 E0.06497
G1 X116.461 Y102.908 E0.03994
G1 X117.908 Y101.461 E0.12146
G1 X117.908 Y100.788 E0.03994
G1 X115.788 Y102.908 E0.17795
G1 X115.115 Y102.908 E0.03994
G1 X117.908 Y100.115 E0.23443
G1 X117.908 Y99.442 E0.03994
G1 X114.442 Y102.908 E0.29092
G1 X113.769 Y102.908 E0.03994
G1 X117.908 Y98.769 E0.34741
G1 X117.908 Y98.096 E0.03994
G1 X113.096 Y102.908 E0.40390
G1 X112.423 Y102.908 E0.03994
G1 X117.908 Y97.423 E0.46039
G1 X117.908 Y96.750 E0.03994
G1 X111.750 Y102.908 E0.51688
G1 X111.077 Y102.908 E0.03994
G1 X117.908 Y96.077 E0.57336
G1 X117.908 Y95.404 E0.03994
G1 X110.404 Y102.908 E0.62985
G1 X109.731 Y102.908 E0.03994
G1 X117.908 Y94.731 E0.68634
G1 X117.908 Y94.058 E0.03994
G1 X109.058 Y102.908 E0.74283
G1 X108.385 Y102.908 E0.03994
G1 X117.908 Y93.385 E0.79932
G1 X117.908 Y92.712 E0.03994
G1 X107.712 Y102.908 E0.85580
G1 X107.039 Y102.908 E0.03994
G1 X117.908 Y92.039 E0.91229
G1 X117.908 Y91.366 E0.03994
G1 X106.366 Y102.908 E0.96878
G1 X105.693 Y102.908 E0.03994
G1 X117.908 Y90.693 E1.02527
G1 X117.908 Y90.021 E0.03994
G1 X105.020 Y102.908 E1.08176
G1 X104.348 Y102.908 E0.03994
G1 X117.908 Y89.348 E1.13825
G1 X117.908 Y88.675 E0.03994
G1 X103.675 Y102.908 E1.19473
G1 X103.002 Y102.908 E0.03994
G1 X117.908 Y88.002 E1.25122
G1 X117.908 Y87.329 E0.03994
G1 X102.329 Y102.908 E1.30771
G1 X101.656 Y102.908 E0.03994
G1 X117.908 Y86.656 E1.36420
G1 X117.908 Y85.983 E0.03994
G1 X100.983 Y102.908 E1.42069
G1 X100.310 Y102.908 E0.03994
G1 X117.908 Y85.310 E1.47718
G1 X117.908 Y84.637 E0.03994
G1 X99.637 Y102.908 E1.53366
G1 X98.964 Y102.908 E0.03994
G1 X117.908 Y83.964 E1.59015
G1 X117.908 Y83.291 E0.03994
G1 X108.806 Y92.393 E0.76401
G1 X109.132 Y91.783 E0.04104
G1 X109.302 Y91.224 E0.03465
G1 X117.908 Y82.618 E0.72242
G1 X117.908 Y81.945 E0.03994
G1 X109.441 Y90.412 E0.71070
G1 X109.477 Y90.050 E0.02155
G1 X109.446 Y89.734 E0.01885
G1 X117.908 Y81.272 E0.71033
G1 X117.908 Y80.599 E0.03994
G1 X109.378 Y89.129 E0.71599
G1 X109.221 Y88.613 E0.03203
G1 X117.908 Y79.926 E0.72914
G1 X117.908 Y79.253 E0.03994
G1 X109.031 Y88.130 E0.74509
G1 X108.797 Y87.691 E0.02951
G1 X117.908 Y78.580 E0.76477
G1 X117.908 Y77.907 E0.03994
G1 X108.518 Y87.297 E0.78818
G1 X108.215 Y86.927 E0.02838
G1 X117.908 Y77.234 E0.81364
G1 X117.908 Y77.092 E0.00843
G1 X117.377 Y77.092 E0.03151
G1 X107.859 Y86.610 E0.79893
G1 X107.489 Y86.307 E0.02838
G1 X116.704 Y77.092 E0.77347
G1 X116.031 Y77.092 E0.03994
G1 X107.056 Y86.068 E0.75340
G1 X106.682 Y85.868 E0.02513
G1 X106.605 Y85.845 E0.00476
G1 X115.358 Y77.092 E0.73469
G1 X114.685 Y77.092 E0.03994
G1 X106.089 Y85.688 E0.72155
G1 X105.833 Y85.610 E0.01590
G1 X105.524 Y85.580 E0.01840
G1 X114.012 Y77.092 E0.71247
G1 X113.339 Y77.092 E0.03994
G1 X104.903 Y85.528 E0.70810
G1 X104.157 Y85.601 E0.04452
G1 X112.666 Y77.092 E0.71427
G1 X111.993 Y77.092 E0.03994
G1 X103.217 Y85.868 E0.73664
G1 X102.434 Y86.286 E0.05269
G1 X101.748 Y86.849 E0.05267
G1 X101.185 Y87.535 E0.05267
G1 X100.767 Y88.318 E0.05269
G1 X86.177 Y102.908 E1.22464
G1 X85.504 Y102.908 E0.03994
G1 X111.320 Y77.092 E2.16696
G1 X110.647 Y77.092 E0.03994
G1 X84.831 Y102.908 E2.16696
G1 X84.158 Y102.908 E0.03994
G1 X109.974 Y77.092 E2.16696
G1 X109.301 Y77.092 E0.03994
G1 X83.485 Y102.908 E2.16696
G1 X82.812 Y102.908 E0.03994
G1 X108.628 Y77.092 E2.16696
G1 X107.956 Y77.092 E0.03994
G1 X82.139 Y102.908 E2.16696
G1 X81.466 Y102.908 E0.03994
G1 X107.283 Y77.092 E2.16696
G1 X106.610 Y77.092 E0.03994
G1 X80.793 Y102.908 E2.16696
G1 X80.120 Y102.908 E0.03994
G1 X105.937 Y77.092 E2.16696
G1 X105.264 Y77.092 E0.03994
G1 X79.447 Y102.908 E2.16696
G1 X78.774 Y102.908 E0.03994
G1 X104.591 Y77.092 E2.16696
G1 X103.918 Y77.092 E0.03994
G1 X78.101 Y102.908 E2.16696
G1 X77.428 Y102.908 E0.03994
G1 X103.245 Y77.092 E2.16696
G1 X102.572 Y77.092 E0.03994
G1 X76.755 Y102.908 E2.16696
G1 X76.082 Y102.908 E0.03994
G1 X101.899 Y77.092 E2.16696
G1 X101.226 Y77.092 E0.03994
G1 X75.409 Y102.908 E2.16696
G1 X74.736 Y102.908 E0.03994
G1 X100.553 Y77.092 E2.16696
G1 X99.880 Y77.092 E0.03994
G1 X74.063 Y102.908 E2.16696
G1 X73.390 Y102.908 E0.03994
G1 X99.207 Y77.092 E2.16696
G1 X98.534 Y77.092 E0.03994
G1 X72.718 Y102.908 E2.16696
G1 X72.045 Y102.908 E0.03994
G1 X97.861 Y77.092 E2.16696
G1 X97.188 Y77.092 E0.03994
G1 X71.372 Y102.908 E2.16696
G1 X70.699 Y102.908 E0.03994
G1 X96.515 Y77.092 E2.16696
G1 X95.842 Y77.092 E0.03994
G1 X70.026 Y102.908 E2.16696
G1 X69.353 Y102.908 E0.03994
G1 X95.169 Y77.092 E2.16696
G1 X94.496 Y77.092 E0.03994
G1 X68.680 Y102.908 E2.16696
G1 X68.007 Y102.908 E0.03994
G1 X76.783 Y94.132 E0.73663
G1 X75.934 Y94.390 E0.05266
G1 X75.843 Y94.399 E0.00539
G1 X67.334 Y102.908 E0.71427
G1 X66.661 Y102.908 E0.03994
G1 X75.097 Y94.472 E0.70810
G1 X74.476 Y94.420 E0.03698
G1 X65.988 Y102.908 E0.71247
G1 X65.315 Y102.908 E0.03994
G1 X73.911 Y94.312 E0.72154
G1 X73.395 Y94.155 E0.03203
G1 X64.642 Y102.908 E0.73469
G1 X63.969 Y102.908 E0.03994
G1 X72.944 Y93.932 E0.75340
G1 X72.511 Y93.693 E0.02940
G1 X63.296 Y102.908 E0.77347
G1 X62.623 Y102.908 E0.03994
G1 X72.141 Y93.390 E0.79892
G1 X71.849 Y93.151 E0.02239
G1 X71.785 Y93.073 E0.00599
G1 X62.092 Y102.766 E0.81364
G1 X62.092 Y102.093 E0.03994
G1 X71.482 Y92.703 E0.78818
G1 X71.286 Y92.465 E0.01830
G1 X71.203 Y92.309 E0.01048
G1 X62.092 Y101.420 E0.76477
G1 X62.092 Y100.747 E0.03994
G1 X70.969 Y91.870 E0.74510
G1 X70.868 Y91.682 E0.01267
G1 X70.779 Y91.387 E0.01827
G1 X62.092 Y100.074 E0.72914
G1 X62.092 Y99.401 E0.03994
G1 X70.622 Y90.871 E0.71600
G1 X70.554 Y90.266 E0.03616
G1 X62.092 Y98.728 E0.71033
G1 X62.092 Y98.055 E0.03994
G1 X70.559 Y89.588 E0.71071
G1 X70.610 Y89.066 E0.03112
G1 X70.698 Y88.776 E0.01803
G1 X62.092 Y97.382 E0.72242
G1 X62.092 Y96.709 E0.03994
G1 X71.194 Y87.607 E0.76401
G1 F6240.000
G1 X69.601 Y89.201 E-1.23500
G1 E-0.06500 F3600.00000
G1 X79.132 Y91.783 F7800.000
G1 E1.30000 F3600.00000
G1 F1620.000
G1 X93.823 Y77.092 E1.23311
G1 X93.150 Y77.092 E0.03994
G1 X79.399 Y90.843 E1.15426
G1 X79.472 Y90.097 E0.04452
G1 X92.477 Y77.092 E1.09160
G1 X91.804 Y77.092 E0.03994
G1 X79.420 Y89.476 E1.03948
G1 X79.390 Y89.167 E0.01840
G1 X79.312 Y88.911 E0.01590
G1 X91.131 Y77.092 E0.99207
G1 X90.458 Y77.092 E0.03994
G1 X79.155 Y88.395 E0.94873
G1 X79.132 Y88.318 E0.00476
G1 X78.932 Y87.944 E0.02513
G1 X89.785 Y77.092 E0.91095
G1 X89.112 Y77.092 E0.03994
G1 X78.693 Y87.511 E0.87452
G1 X78.390 Y87.141 E0.02838
G1 X88.439 Y77.092 E0.84349
G1 X87.766 Y77.092 E0.03994
G1 X78.073 Y86.785 E0.81364
G1 X77.703 Y86.482 E0.02838
G1 X87.093 Y77.092 E0.78818
G1 X86.420 Y77.092 E0.03994
G1 X77.309 Y86.203 E0.76477
G1 X76.870 Y85.969 E0.02951
G1 X85.747 Y77.092 E0.74510
G1 X85.074 Y77.092 E0.03994
G1 X76.387 Y85.779 E0.72914
G1 X75.871 Y85.622 E0.03203
G1 X84.401 Y77.092 E0.71600
G1 X83.728 Y77.092 E0.03994
G1 X75.266 Y85.554 E0.71033
G1 X74.950 Y85.523 E0.01885
G1 X74.588 Y85.559 E0.02155
G1 X83.055 Y77.092 E0.71071
G1 X82.382 Y77.092 E0.03994
G1 X73.776 Y85.698 E0.72242
G1 X73.217 Y85.868 E0.03465
G1 X72.607 Y86.194 E0.04104
G1 X81.709 Y77.092 E0.76401
G1 X81.036 Y77.092 E0.03994
G1 X62.092 Y96.036 E1.59016
G1 X62.092 Y95.363 E0.03994
G1 X80.363 Y77.092 E1.53367
G1 X79.690 Y77.092 E0.03994
G1 X62.092 Y94.690 E1.47718
G1 X62.092 Y94.017 E0.03994
G1 X79.017 Y77.092 E1.42069
G1 X78.344 Y77.092 E0.03994
G1 X62.092 Y93.344 E1.36420
G1 X62.092 Y92.671 E0.03994
G1 X77.671 Y77.092 E1.30772
G1 X76.998 Y77.092 E0.03994
G1 X62.092 Y91.998 E1.25123
G1 X62.092 Y91.325 E0.03994
G1 X76.325 Y77.092 E1.19474
G1 X75.653 Y77.092 E0.03994
G1 X62.092 Y90.653 E1.13825
G1 X62.092 Y89.980 E0.03994
G1 X74.980 Y77.092 E1.08176
G1 X74.307 Y77.092 E0.03994
G1 X62.092 Y89.307 E1.02527
G1 X62.092 Y88.634 E0.03994
G1 X73.634 Y77.092 E0.96879
G1 X72.961 Y77.092 E0.03994
G1 X62.092 Y87.961 E0.91230
G1 X62.092 Y87.288 E0.03994
G1 X72.288 Y77.092 E0.85581
G1 X71.615 Y77.092 E0.03994
G1 X62.092 Y86.615 E0.79932
G1 X62.092 Y85.942 E0.03994
G1 X70.942 Y77.092 E0.74283
G1 X70.269 Y77.092 E0.03994
G1 X62.092 Y85.269 E0.68634
G1 X62.092 Y84.596 E0.03994
G1 X69.596 Y77.092 E0.62986
G1 X68.923 Y77.092 E0.03994
G1 X62.092 Y83.923 E0.57337
G1 X62.092 Y83.250 E0.03994
G1 X68.250 Y77.092 E0.51688
G1 X67.577 Y77.092 E0.03994
G1 X62.092 Y82.577 E0.46039
G1 X62.092 Y81.904 E0.03994
G1 X66.904 Y77.092 E0.40390
G1 X66.231 Y77.092 E0.03994
G1 X62.092 Y81.231 E0.34741
G1 X62.092 Y80.558 E0.03994
G1 X65.558 Y77.092 E0.29093
G1 X64.885 Y77.092 E0.03994
G1 X62.092 Y79.885 E0.23444
G1 X62.092 Y79.212 E0.03994
G1 X64.212 Y77.092 E0.17795
G1 X63.539 Y77.092 E0.03994
G1 X62.092 Y78.539 E0.12146
G1 X62.092 Y77.866 E0.03994
