; generated by Slic3r 1.2.9 on 2020-05-14 at 22:33:12

; external perimeters extrusion width = 0.40mm
; perimeters extrusion width = 0.56mm
; infill extrusion width = 0.56mm
; solid infill extrusion width = 0.56mm
; top infill extrusion width = 0.56mm

M107
M190 S60 ; set bed temperature
M104 S215 ; set temperature
G28 ; home all axes
G92 E0.0 ; reset extruder
M109 S215 ; wait for temperature to be reached
G21 ; set units to millimeters
G90 ; use absolute coordinates
M83 ; use relative distances for extrusion
G1 E-1.30000 F3600.00000
G1 Z0.300 F7800.000
G1 X88.726 Y88.725 F7800.000
G1 E1.30000 F3600.00000
M204 S500
G1 X89.762 Y87.774 E0.08349 F1060.846
G1 X90.169 Y87.444 E0.03105
G1 X91.097 Y86.770 E0.06800
G1 X91.536 Y86.485 E0.03107
G1 X92.528 Y85.912 E0.06798
G1 X92.995 Y85.674 E0.03108
G1 X94.042 Y85.208 E0.06797
G1 X94.530 Y85.021 E0.03105
G1 X95.620 Y84.667 E0.06799
G1 X96.126 Y84.531 E0.03107
G1 X97.247 Y84.293 E0.06799
G1 X97.764 Y84.211 E0.03105
G1 X98.904 Y84.091 E0.06800
G1 X99.427 Y84.064 E0.03106
G1 X100.573 Y84.064 E0.06798
G1 X101.097 Y84.091 E0.03110 F1060.846
G1 X102.236 Y84.211 E0.06795
G1 X102.753 Y84.293 E0.03108
G1 X103.874 Y84.531 E0.06798
G1 X104.380 Y84.667 E0.03105
G1 X105.470 Y85.021 E0.06799
G1 X105.940 Y85.201 E0.02988
G1 X107.005 Y85.675 E0.06917
G1 X107.472 Y85.912 E0.03105
G1 X108.465 Y86.485 E0.06801
G1 X108.903 Y86.770 E0.03105
G1 X109.831 Y87.444 E0.06800
G1 X110.238 Y87.774 E0.03106
G1 X111.089 Y88.541 E0.06798
G1 X111.460 Y88.911 E0.03107
G1 X112.226 Y89.762 E0.06797
G1 X112.543 Y90.154 E0.02986
G1 X113.229 Y91.096 E0.06918
G1 X113.515 Y91.536 E0.03106
G1 X114.088 Y92.528 E0.06799
G1 X114.326 Y92.995 E0.03107
G1 X114.792 Y94.042 E0.06798
G1 X114.979 Y94.531 E0.03106
G1 X115.333 Y95.620 E0.06798
G1 X115.469 Y96.126 E0.03105
G1 X115.707 Y97.247 E0.06801
G1 X115.789 Y97.764 E0.03105
G1 X115.909 Y98.904 E0.06800
G1 X115.936 Y99.427 E0.03105
G1 X115.936 Y100.573 E0.06800
G1 X115.909 Y101.096 E0.03105
G1 X115.789 Y102.236 E0.06800
G1 X115.707 Y102.753 E0.03105
G1 X115.469 Y103.874 E0.06801
G1 X115.333 Y104.380 E0.03105
G1 X114.979 Y105.469 E0.06796
G1 X114.792 Y105.958 E0.03108
G1 X114.326 Y107.005 E0.06798
G1 X114.088 Y107.472 E0.03107
G1 X113.504 Y108.481 E0.06918
G1 X113.229 Y108.904 E0.02988
G1 X112.556 Y109.831 E0.06800
G1 X112.226 Y110.238 E0.03105
G1 X111.460 Y111.089 E0.06797
G1 X111.089 Y111.459 E0.03107
G1 X110.238 Y112.226 E0.06798
G1 X109.831 Y112.556 E0.03106
G1 X108.903 Y113.229 E0.06800
G1 X108.465 Y113.515 E0.03105
G1 X107.472 Y114.088 E0.06801
G1 X107.005 Y114.325 E0.03105
G1 X105.958 Y114.792 E0.06801
G1 X105.470 Y114.979 E0.03105
G1 X104.380 Y115.333 E0.06796
G1 X103.874 Y115.469 E0.03107
G1 X102.753 Y115.707 E0.06801
G1 X102.236 Y115.789 E0.03105
G1 X101.096 Y115.909 E0.06800
G1 X100.573 Y115.936 E0.03105
G1 X99.427 Y115.936 E0.06800
G1 X98.904 Y115.909 E0.03105
G1 X97.764 Y115.789 E0.06800
G1 X97.247 Y115.707 E0.03105
G1 X96.126 Y115.469 E0.06801
G1 X95.620 Y115.333 E0.03105
G1 X94.531 Y114.979 E0.06798
G1 X94.042 Y114.792 E0.03106
G1 X92.995 Y114.325 E0.06800
G1 X92.528 Y114.088 E0.03105
G1 X91.536 Y113.515 E0.06798
G1 X91.096 Y113.229 E0.03107
G1 X90.169 Y112.556 E0.06800
G1 X89.762 Y112.226 E0.03105
G1 X88.896 Y111.445 E0.06919
G1 X88.541 Y111.089 E0.02985
G1 X87.774 Y110.238 E0.06798
G1 X87.444 Y109.831 E0.03106
G1 X86.770 Y108.903 E0.06800
G1 X86.485 Y108.465 E0.03105
G1 X85.912 Y107.472 E0.06801
G1 X85.675 Y107.005 E0.03105
G1 X85.209 Y105.959 E0.06798
G1 X85.021 Y105.470 E0.03107
G1 X84.667 Y104.380 E0.06798
G1 X84.531 Y103.874 E0.03105
G1 X84.293 Y102.753 E0.06800
G1 X84.211 Y102.236 E0.03106
G1 X84.091 Y101.097 E0.06795
G1 X84.064 Y100.573 E0.03110
G1 X84.064 Y99.427 E0.06799
G1 X84.091 Y98.903 E0.03110
G1 X84.211 Y97.764 E0.06795
G1 X84.293 Y97.247 E0.03105
G1 X84.531 Y96.126 E0.06801
G1 X84.661 Y95.640 E0.02985
G1 X85.021 Y94.530 E0.06918
G1 X85.209 Y94.041 E0.03110
G1 X85.675 Y92.995 E0.06795
G1 X85.912 Y92.528 E0.03105
G1 X86.485 Y91.535 E0.06801
G1 X86.770 Y91.097 E0.03105
G1 X87.444 Y90.169 E0.06800
G1 X87.774 Y89.762 E0.03106
G1 X88.683 Y88.768 E0.07995
G1 X89.062 Y89.062 F7800.000
G1 X90.062 Y88.143 E0.08054 F1060.846
G1 X90.468 Y87.814 E0.03105
G1 X91.356 Y87.169 E0.06505
G1 X91.795 Y86.884 E0.03107
G1 X92.744 Y86.336 E0.06503
G1 X93.211 Y86.098 E0.03108
G1 X94.212 Y85.652 E0.06501
G1 X94.701 Y85.465 E0.03105
G1 X95.744 Y85.126 E0.06504
G1 X96.249 Y84.991 E0.03107
G1 X97.322 Y84.763 E0.06503
G1 X97.839 Y84.681 E0.03105
G1 X98.929 Y84.566 E0.06504
G1 X99.452 Y84.539 E0.03106
G1 X100.548 Y84.539 E0.06503
G1 X101.072 Y84.566 E0.03109 F1060.846
G1 X102.161 Y84.681 E0.06500
G1 X102.679 Y84.763 E0.03108
G1 X103.751 Y84.991 E0.06503
G1 X104.256 Y85.126 E0.03105
G1 X105.299 Y85.465 E0.06503
G1 X105.769 Y85.645 E0.02985
G1 X106.789 Y86.098 E0.06624
G1 X107.256 Y86.336 E0.03105
G1 X108.206 Y86.884 E0.06506
G1 X108.644 Y87.169 E0.03105
G1 X109.532 Y87.814 E0.06504
G1 X109.938 Y88.143 E0.03106
G1 X110.753 Y88.877 E0.06503
G1 X111.123 Y89.247 E0.03107
G1 X111.857 Y90.062 E0.06502
G1 X112.173 Y90.453 E0.02985
G1 X112.831 Y91.356 E0.06624
G1 X113.116 Y91.795 E0.03106
G1 X113.664 Y92.744 E0.06504
G1 X113.902 Y93.211 E0.03107
G1 X114.348 Y94.212 E0.06503
G1 X114.535 Y94.701 E0.03106
G1 X114.874 Y95.744 E0.06502
G1 X115.009 Y96.249 E0.03105
G1 X115.237 Y97.322 E0.06505
G1 X115.319 Y97.839 E0.03105
G1 X115.434 Y98.929 E0.06505
G1 X115.461 Y99.452 E0.03105
G1 X115.461 Y100.548 E0.06505
G1 X115.434 Y101.071 E0.03105
G1 X115.319 Y102.161 E0.06505
G1 X115.237 Y102.678 E0.03105
G1 X115.009 Y103.751 E0.06505
G1 X114.874 Y104.256 E0.03105
G1 X114.535 Y105.299 E0.06501
G1 X114.348 Y105.788 E0.03108
G1 X113.902 Y106.789 E0.06503
G1 X113.664 Y107.256 E0.03107
G1 X113.105 Y108.222 E0.06622
G1 X112.831 Y108.644 E0.02988
G1 X112.186 Y109.532 E0.06504
G1 X111.857 Y109.938 E0.03105
G1 X111.123 Y110.753 E0.06502
G1 X110.753 Y111.123 E0.03107
G1 X109.938 Y111.857 E0.06503
G1 X109.531 Y112.186 E0.03106
G1 X108.644 Y112.831 E0.06504
G1 X108.206 Y113.116 E0.03105
G1 X107.256 Y113.664 E0.06506
G1 X106.789 Y113.902 E0.03105
G1 X105.788 Y114.348 E0.06505
G1 X105.299 Y114.535 E0.03105
G1 X104.257 Y114.874 E0.06501
G1 X103.751 Y115.009 E0.03107
G1 X102.678 Y115.237 E0.06505
G1 X102.161 Y115.319 E0.03105
G1 X101.071 Y115.434 E0.06505
G1 X100.548 Y115.461 E0.03105
G1 X99.452 Y115.461 E0.06505
G1 X98.929 Y115.434 E0.03105
G1 X97.839 Y115.319 E0.06505
G1 X97.322 Y115.237 E0.03105
G1 X96.249 Y115.009 E0.06505
G1 X95.744 Y114.874 E0.03105
G1 X94.701 Y114.535 E0.06502
G1 X94.212 Y114.348 E0.03106
G1 X93.211 Y113.902 E0.06504
G1 X92.744 Y113.664 E0.03105
G1 X91.795 Y113.116 E0.06503
G1 X91.356 Y112.831 E0.03107
G1 X90.469 Y112.186 E0.06504
G1 X90.062 Y111.857 E0.03105
G1 X89.247 Y111.123 E0.06504
G1 X88.877 Y110.753 E0.03105
G1 X88.143 Y109.938 E0.06503
G1 X87.814 Y109.532 E0.03106
G1 X87.169 Y108.644 E0.06505
G1 X86.884 Y108.206 E0.03105
G1 X86.336 Y107.256 E0.06506
G1 X86.098 Y106.789 E0.03105
G1 X85.653 Y105.788 E0.06502
G1 X85.465 Y105.299 E0.03107
G1 X85.126 Y104.256 E0.06503
G1 X84.991 Y103.751 E0.03105
G1 X84.763 Y102.678 E0.06505
G1 X84.681 Y102.161 E0.03105
G1 X84.566 Y101.072 E0.06500
G1 X84.539 Y100.548 E0.03110
G1 X84.539 Y99.452 E0.06504
G1 X84.566 Y98.928 E0.03110
G1 X84.681 Y97.839 E0.06500
G1 X84.763 Y97.322 E0.03105
G1 X84.991 Y96.249 E0.06506
G1 X85.121 Y95.763 E0.02985
G1 X85.465 Y94.701 E0.06622
G1 X85.653 Y94.212 E0.03109
G1 X86.098 Y93.211 E0.06500
G1 X86.336 Y92.744 E0.03105
G1 X86.884 Y91.794 E0.06506
G1 X87.169 Y91.356 E0.03105
G1 X87.814 Y90.468 E0.06505
G1 X88.143 Y90.062 E0.03105
G1 X89.020 Y89.104 E0.07699
G1 F6240
G1 X90.062 Y88.143 E-0.77694
G1 F6240
G1 X90.468 Y87.814 E-0.28684
G1 F6240
G1 X90.721 Y87.630 E-0.17122
G1 E-0.06500 F3600.00000
G1 X102.367 Y102.367 F7800.000
G1 E1.30000 F3600.00000
G1 X101.966 Y102.710 E0.03129 F600.000
G1 X101.503 Y102.990 E0.03208
G1 X101.035 Y103.184 E0.03011
G1 X100.524 Y103.307 E0.03116
G1 X100.000 Y103.348 E0.03116
G1 X99.476 Y103.307 E0.03116
G1 X98.978 Y103.187 E0.03040
G1 X98.554 Y103.028 E0.02688
G1 X98.032 Y102.709 E0.03628
G1 X97.633 Y102.367 E0.03116
G1 X97.290 Y101.966 E0.03129
G1 X97.010 Y101.503 E0.03208
G1 X96.816 Y101.035 E0.03011
G1 X96.693 Y100.524 E0.03116
G1 X96.652 Y100.000 E0.03116
G1 X96.693 Y99.476 E0.03116
G1 X96.816 Y98.965 E0.03116
G1 X97.017 Y98.480 E0.03117
G1 X97.291 Y98.032 E0.03116
G1 X97.633 Y97.633 E0.03116
G1 X98.032 Y97.291 E0.03116
G1 X98.554 Y96.972 E0.03628
G1 X98.978 Y96.813 E0.02688
G1 X99.476 Y96.693 E0.03040
G1 X99.982 Y96.653 E0.03010 F600.000
G1 X100.522 Y96.693 E0.03208
G1 X101.035 Y96.816 E0.03129
G1 X101.520 Y97.017 E0.03117
G1 X101.968 Y97.291 E0.03116
G1 X102.367 Y97.633 E0.03116
G1 X102.709 Y98.032 E0.03116
G1 X103.028 Y98.554 E0.03628
G1 X103.187 Y98.978 E0.02688
G1 X103.305 Y99.470 E0.03004
G1 X103.351 Y99.956 E0.02892
G1 X103.307 Y100.524 E0.03380
G1 X103.187 Y101.022 E0.03040
G1 X103.028 Y101.446 E0.02688
G1 X102.709 Y101.968 E0.03628
G1 X102.406 Y102.322 E0.02761
G1 X102.030 Y102.030 F7800.000
G1 X101.687 Y102.323 E0.02677 F600.000
G1 X101.288 Y102.564 E0.02764
G1 X100.887 Y102.730 E0.02575
G1 X100.449 Y102.835 E0.02672
G1 X100.000 Y102.871 E0.02672
G1 X99.551 Y102.835 E0.02672
G1 X99.117 Y102.731 E0.02645
G1 X98.763 Y102.599 E0.02244
G1 X98.313 Y102.323 E0.03135
G1 X97.970 Y102.030 E0.02672
G1 X97.677 Y101.687 E0.02677
G1 X97.436 Y101.288 E0.02764
G1 X97.270 Y100.887 E0.02575
G1 X97.165 Y100.449 E0.02672
G1 X97.129 Y100.000 E0.02672
G1 X97.165 Y99.551 E0.02672
G1 X97.270 Y99.113 E0.02672
G1 X97.442 Y98.697 E0.02672
G1 X97.677 Y98.313 E0.02672
G1 X97.970 Y97.970 E0.02672
G1 X98.313 Y97.677 E0.02672
G1 X98.763 Y97.401 E0.03135
G1 X99.117 Y97.269 E0.02244
G1 X99.551 Y97.165 E0.02645
G1 X99.984 Y97.130 E0.02575 F600.000
G1 X100.448 Y97.164 E0.02764
G1 X100.887 Y97.270 E0.02677
G1 X101.303 Y97.442 E0.02672
G1 X101.687 Y97.677 E0.02672
G1 X102.030 Y97.970 E0.02672
G1 X102.323 Y98.313 E0.02672
G1 X102.599 Y98.763 E0.03135
G1 X102.731 Y99.117 E0.02244
G1 X102.835 Y99.549 E0.02632
G1 X102.874 Y99.960 E0.02448
G1 X102.835 Y100.449 E0.02913
G1 X102.731 Y100.883 E0.02645
G1 X102.599 Y101.237 E0.02244
G1 X102.323 Y101.687 E0.03135
G1 X102.069 Y101.984 E0.02316
G1 X102.123 Y102.419 F7800.000
G1 X103.003 Y103.003 F7800.000
G1 X102.846 Y103.161 E0.01321 F600.000
G1 X102.500 Y103.441 E0.02641
G1 X102.127 Y103.684 E0.02641
G1 X101.730 Y103.886 E0.02641
G1 X101.314 Y104.045 E0.02641
G1 X100.884 Y104.160 E0.02641
G1 X100.445 Y104.230 E0.02641
G1 X100.000 Y104.253 E0.02641
G1 X99.555 Y104.230 E0.02641
G1 X99.116 Y104.160 E0.02641
G1 X98.686 Y104.045 E0.02641
G1 X98.270 Y103.886 E0.02641
G1 X97.873 Y103.684 E0.02641
G1 X97.500 Y103.441 E0.02641
G1 X97.154 Y103.161 E0.02641
G1 X96.839 Y102.846 E0.02641
G1 X96.559 Y102.500 E0.02641
G1 X96.316 Y102.127 E0.02641
G1 X96.114 Y101.730 E0.02641
G1 X95.955 Y101.314 E0.02641
G1 X95.840 Y100.886 E0.02632
G1 X95.769 Y100.426 E0.02760
G1 X95.747 Y100.000 E0.02530
G1 X95.770 Y99.555 E0.02641
G1 X95.840 Y99.116 E0.02641
G1 X95.955 Y98.686 E0.02641
G1 X96.114 Y98.270 E0.02641
G1 X96.308 Y97.890 E0.02530
G1 X96.560 Y97.499 E0.02760
G1 X96.839 Y97.154 E0.02632
G1 X97.154 Y96.839 E0.02641
G1 X97.500 Y96.559 E0.02641
G1 X97.873 Y96.316 E0.02641
G1 X98.270 Y96.114 E0.02641
G1 X98.686 Y95.955 E0.02641
G1 X99.116 Y95.840 E0.02641
G1 X99.555 Y95.770 E0.02641
G1 X100.000 Y95.747 E0.02641
G1 X100.426 Y95.769 E0.02530
G1 X100.886 Y95.840 E0.02760 F600.000
G1 X101.314 Y95.955 E0.02632
G1 X101.730 Y96.114 E0.02641
G1 X102.127 Y96.316 E0.02641
G1 X102.500 Y96.559 E0.02641
G1 X102.846 Y96.839 E0.02641
G1 X103.161 Y97.154 E0.02641
G1 X103.441 Y97.500 E0.02641
G1 X103.684 Y97.873 E0.02641
G1 X103.886 Y98.270 E0.02641
G1 X104.045 Y98.686 E0.02641
G1 X104.160 Y99.116 E0.02641
G1 X104.230 Y99.555 E0.02641
G1 X104.253 Y100.000 E0.02641
G1 X104.230 Y100.445 E0.02641
G1 X104.160 Y100.884 E0.02641
G1 X104.045 Y101.314 E0.02641
G1 X103.886 Y101.730 E0.02641
G1 X103.684 Y102.127 E0.02641
G1 X103.441 Y102.500 E0.02641
G1 X103.046 Y102.961 E0.03602
G1 X103.340 Y103.340 F7800.000
G1 X103.165 Y103.515 E0.01468 F600.000
G1 X102.780 Y103.826 E0.02937
G1 X102.365 Y104.096 E0.02937
G1 X101.924 Y104.321 E0.02937
G1 X101.462 Y104.498 E0.02937
G1 X100.983 Y104.626 E0.02937
G1 X100.494 Y104.704 E0.02937
G1 X100.000 Y104.730 E0.02937
G1 X99.506 Y104.704 E0.02937
G1 X99.017 Y104.626 E0.02937
G1 X98.538 Y104.498 E0.02937
G1 X98.076 Y104.321 E0.02937
G1 X97.635 Y104.096 E0.02937
G1 X97.220 Y103.826 E0.02937
G1 X96.835 Y103.515 E0.02937
G1 X96.485 Y103.165 E0.02937
G1 X96.174 Y102.780 E0.02937
G1 X95.904 Y102.365 E0.02937
G1 X95.679 Y101.924 E0.02937
G1 X95.502 Y101.462 E0.02937
G1 X95.374 Y100.984 E0.02934
G1 X95.295 Y100.475 E0.03056
G1 X95.270 Y100.000 E0.02820
G1 X95.296 Y99.506 E0.02937
G1 X95.374 Y99.017 E0.02937
G1 X95.502 Y98.538 E0.02937
G1 X95.679 Y98.076 E0.02937
G1 X95.895 Y97.653 E0.02820
G1 X96.174 Y97.220 E0.03056
G1 X96.485 Y96.835 E0.02934
G1 X96.835 Y96.485 E0.02937
G1 X97.220 Y96.174 E0.02937
G1 X97.635 Y95.904 E0.02937
G1 X98.076 Y95.679 E0.02937
G1 X98.538 Y95.502 E0.02937
G1 X99.017 Y95.374 E0.02937
G1 X99.506 Y95.296 E0.02937
G1 X100.000 Y95.270 E0.02937
G1 X100.475 Y95.295 E0.02820
G1 X100.984 Y95.374 E0.03056 F600.000
G1 X101.462 Y95.502 E0.02934
G1 X101.924 Y95.679 E0.02937
G1 X102.365 Y95.904 E0.02937
G1 X102.780 Y96.174 E0.02937
G1 X103.165 Y96.485 E0.02937
G1 X103.515 Y96.835 E0.02937
G1 X103.826 Y97.220 E0.02937
G1 X104.096 Y97.635 E0.02937
G1 X104.321 Y98.076 E0.02937
G1 X104.498 Y98.538 E0.02937
G1 X104.626 Y99.017 E0.02937
G1 X104.704 Y99.506 E0.02937
G1 X104.730 Y100.000 E0.02937
G1 X104.704 Y100.494 E0.02937
G1 X104.626 Y100.983 E0.02937
G1 X104.498 Y101.462 E0.02937
G1 X104.321 Y101.924 E0.02937
G1 X104.096 Y102.365 E0.02937
G1 X103.826 Y102.780 E0.02937
G1 X103.515 Y103.165 E0.02937
G1 X103.382 Y103.297 E0.01112
G1 X103.101 Y103.276 F7800.000
G1 X102.685 Y102.685 F7800.000
G1 X102.234 Y103.075 E0.07552 F600.000
G1 X101.721 Y103.385 E0.07590
G1 X101.174 Y103.615 E0.07513
G1 X100.611 Y103.748 E0.07342
G1 X100.000 Y103.801 E0.07762
G1 X99.422 Y103.754 E0.07342
G1 X98.833 Y103.616 E0.07668
G1 X98.454 Y103.473 E0.05132
G1 X98.102 Y103.287 E0.05037
G1 X97.753 Y103.064 E0.05248
G1 X97.303 Y102.674 E0.07549
G1 X96.914 Y102.217 E0.07605
G1 X96.601 Y101.692 E0.07732
G1 X96.385 Y101.174 E0.07107
G1 X96.252 Y100.610 E0.07342
G1 X96.199 Y100.000 E0.07761
G1 X96.225 Y99.603 E0.05037 F600.000
G1 X96.287 Y99.211 E0.05033
G1 X96.385 Y98.826 E0.05037
G1 X96.624 Y98.261 E0.07762
G1 X96.927 Y97.764 E0.07371
G1 X97.179 Y97.460 E0.05007
G1 X97.460 Y97.179 E0.05033
G1 X97.780 Y96.916 E0.05248
G1 X98.340 Y96.580 E0.08274
G1 X98.826 Y96.386 E0.06624
G1 X99.211 Y96.287 E0.05036
G1 X99.603 Y96.225 E0.05033
G1 X100.000 Y96.200 E0.05036
G1 X100.608 Y96.251 E0.07724
G1 X101.174 Y96.385 E0.07378
G1 X101.544 Y96.532 E0.05037
G1 X101.898 Y96.713 E0.05033
G1 X102.247 Y96.936 E0.05248
G1 X102.697 Y97.326 E0.07549
G1 X103.075 Y97.766 E0.07342
G1 X103.287 Y98.102 E0.05037
G1 X103.473 Y98.454 E0.05037
G1 X103.616 Y98.833 E0.05132
G1 X103.747 Y99.382 E0.07147
G1 X103.801 Y99.970 E0.07491
G1 X103.775 Y100.397 E0.05410
G1 X103.713 Y100.789 E0.05033
G1 X103.616 Y101.167 E0.04943
G1 X103.438 Y101.624 E0.06214
G1 X103.287 Y101.898 E0.03957
G1 X103.075 Y102.234 E0.05037
G1 X102.727 Y102.642 E0.06793
M106 S255
M140 S50 ; wait for bed temperature to be reached
G1 F6240
G1 X102.234 Y103.075 E-0.35947
G1 F6240
G1 X101.721 Y103.385 E-0.32838
G1 F6240
G1 X101.174 Y103.615 E-0.32507
G1 F6240
G1 X100.780 Y103.708 E-0.22208
G1 E-0.06500 F3600.00000
G1 Z0.550 F7800.000
G1 X102.281 Y102.281 F7800.000
G1 E1.30000 F3600.00000
G1 X101.896 Y102.610 E0.02645 F600.000
G1 X101.465 Y102.875 E0.02645
G1 X100.997 Y103.069 E0.02645
G1 X100.505 Y103.187 E0.02645
G1 X100.000 Y103.226 E0.02645
G1 X99.495 Y103.187 E0.02645
G1 X99.003 Y103.069 E0.02645
G1 X98.535 Y102.875 E0.02645
G1 X98.104 Y102.610 E0.02645
G1 X97.719 Y102.281 E0.02645
G1 X97.387 Y101.893 E0.02670
G1 X97.106 Y101.419 E0.02875
