; generated by Slic3r 1.3.1-dev (Build 2d100c4) on 2020-05-15 at 06:23:53

; external perimeters extrusion width = 0.44mm (3.91mm^3/s)
; perimeters extrusion width = 0.56mm (5.65mm^3/s)
; infill extrusion width = 0.50mm (5.02mm^3/s)
; solid infill extrusion width = 0.56mm (5.65mm^3/s)
; top infill extrusion width = 0.56mm (5.65mm^3/s)

M107
M190 S60 ; set bed temperature and wait for it to be reached
M104 S215 ; set temperature
G28 ; home all axes
G92 E0.0 ; reset extruder
; Filament gcode

M109 S215 ; set temperature and wait for it to be reached
G21 ; set units to millimeters
G90 ; use absolute coordinates
M83 ; use relative distances for extrusion
G1 E-1.30000 F3600.00000
G1 Z0.300 F7800.000
G1 X78.911 Y78.541 F7800.000
G1 E1.30000 F3600.00000
M201 X500 Y500
M204 P500 T500
G1 F954.609
G1 X79.762 Y77.774 E0.06799
G1 X80.169 Y77.444 E0.03105
G1 X81.097 Y76.770 E0.06800
G1 X81.535 Y76.485 E0.03105
G1 X82.528 Y75.912 E0.06801
G1 X82.995 Y75.675 E0.03105
G1 X84.042 Y75.208 E0.06800
G1 X84.530 Y75.021 E0.03105
G1 X85.620 Y74.667 E0.06799
G1 X86.126 Y74.531 E0.03105
G1 X87.247 Y74.293 E0.06801
G1 X87.764 Y74.211 E0.03105
G1 X88.904 Y74.091 E0.06800
G1 X89.427 Y74.064 E0.03105
G1 X90.573 Y74.064 E0.06800
G1 X91.096 Y74.091 E0.03105
G1 X92.236 Y74.211 E0.06800
G1 X92.753 Y74.293 E0.03105
G1 X93.874 Y74.531 E0.06801
G1 X94.380 Y74.667 E0.03105
G1 X95.470 Y75.021 E0.06799
G1 X95.958 Y75.208 E0.03105
G1 X97.005 Y75.675 E0.06800
G1 X97.472 Y75.912 E0.03105
G1 X98.465 Y76.485 E0.06801
G1 X98.903 Y76.770 E0.03105
G1 X99.831 Y77.444 E0.06800
G1 X100.238 Y77.774 E0.03105
G1 X101.089 Y78.541 E0.06799
G1 X101.459 Y78.911 E0.03105
G1 X102.226 Y79.762 E0.06800
G1 X102.556 Y80.169 E0.03105
G1 X103.230 Y81.097 E0.06800
G1 X103.515 Y81.535 E0.03105
G1 X104.088 Y82.528 E0.06801
G1 X104.325 Y82.995 E0.03105
G1 X104.792 Y84.042 E0.06801
G1 X104.979 Y84.530 E0.03105
G1 X105.333 Y85.620 E0.06799
G1 X105.469 Y86.126 E0.03105
G1 X105.707 Y87.247 E0.06801
G1 X105.789 Y87.764 E0.03105
G1 X105.909 Y88.904 E0.06800
G1 X105.936 Y89.427 E0.03105
G1 X105.936 Y90.573 E0.06800
G1 X105.909 Y91.096 E0.03105
G1 X105.789 Y92.236 E0.06800
G1 X105.707 Y92.753 E0.03105
G1 X105.469 Y93.874 E0.06801
G1 X105.333 Y94.380 E0.03105
G1 X104.979 Y95.470 E0.06799
G1 X104.792 Y95.958 E0.03105
G1 X104.325 Y97.005 E0.06800
G1 X104.088 Y97.472 E0.03105
G1 X103.515 Y98.465 E0.06801
G1 X103.230 Y98.903 E0.03105
G1 X102.556 Y99.831 E0.06800
G1 X102.226 Y100.238 E0.03105
G1 X101.459 Y101.089 E0.06799
G1 X101.089 Y101.459 E0.03105
G1 X100.238 Y102.226 E0.06799
G1 X99.831 Y102.556 E0.03105
G1 X98.903 Y103.230 E0.06800
G1 X98.465 Y103.515 E0.03105
G1 X97.472 Y104.088 E0.06801
G1 X97.005 Y104.325 E0.03105
G1 X95.958 Y104.792 E0.06801
G1 X95.470 Y104.979 E0.03105
G1 X94.380 Y105.333 E0.06799
G1 X93.874 Y105.469 E0.03105
G1 X92.753 Y105.707 E0.06801
G1 X92.236 Y105.789 E0.03105
G1 X91.096 Y105.909 E0.06800
G1 X90.573 Y105.936 E0.03105
G1 X89.427 Y105.936 E0.06800
G1 X88.904 Y105.909 E0.03105
G1 X87.764 Y105.789 E0.06800
G1 X87.247 Y105.707 E0.03105
G1 X86.126 Y105.469 E0.06801
G1 X85.620 Y105.333 E0.03105
G1 X84.530 Y104.979 E0.06799
G1 X84.042 Y104.792 E0.03105
G1 X82.995 Y104.325 E0.06801
G1 X82.528 Y104.088 E0.03105
G1 X81.535 Y103.515 E0.06801
G1 X81.097 Y103.230 E0.03105
G1 X80.169 Y102.556 E0.06800
G1 X79.762 Y102.226 E0.03105
G1 X78.911 Y101.459 E0.06800
G1 X78.541 Y101.089 E0.03105
G1 X77.774 Y100.238 E0.06799
G1 X77.444 Y99.831 E0.03105
G1 X76.770 Y98.903 E0.06800
G1 X76.485 Y98.465 E0.03105
G1 X75.912 Y97.472 E0.06801
G1 X75.675 Y97.005 E0.03105
G1 X75.208 Y95.958 E0.06800
G1 X75.021 Y95.470 E0.03105
G1 X74.667 Y94.380 E0.06799
G1 X74.531 Y93.874 E0.03105
G1 X74.293 Y92.753 E0.06801
G1 X74.211 Y92.236 E0.03105
G1 X74.091 Y91.096 E0.06800
G1 X74.064 Y90.573 E0.03105
G1 X74.064 Y89.427 E0.06800
G1 X74.091 Y88.904 E0.03105
G1 X74.211 Y87.764 E0.06800
G1 X74.293 Y87.247 E0.03105
G1 X74.531 Y86.126 E0.06801
G1 X74.667 Y85.620 E0.03105
G1 X75.021 Y84.530 E0.06799
G1 X75.208 Y84.042 E0.03105
G1 X75.675 Y82.995 E0.06800
G1 X75.912 Y82.528 E0.03105
G1 X76.485 Y81.535 E0.06801
G1 X76.770 Y81.097 E0.03105
G1 X77.444 Y80.169 E0.06800
G1 X77.774 Y79.762 E0.03105
G1 X78.541 Y78.911 E0.06799
G1 X78.868 Y78.583 E0.02749
G1 X79.247 Y78.877 F7800.000
G1 F954.609
G1 X80.062 Y78.143 E0.06504
G1 X80.468 Y77.814 E0.03105
G1 X81.356 Y77.169 E0.06505
G1 X81.794 Y76.884 E0.03105
G1 X82.744 Y76.336 E0.06506
G1 X83.211 Y76.098 E0.03105
G1 X84.212 Y75.652 E0.06505
G1 X84.701 Y75.465 E0.03105
G1 X85.744 Y75.126 E0.06504
G1 X86.249 Y74.991 E0.03105
G1 X87.322 Y74.763 E0.06505
G1 X87.839 Y74.681 E0.03105
G1 X88.929 Y74.566 E0.06505
G1 X89.452 Y74.539 E0.03105
G1 X90.548 Y74.539 E0.06504
G1 X91.071 Y74.566 E0.03105
G1 X92.161 Y74.681 E0.06504
G1 X92.678 Y74.763 E0.03105
G1 X93.751 Y74.991 E0.06506
G1 X94.256 Y75.126 E0.03105
G1 X95.299 Y75.465 E0.06503
G1 X95.788 Y75.652 E0.03105
G1 X96.789 Y76.098 E0.06505
G1 X97.256 Y76.336 E0.03105
G1 X98.206 Y76.884 E0.06506
G1 X98.644 Y77.169 E0.03105
G1 X99.532 Y77.814 E0.06505
G1 X99.938 Y78.143 E0.03105
G1 X100.753 Y78.877 E0.06504
G1 X101.123 Y79.247 E0.03105
G1 X101.857 Y80.062 E0.06504
G1 X102.186 Y80.468 E0.03105
G1 X102.831 Y81.356 E0.06505
G1 X103.116 Y81.794 E0.03105
G1 X103.664 Y82.744 E0.06505
G1 X103.902 Y83.211 E0.03105
G1 X104.348 Y84.212 E0.06505
G1 X104.535 Y84.701 E0.03105
G1 X104.874 Y85.744 E0.06503
G1 X105.009 Y86.249 E0.03105
G1 X105.237 Y87.322 E0.06505
G1 X105.319 Y87.839 E0.03105
G1 X105.434 Y88.929 E0.06505
G1 X105.461 Y89.452 E0.03105
G1 X105.461 Y90.548 E0.06505
G1 X105.434 Y91.071 E0.03105
G1 X105.319 Y92.161 E0.06505
G1 X105.237 Y92.678 E0.03105
G1 X105.009 Y93.751 E0.06505
G1 X104.874 Y94.256 E0.03105
G1 X104.535 Y95.299 E0.06503
G1 X104.348 Y95.788 E0.03105
G1 X103.902 Y96.789 E0.06505
G1 X103.664 Y97.256 E0.03105
G1 X103.116 Y98.206 E0.06505
G1 X102.831 Y98.644 E0.03105
G1 X102.186 Y99.532 E0.06505
G1 X101.857 Y99.938 E0.03105
G1 X101.123 Y100.753 E0.06504
G1 X100.753 Y101.123 E0.03105
G1 X99.938 Y101.857 E0.06504
G1 X99.532 Y102.186 E0.03105
G1 X98.644 Y102.831 E0.06505
G1 X98.205 Y103.116 E0.03105
G1 X97.256 Y103.664 E0.06505
G1 X96.789 Y103.902 E0.03105
G1 X95.788 Y104.348 E0.06505
G1 X95.299 Y104.535 E0.03105
G1 X94.256 Y104.874 E0.06503
G1 X93.751 Y105.009 E0.03105
G1 X92.678 Y105.237 E0.06505
G1 X92.161 Y105.319 E0.03105
G1 X91.071 Y105.434 E0.06505
G1 X90.548 Y105.461 E0.03105
G1 X89.452 Y105.461 E0.06505
G1 X88.929 Y105.434 E0.03105
G1 X87.839 Y105.319 E0.06505
G1 X87.322 Y105.237 E0.03105
G1 X86.249 Y105.009 E0.06505
G1 X85.744 Y104.874 E0.03105
G1 X84.701 Y104.535 E0.06503
G1 X84.212 Y104.348 E0.03105
G1 X83.211 Y103.902 E0.06505
G1 X82.744 Y103.664 E0.03105
G1 X81.794 Y103.116 E0.06505
G1 X81.356 Y102.831 E0.03105
G1 X80.468 Y102.186 E0.06505
G1 X80.062 Y101.857 E0.03105
G1 X79.247 Y101.123 E0.06504
G1 X78.877 Y100.753 E0.03105
G1 X78.143 Y99.938 E0.06504
G1 X77.814 Y99.532 E0.03105
G1 X77.169 Y98.644 E0.06505
G1 X76.884 Y98.206 E0.03105
G1 X76.336 Y97.256 E0.06506
G1 X76.098 Y96.789 E0.03105
G1 X75.652 Y95.788 E0.06505
G1 X75.465 Y95.299 E0.03105
G1 X75.126 Y94.256 E0.06503
G1 X74.991 Y93.751 E0.03105
G1 X74.763 Y92.678 E0.06506
G1 X74.681 Y92.161 E0.03105
G1 X74.566 Y91.071 E0.06504
G1 X74.539 Y90.548 E0.03105
G1 X74.539 Y89.452 E0.06505
G1 X74.566 Y88.929 E0.03105
G1 X74.681 Y87.839 E0.06504
G1 X74.763 Y87.322 E0.03105
G1 X74.991 Y86.249 E0.06506
G1 X75.126 Y85.744 E0.03105
G1 X75.465 Y84.701 E0.06504
G1 X75.652 Y84.212 E0.03105
G1 X76.098 Y83.211 E0.06505
G1 X76.336 Y82.744 E0.03105
G1 X76.884 Y81.794 E0.06505
G1 X77.169 Y81.356 E0.03105
G1 X77.814 Y80.468 E0.06505
G1 X78.143 Y80.062 E0.03105
G1 X78.877 Y79.247 E0.06504
G1 X79.205 Y78.919 E0.02749
G1 F6240.000
G1 X80.062 Y78.143 E-0.63376
G1 F6240.000
G1 X80.468 Y77.814 E-0.28684
G1 F6240.000
G1 X80.933 Y77.477 E-0.31440
G1 E-0.06500 F3600.00000
G1 X92.367 Y92.367 F7800.000
G1 E1.30000 F3600.00000
G1 F600.000
G1 X91.968 Y92.709 E0.03116
G1 X91.520 Y92.983 E0.03116
G1 X91.035 Y93.184 E0.03117
G1 X90.524 Y93.307 E0.03116
G1 X90.000 Y93.348 E0.03116
G1 X89.476 Y93.307 E0.03116
G1 X88.978 Y93.187 E0.03040
G1 X88.554 Y93.028 E0.02688
G1 X88.032 Y92.709 E0.03628
G1 X87.633 Y92.367 E0.03116
G1 X87.291 Y91.968 E0.03116
G1 X87.017 Y91.520 E0.03116
G1 X86.816 Y91.035 E0.03117
G1 X86.693 Y90.524 E0.03116
G1 X86.652 Y90.000 E0.03116
G1 X86.693 Y89.476 E0.03116
G1 X86.816 Y88.965 E0.03116
G1 X87.017 Y88.480 E0.03117
G1 X87.291 Y88.032 E0.03116
G1 X87.633 Y87.633 E0.03116
G1 X88.032 Y87.291 E0.03116
G1 X88.554 Y86.972 E0.03628
G1 X88.978 Y86.813 E0.02688
G1 X89.476 Y86.693 E0.03040
G1 X90.000 Y86.652 E0.03116
G1 X90.524 Y86.693 E0.03116
G1 X91.035 Y86.816 E0.03116
G1 X91.520 Y87.017 E0.03117
G1 X91.968 Y87.291 E0.03116
G1 X92.367 Y87.633 E0.03116
G1 X92.709 Y88.032 E0.03116
G1 X93.028 Y88.554 E0.03628
G1 X93.187 Y88.978 E0.02688
G1 X93.305 Y89.470 E0.03004
G1 X93.351 Y89.956 E0.02892
G1 X93.307 Y90.524 E0.03380
G1 X93.187 Y91.022 E0.03040
G1 X93.028 Y91.446 E0.02688
G1 X92.709 Y91.968 E0.03628
G1 X92.406 Y92.322 E0.02761
G1 X92.030 Y92.030 F7800.000
G1 F1080.000
G1 X91.687 Y92.323 E0.02672
G1 X91.303 Y92.558 E0.02672
G1 X90.887 Y92.730 E0.02672
G1 X90.449 Y92.835 E0.02672
G1 X90.000 Y92.871 E0.02672
G1 X89.551 Y92.835 E0.02672
G1 X89.117 Y92.731 E0.02645
G1 X88.763 Y92.599 E0.02244
G1 X88.313 Y92.323 E0.03135
G1 X87.970 Y92.030 E0.02672
G1 X87.677 Y91.687 E0.02672
G1 X87.442 Y91.303 E0.02672
G1 X87.270 Y90.887 E0.02672
G1 X87.165 Y90.449 E0.02672
G1 X87.129 Y90.000 E0.02672
G1 X87.165 Y89.551 E0.02672
G1 X87.270 Y89.113 E0.02672
G1 X87.442 Y88.697 E0.02672
G1 X87.677 Y88.313 E0.02672
G1 X87.970 Y87.970 E0.02672
G1 X88.313 Y87.677 E0.02672
G1 X88.763 Y87.401 E0.03135
G1 X89.117 Y87.269 E0.02244
G1 X89.551 Y87.165 E0.02645
G1 X90.000 Y87.129 E0.02672
G1 X90.449 Y87.165 E0.02672
G1 X90.887 Y87.270 E0.02672
G1 X91.303 Y87.442 E0.02672
G1 X91.687 Y87.677 E0.02672
G1 X92.030 Y87.970 E0.02672
G1 X92.323 Y88.313 E0.02672
G1 X92.599 Y88.763 E0.03135
G1 X92.731 Y89.117 E0.02244
G1 X92.835 Y89.549 E0.02632
G1 X92.874 Y89.960 E0.02448
G1 X92.835 Y90.449 E0.02913
G1 X92.731 Y90.883 E0.02645
G1 X92.599 Y91.237 E0.02244
G1 X92.323 Y91.687 E0.03135
G1 X92.069 Y91.984 E0.02316
G1 X92.030 Y92.030 F7800.000
G1 X93.003 Y93.003 F7800.000
G1 F600.000
G1 X92.846 Y93.161 E0.01321
G1 X92.500 Y93.441 E0.02641
G1 X92.127 Y93.684 E0.02641
G1 X91.730 Y93.886 E0.02641
G1 X91.314 Y94.045 E0.02641
G1 X90.884 Y94.160 E0.02641
G1 X90.445 Y94.230 E0.02641
G1 X90.000 Y94.253 E0.02641
G1 X89.555 Y94.230 E0.02641
G1 X89.116 Y94.160 E0.02641
G1 X88.686 Y94.045 E0.02641
G1 X88.270 Y93.886 E0.02641
G1 X87.873 Y93.684 E0.02641
G1 X87.500 Y93.441 E0.02641
G1 X87.154 Y93.161 E0.02641
G1 X86.839 Y92.846 E0.02641
G1 X86.559 Y92.500 E0.02641
G1 X86.316 Y92.127 E0.02641
G1 X86.114 Y91.730 E0.02641
G1 X85.955 Y91.314 E0.02641
G1 X85.840 Y90.884 E0.02641
G1 X85.770 Y90.445 E0.02641
G1 X85.747 Y90.000 E0.02641
G1 X85.770 Y89.555 E0.02641
G1 X85.840 Y89.116 E0.02641
G1 X85.955 Y88.686 E0.02641
G1 X86.114 Y88.270 E0.02641
G1 X86.316 Y87.873 E0.02641
G1 X86.559 Y87.500 E0.02641
G1 X86.839 Y87.154 E0.02641
G1 X87.154 Y86.839 E0.02641
G1 X87.500 Y86.559 E0.02641
G1 X87.873 Y86.316 E0.02641
G1 X88.270 Y86.114 E0.02641
G1 X88.686 Y85.955 E0.02641
G1 X89.116 Y85.840 E0.02641
G1 X89.555 Y85.770 E0.02641
G1 X90.000 Y85.747 E0.02641
G1 X90.445 Y85.770 E0.02641
G1 X90.884 Y85.840 E0.02641
G1 X91.314 Y85.955 E0.02641
G1 X91.730 Y86.114 E0.02641
G1 X92.127 Y86.316 E0.02641
G1 X92.500 Y86.559 E0.02641
G1 X92.846 Y86.839 E0.02641
G1 X93.161 Y87.154 E0.02641
G1 X93.441 Y87.500 E0.02641
G1 X93.684 Y87.873 E0.02641
G1 X93.886 Y88.270 E0.02641
G1 X94.045 Y88.686 E0.02641
G1 X94.160 Y89.116 E0.02641
G1 X94.230 Y89.555 E0.02641
G1 X94.253 Y90.000 E0.02641
G1 X94.230 Y90.445 E0.02641
G1 X94.160 Y90.884 E0.02641
G1 X94.045 Y91.314 E0.02641
G1 X93.886 Y91.730 E0.02641
G1 X93.684 Y92.127 E0.02641
G1 X93.441 Y92.500 E0.02641
G1 X93.046 Y92.961 E0.03602
G1 X93.340 Y93.340 F7800.000
G1 F1080.000
G1 X93.165 Y93.515 E0.01468
G1 X92.780 Y93.826 E0.02937
G1 X92.365 Y94.096 E0.02937
G1 X91.924 Y94.321 E0.02937
G1 X91.462 Y94.498 E0.02937
G1 X90.983 Y94.626 E0.02937
G1 X90.494 Y94.704 E0.02937
G1 X90.000 Y94.730 E0.02937
G1 X89.506 Y94.704 E0.02937
G1 X89.017 Y94.626 E0.02937
G1 X88.538 Y94.498 E0.02937
G1 X88.076 Y94.321 E0.02937
G1 X87.635 Y94.096 E0.02937
G1 X87.220 Y93.826 E0.02937
G1 X86.835 Y93.515 E0.02937
G1 X86.485 Y93.165 E0.02937
G1 X86.174 Y92.780 E0.02937
G1 X85.904 Y92.365 E0.02937
G1 X85.679 Y91.924 E0.02937
G1 X85.502 Y91.462 E0.02937
G1 X85.374 Y90.983 E0.02937
G1 X85.296 Y90.494 E0.02937
G1 X85.270 Y90.000 E0.02937
G1 X85.296 Y89.506 E0.02937
G1 X85.374 Y89.017 E0.02937
G1 X85.502 Y88.538 E0.02937
G1 X85.679 Y88.076 E0.02937
G1 X85.904 Y87.635 E0.02937
G1 X86.174 Y87.220 E0.02937
G1 X86.485 Y86.835 E0.02937
G1 X86.835 Y86.485 E0.02937
G1 X87.220 Y86.174 E0.02937
G1 X87.635 Y85.904 E0.02937
G1 X88.076 Y85.679 E0.02937
G1 X88.538 Y85.502 E0.02937
G1 X89.017 Y85.374 E0.02937
G1 X89.506 Y85.296 E0.02937
G1 X90.000 Y85.270 E0.02937
G1 X90.494 Y85.296 E0.02937
G1 X90.983 Y85.374 E0.02937
G1 X91.462 Y85.502 E0.02937
G1 X91.924 Y85.679 E0.02937
G1 X92.365 Y85.904 E0.02937
G1 X92.780 Y86.174 E0.02937
G1 X93.165 Y86.485 E0.02937
G1 X93.515 Y86.835 E0.02937
G1 X93.826 Y87.220 E0.02937
G1 X94.096 Y87.635 E0.02937
G1 X94.321 Y88.076 E0.02937
G1 X94.498 Y88.538 E0.02937
G1 X94.626 Y89.017 E0.02937
G1 X94.704 Y89.506 E0.02937
G1 X94.730 Y90.000 E0.02937
G1 X94.704 Y90.494 E0.02937
G1 X94.626 Y90.983 E0.02937
G1 X94.498 Y91.462 E0.02937
G1 X94.321 Y91.924 E0.02937
G1 X94.096 Y92.365 E0.02937
G1 X93.826 Y92.780 E0.02937
G1 X93.515 Y93.165 E0.02937
G1 X93.382 Y93.297 E0.01112
G1 X93.099 Y93.281 F7800.000
G1 X92.685 Y92.685 F7800.000
G1 F600.000
G1 X92.234 Y93.075 E0.02707
G1 X91.898 Y93.287 E0.01805
G1 X91.544 Y93.468 E0.01804
G1 X91.174 Y93.615 E0.01806
G1 X90.789 Y93.713 E0.01806
G1 X90.397 Y93.775 E0.01804
G1 X90.000 Y93.801 E0.01806
G1 X89.603 Y93.775 E0.01805
G1 X89.211 Y93.713 E0.01804
G1 X88.833 Y93.616 E0.01772
G1 X88.454 Y93.473 E0.01840
G1 X88.102 Y93.287 E0.01806
G1 X87.766 Y93.075 E0.01806
G1 X87.326 Y92.697 E0.02632
G1 X86.925 Y92.234 E0.02783
G1 X86.713 Y91.898 E0.01805
G1 X86.532 Y91.544 E0.01804
G1 X86.385 Y91.174 E0.01806
G1 X86.287 Y90.789 E0.01805
G1 X86.225 Y90.397 E0.01804
G1 X86.199 Y90.000 E0.01806
G1 X86.225 Y89.603 E0.01806
G1 X86.287 Y89.211 E0.01804
G1 X86.385 Y88.826 E0.01805
G1 X86.532 Y88.456 E0.01806
G1 X86.713 Y88.102 E0.01804
G1 X86.925 Y87.766 E0.01806
G1 X87.303 Y87.326 E0.02632
G1 X87.766 Y86.925 E0.02783
G1 X88.102 Y86.713 E0.01805
G1 X88.454 Y86.527 E0.01806
G1 X88.833 Y86.384 E0.01840
G1 X89.211 Y86.287 E0.01772
G1 X89.603 Y86.225 E0.01804
G1 X90.000 Y86.199 E0.01806
G1 X90.397 Y86.225 E0.01806
G1 X90.789 Y86.287 E0.01804
G1 X91.174 Y86.385 E0.01805
G1 X91.544 Y86.532 E0.01806
G1 X91.898 Y86.713 E0.01804
G1 X92.234 Y86.925 E0.01805
G1 X92.674 Y87.303 E0.02632
G1 X93.075 Y87.766 E0.02783
G1 X93.287 Y88.102 E0.01806
G1 X93.473 Y88.454 E0.01806
G1 X93.616 Y88.833 E0.01840
G1 X93.713 Y89.211 E0.01772
G1 X93.776 Y89.603 E0.01804
G1 X93.801 Y89.970 E0.01672
G1 X93.775 Y90.397 E0.01940
G1 X93.713 Y90.789 E0.01804
G1 X93.616 Y91.167 E0.01772
G1 X93.473 Y91.546 E0.01840
G1 X93.287 Y91.898 E0.01806
G1 X93.075 Y92.234 E0.01805
G1 X92.727 Y92.642 E0.02435
M106 S255
M140 S50 ; set bed temperature
G1 F6240.000
G1 X92.674 Y92.697 E-0.04199
G1 F6240.000
G1 X92.540 Y92.821 E-0.09984
G1 F6240.000
G1 X92.247 Y93.064 E-0.20870
G1 F6240.000
G1 X92.234 Y93.075 E-0.00922
G1 F6240.000
G1 X92.220 Y93.084 E-0.00921
G1 F6240.000
G1 X91.898 Y93.287 E-0.20871
G1 F6240.000
G1 X91.739 Y93.376 E-0.09983
G1 F6240.000
G1 X91.709 Y93.391 E-0.01823
G1 F6240.000
G1 X91.544 Y93.468 E-0.09984
G1 F6240.000
G1 X91.190 Y93.609 E-0.20871
G1 F6240.000
G1 X91.174 Y93.615 E-0.00921
G1 F6240.000
G1 X91.158 Y93.619 E-0.00922
G1 F6240.000
G1 X90.789 Y93.713 E-0.20870
G1 F6240.000
G1 X90.783 Y93.714 E-0.00358
G1 E-0.06500 F3600.00000
