; generated by Slic3r 1.2.9 on 2020-05-14 at 22:52:29

; external perimeters extrusion width = 0.40mm
; perimeters extrusion width = 0.56mm
; infill extrusion width = 0.56mm
; solid infill extrusion width = 0.56mm
; top infill extrusion width = 0.56mm

M107
M190 S60 ; set bed temperature
M104 S215 ; set temperature
G28 ; home all axes
G92 E0.0 ; reset extruder
M109 S215 ; wait for temperature to be reached
G21 ; set units to millimeters
G90 ; use absolute coordinates
M83 ; use relative distances for extrusion
G1 E-1.30000 F3600.00000
G1 Z0.300 F7800.000
G1 X72.105 Y67.650 F7800.000
G1 E1.30000 F3600.00000
M204 S500
G1 X73.046 Y66.647 E0.08162 F2160.000
G1 X73.230 Y66.475 E0.01490
G1 X74.284 Y65.602 E0.08121
G1 X74.487 Y65.454 E0.01491
G1 X75.653 Y64.715 E0.08187
G1 X75.873 Y64.594 E0.01490
G1 X77.120 Y64.007 E0.08180
G1 X77.354 Y63.914 E0.01493
G1 X78.656 Y63.491 E0.08119
G1 X78.899 Y63.429 E0.01490
G1 X80.252 Y63.171 E0.08168
G1 X80.502 Y63.139 E0.01495
G1 X81.874 Y63.053 E0.08158
G1 X118.126 Y63.053 E2.15049
G1 X119.499 Y63.139 E0.08163
G1 X119.748 Y63.171 E0.01490 F2160.000
G1 X121.101 Y63.429 E0.08167
G1 X121.344 Y63.491 E0.01490
G1 X122.646 Y63.914 E0.08124
G1 X122.880 Y64.007 E0.01495
G1 X124.127 Y64.594 E0.08174
G1 X124.347 Y64.715 E0.01490
G1 X125.513 Y65.454 E0.08187
G1 X125.717 Y65.603 E0.01501
G1 X126.770 Y66.475 E0.08111
G1 X126.954 Y66.647 E0.01490
G1 X127.895 Y67.650 E0.08161
G1 X128.056 Y67.844 E0.01493
G1 X128.865 Y68.957 E0.08161
G1 X129.000 Y69.169 E0.01494
G1 X129.661 Y70.372 E0.08142
G1 X129.768 Y70.600 E0.01493
G1 X130.275 Y71.879 E0.08164
G1 X130.352 Y72.118 E0.01490
G1 X130.695 Y73.453 E0.08177
G1 X130.742 Y73.700 E0.01490
G1 X130.914 Y75.060 E0.08135
G1 X130.951 Y76.000 E0.05578
G1 X130.951 Y124.000 E2.84745
G1 X130.914 Y124.940 E0.05578
G1 X130.742 Y126.300 E0.08135
G1 X130.695 Y126.547 E0.01490
G1 X130.348 Y127.895 E0.08257
G1 X130.275 Y128.121 E0.01409
G1 X129.768 Y129.400 E0.08164
G1 X129.661 Y129.628 E0.01493
G1 X129.000 Y130.831 E0.08142
G1 X128.865 Y131.043 E0.01495
G1 X128.056 Y132.156 E0.08161
G1 X127.895 Y132.350 E0.01494
G1 X126.954 Y133.353 E0.08160
G1 X126.771 Y133.525 E0.01490
G1 X125.716 Y134.398 E0.08123
G1 X125.513 Y134.546 E0.01490
G1 X124.347 Y135.285 E0.08187
G1 X124.127 Y135.406 E0.01490
G1 X122.881 Y135.993 E0.08170
G1 X122.646 Y136.086 E0.01500
G1 X121.344 Y136.509 E0.08123
G1 X121.101 Y136.571 E0.01490
G1 X119.748 Y136.829 E0.08167
G1 X119.499 Y136.861 E0.01490
G1 X118.126 Y136.947 E0.08163
G1 X81.874 Y136.947 E2.15049
G1 X80.502 Y136.861 E0.08157
G1 X80.252 Y136.829 E0.01497
G1 X78.901 Y136.572 E0.08156
G1 X78.656 Y136.509 E0.01501
G1 X77.354 Y136.086 E0.08122
G1 X77.120 Y135.993 E0.01490
G1 X75.873 Y135.406 E0.08179
G1 X75.653 Y135.285 E0.01491
G1 X74.488 Y134.546 E0.08185
G1 X74.284 Y134.398 E0.01493
G1 X73.230 Y133.525 E0.08117
G1 X73.046 Y133.353 E0.01493
G1 X72.105 Y132.350 E0.08161
G1 X71.944 Y132.157 E0.01490
G1 X71.135 Y131.043 E0.08165
G1 X71.001 Y130.831 E0.01490
G1 X70.339 Y129.628 E0.08148
G1 X70.232 Y129.400 E0.01491
G1 X69.721 Y128.108 E0.08247
G1 X69.648 Y127.882 E0.01408
G1 X69.305 Y126.548 E0.08170
G1 X69.258 Y126.300 E0.01496
G1 X69.086 Y124.940 E0.08134
G1 X69.070 Y124.689 E0.01492
G1 X69.049 Y124.000 E0.04088
G1 X69.049 Y76.000 E2.84745
G1 X69.086 Y75.059 E0.05584
G1 X69.258 Y73.700 E0.08130
G1 X69.305 Y73.453 E0.01492
G1 X69.648 Y72.118 E0.08174
G1 X69.725 Y71.879 E0.01492
G1 X70.232 Y70.600 E0.08162
G1 X70.339 Y70.372 E0.01491
G1 X71.001 Y69.169 E0.08147
G1 X71.135 Y68.957 E0.01490
G1 X72.066 Y67.696 E0.09296
G1 X72.471 Y67.953 F7800.000
G1 X73.372 Y66.994 E0.07807 F2160.000
G1 X73.555 Y66.822 E0.01490
G1 X74.564 Y65.987 E0.07768
G1 X74.767 Y65.839 E0.01491
G1 X75.882 Y65.131 E0.07831
G1 X76.102 Y65.010 E0.01490
G1 X77.295 Y64.449 E0.07824
G1 X77.529 Y64.356 E0.01493
G1 X78.775 Y63.952 E0.07767
G1 X79.018 Y63.889 E0.01490
G1 X80.311 Y63.642 E0.07813
G1 X80.562 Y63.611 E0.01495
G1 X81.874 Y63.528 E0.07804
G1 X118.126 Y63.528 E2.15049
G1 X119.439 Y63.611 E0.07808
G1 X119.688 Y63.642 E0.01490 F2160.000
G1 X120.982 Y63.889 E0.07813
G1 X121.225 Y63.952 E0.01490
G1 X122.471 Y64.357 E0.07771
G1 X122.705 Y64.449 E0.01495
G1 X123.898 Y65.010 E0.07819
G1 X124.118 Y65.131 E0.01490
G1 X125.233 Y65.839 E0.07831
G1 X125.437 Y65.988 E0.01500
G1 X126.445 Y66.822 E0.07759
G1 X126.628 Y66.994 E0.01490
G1 X127.529 Y67.953 E0.07807
G1 X127.689 Y68.147 E0.01493
G1 X128.463 Y69.211 E0.07807
G1 X128.598 Y69.424 E0.01494
G1 X129.230 Y70.575 E0.07788
G1 X129.338 Y70.802 E0.01493
G1 X129.822 Y72.026 E0.07810
G1 X129.900 Y72.265 E0.01490
G1 X130.228 Y73.542 E0.07822
G1 X130.275 Y73.789 E0.01490
G1 X130.439 Y75.090 E0.07782
G1 X130.476 Y76.000 E0.05400
G1 X130.476 Y124.000 E2.84745
G1 X130.439 Y124.910 E0.05400
G1 X130.275 Y126.211 E0.07782
G1 X130.228 Y126.458 E0.01490
G1 X129.900 Y127.734 E0.07816
G1 X129.822 Y127.974 E0.01495
G1 X129.338 Y129.198 E0.07809
G1 X129.230 Y129.425 E0.01493
G1 X128.598 Y130.576 E0.07788
G1 X128.463 Y130.789 E0.01495
G1 X127.689 Y131.853 E0.07806
G1 X127.529 Y132.047 E0.01494
G1 X126.628 Y133.006 E0.07806
G1 X126.445 Y133.178 E0.01490
G1 X125.436 Y134.013 E0.07770
G1 X125.233 Y134.161 E0.01490
G1 X124.118 Y134.869 E0.07832
G1 X123.898 Y134.990 E0.01490
G1 X122.706 Y135.550 E0.07815
G1 X122.471 Y135.643 E0.01499
G1 X121.225 Y136.048 E0.07770
G1 X120.982 Y136.111 E0.01490
G1 X119.689 Y136.358 E0.07812
G1 X119.439 Y136.389 E0.01490
G1 X118.126 Y136.472 E0.07809
G1 X81.874 Y136.472 E2.15049
G1 X80.562 Y136.389 E0.07803
G1 X80.311 Y136.358 E0.01496
G1 X79.020 Y136.111 E0.07802
G1 X78.775 Y136.048 E0.01501
G1 X77.529 Y135.643 E0.07769
G1 X77.295 Y135.551 E0.01490
G1 X76.102 Y134.990 E0.07823
G1 X75.882 Y134.869 E0.01491
G1 X74.767 Y134.161 E0.07830
G1 X74.564 Y134.013 E0.01493
G1 X73.555 Y133.179 E0.07765
G1 X73.372 Y133.006 E0.01493
G1 X72.471 Y132.047 E0.07807
G1 X72.311 Y131.854 E0.01490
G1 X71.537 Y130.789 E0.07810
G1 X71.402 Y130.576 E0.01490
G1 X70.769 Y129.425 E0.07794
G1 X70.662 Y129.198 E0.01491
G1 X70.173 Y127.961 E0.07892
G1 X70.100 Y127.735 E0.01408
G1 X69.772 Y126.459 E0.07815
G1 X69.725 Y126.211 E0.01496
G1 X69.561 Y124.910 E0.07780
G1 X69.545 Y124.659 E0.01492
G1 X69.524 Y124.000 E0.03911
G1 X69.524 Y76.000 E2.84745
G1 X69.561 Y75.089 E0.05406
G1 X69.725 Y73.789 E0.07777
G1 X69.772 Y73.542 E0.01491
G1 X70.100 Y72.265 E0.07819
G1 X70.178 Y72.026 E0.01492
G1 X70.662 Y70.802 E0.07808
G1 X70.769 Y70.575 E0.01491
G1 X71.402 Y69.424 E0.07793
G1 X71.537 Y69.211 E0.01490
G1 X72.433 Y67.999 E0.08941
G1 F6240
G1 X73.372 Y66.994 E-0.75416
G1 F6240
G1 X73.555 Y66.822 E-0.13765
G1 F6240
G1 X74.038 Y66.422 E-0.34319
G1 E-0.06500 F3600.00000
G1 X109.773 Y125.113 F7800.000
G1 E1.30000 F3600.00000
G1 X104.070 Y125.113 E0.33832 F1080.000
G1 X101.548 Y122.591 E0.21159
G1 X101.548 Y116.888 E0.33832
G1 X109.773 Y116.888 E0.48795
G1 X109.773 Y125.053 E0.48436
G1 X109.773 Y125.513 F7800.000
G1 F6240
G1 X107.520 Y125.076 E-1.23500
G1 E-0.06500 F3600.00000
G1 X85.829 Y122.294 F7800.000
G1 E1.30000 F3600.00000
G1 X85.773 Y122.584 E0.01749 F1080.000
G1 X85.682 Y122.864 E0.01748
G1 X85.557 Y123.131 E0.01748
G1 X85.399 Y123.380 E0.01749
G1 X85.211 Y123.607 E0.01749
G1 X84.996 Y123.809 E0.01749
G1 X84.758 Y123.982 E0.01748
G1 X84.499 Y124.124 E0.01748
G1 X84.225 Y124.232 E0.01748
G1 X83.940 Y124.306 E0.01750
G1 X83.647 Y124.342 E0.01748
G1 X83.353 Y124.342 E0.01747
G1 X83.060 Y124.306 E0.01749
G1 X82.775 Y124.232 E0.01750
G1 X82.501 Y124.124 E0.01748
G1 X82.242 Y123.982 E0.01748
G1 X82.004 Y123.808 E0.01749
G1 X81.789 Y123.607 E0.01748
G1 X81.601 Y123.380 E0.01748
G1 X81.443 Y123.131 E0.01750
G1 X81.311 Y122.849 E0.01848
G1 X81.176 Y122.360 E0.03010
G1 X81.153 Y122.000 E0.02138
G1 X81.171 Y121.706 E0.01749
G1 X81.227 Y121.416 E0.01749
G1 X81.318 Y121.136 E0.01748
G1 X81.443 Y120.869 E0.01748
G1 X81.601 Y120.620 E0.01750
G1 X81.789 Y120.393 E0.01748
G1 X82.004 Y120.192 E0.01748
G1 X82.242 Y120.018 E0.01749
G1 X82.501 Y119.876 E0.01748
G1 X82.775 Y119.768 E0.01748
G1 X83.060 Y119.694 E0.01750
G1 X83.353 Y119.658 E0.01749
G1 X83.647 Y119.658 E0.01747 F1080.000
G1 X83.940 Y119.694 E0.01749
G1 X84.225 Y119.768 E0.01750
G1 X84.499 Y119.876 E0.01748
G1 X84.758 Y120.018 E0.01748
G1 X84.996 Y120.191 E0.01748
G1 X85.211 Y120.393 E0.01749
G1 X85.399 Y120.620 E0.01749
G1 X85.557 Y120.869 E0.01749
G1 X85.682 Y121.136 E0.01748
G1 X85.773 Y121.416 E0.01748
G1 X85.829 Y121.706 E0.01749
G1 X85.847 Y122.000 E0.01749
G1 X85.832 Y122.234 E0.01393
G1 X85.356 Y122.234 F7800.000
G1 X85.312 Y122.465 E0.01394 F1080.000
G1 X85.239 Y122.689 E0.01393
G1 X85.139 Y122.901 E0.01393
G1 X85.013 Y123.099 E0.01394
G1 X84.864 Y123.280 E0.01393
G1 X84.692 Y123.441 E0.01394
G1 X84.502 Y123.579 E0.01394
G1 X84.296 Y123.692 E0.01393
G1 X84.078 Y123.779 E0.01393
G1 X83.850 Y123.837 E0.01394
G1 X83.617 Y123.867 E0.01393
G1 X83.383 Y123.867 E0.01393
G1 X83.150 Y123.837 E0.01393
G1 X82.922 Y123.779 E0.01394
G1 X82.704 Y123.692 E0.01393
G1 X82.498 Y123.579 E0.01393
G1 X82.308 Y123.441 E0.01394
G1 X82.136 Y123.281 E0.01393
G1 X81.987 Y123.100 E0.01393
G1 X81.861 Y122.901 E0.01394
G1 X81.758 Y122.683 E0.01429
G1 X81.647 Y122.281 E0.02477
G1 X81.629 Y122.000 E0.01668
G1 X81.644 Y121.766 E0.01393
G1 X81.688 Y121.535 E0.01394
G1 X81.761 Y121.311 E0.01393
G1 X81.861 Y121.099 E0.01393
G1 X81.987 Y120.900 E0.01394
G1 X82.136 Y120.719 E0.01393
G1 X82.308 Y120.559 E0.01393
G1 X82.498 Y120.421 E0.01394
G1 X82.704 Y120.308 E0.01393
G1 X82.922 Y120.221 E0.01393
G1 X83.150 Y120.163 E0.01394
G1 X83.383 Y120.133 E0.01393
G1 X83.617 Y120.133 E0.01393 F1080.000
G1 X83.850 Y120.163 E0.01393
G1 X84.078 Y120.221 E0.01394
G1 X84.296 Y120.308 E0.01393
G1 X84.502 Y120.421 E0.01393
G1 X84.692 Y120.559 E0.01394
G1 X84.864 Y120.719 E0.01394
G1 X85.013 Y120.901 E0.01393
G1 X85.139 Y121.099 E0.01394
G1 X85.239 Y121.311 E0.01393
G1 X85.312 Y121.535 E0.01393
G1 X85.356 Y121.766 E0.01394
G1 X85.371 Y122.000 E0.01393
G1 X85.360 Y122.175 E0.01038
G1 X85.540 Y122.380 F7800.000
G1 X91.240 Y123.870 F7800.000
G1 X91.240 Y122.988 E0.05236 F1080.000
G1 X90.831 Y122.909 E0.02474
G1 X90.396 Y122.682 E0.02909
G1 X90.126 Y122.407 E0.02284
G1 X89.943 Y122.101 E0.02119
G1 X89.828 Y121.770 E0.02078
G1 X89.766 Y121.415 E0.02138
G1 X89.755 Y120.848 E0.03361
G1 X89.857 Y120.284 E0.03402
G1 X90.025 Y119.904 E0.02467
G1 X90.264 Y119.583 E0.02372
G1 X90.549 Y119.343 E0.02214
G1 X90.754 Y119.223 E0.01406
G1 X91.108 Y119.087 E0.02250
G1 X91.593 Y119.023 E0.02902
G1 X92.023 Y119.037 E0.02552
G1 X92.292 Y119.074 E0.01610
G1 X94.039 Y119.074 E0.10365
G1 X94.313 Y119.041 E0.01636
G1 X94.802 Y119.067 E0.02905
G1 X94.802 Y119.029 E0.00226
G1 X96.898 Y119.029 E0.12434
G1 X96.898 Y119.079 E0.00298
G1 X100.773 Y119.079 E0.22986
G1 X100.773 Y122.927 E0.22828
G1 X99.201 Y122.927 E0.09324
G1 X98.997 Y122.981 E0.01250
G1 X98.733 Y122.996 E0.01568
G1 X98.359 Y122.953 E0.02234
G1 X98.131 Y122.858 E0.01465
G1 X97.865 Y122.951 E0.01674
G1 X97.493 Y122.996 E0.02220
G1 X97.180 Y122.976 E0.01860
G1 X96.898 Y122.911 E0.01719
G1 X96.898 Y123.885 E0.05780
G1 X94.802 Y123.885 E0.12434
G1 X94.802 Y122.891 E0.05899
G1 X94.306 Y122.960 E0.02969
G1 X93.953 Y122.975 E0.02096
G1 X93.624 Y122.954 E0.01959
G1 X93.344 Y122.886 E0.01706
G1 X93.344 Y123.870 E0.05836
G1 X91.300 Y123.870 E0.12125
G1 X91.716 Y123.395 F7800.000
G1 X91.716 Y122.485 E0.05397 F1080.000
G1 X91.246 Y122.504 E0.02790
G1 X90.989 Y122.455 E0.01552
G1 X90.683 Y122.295 E0.02051
G1 X90.505 Y122.115 E0.01500
G1 X90.377 Y121.899 E0.01490
G1 X90.290 Y121.650 E0.01561
G1 X90.241 Y121.369 E0.01696
G1 X90.231 Y120.886 E0.02862
G1 X90.315 Y120.425 E0.02785
G1 X90.438 Y120.145 E0.01813
G1 X90.613 Y119.912 E0.01727
G1 X90.825 Y119.732 E0.01649
G1 X90.961 Y119.653 E0.00933
G1 X91.226 Y119.551 E0.01686
G1 X91.617 Y119.499 E0.02338
G1 X91.982 Y119.511 E0.02171
G1 X92.279 Y119.552 E0.01775
G1 X92.748 Y119.691 E0.02902
G1 X92.711 Y119.550 E0.00866
G1 X93.761 Y119.550 E0.06229
G1 X93.795 Y119.662 E0.00695
G1 X94.067 Y119.550 E0.01748
G1 X94.329 Y119.518 E0.01564
G1 X94.575 Y119.531 E0.01459
G1 X94.768 Y119.582 E0.01183
G1 X94.940 Y119.666 E0.01138
G1 X95.278 Y119.930 E0.02542
G1 X95.278 Y119.504 E0.02524
G1 X96.422 Y119.504 E0.06791
G1 X96.422 Y119.555 E0.00298
G1 X100.297 Y119.555 E0.22986
G1 X100.297 Y122.451 E0.17185
G1 X99.335 Y122.451 E0.05707
G1 X99.324 Y122.403 E0.00295
G1 X98.923 Y122.509 E0.02463
G1 X98.747 Y122.518 E0.01045
G1 X98.480 Y122.488 E0.01592
G1 X98.246 Y122.390 E0.01507
G1 X98.127 Y122.296 E0.00901
G1 X97.911 Y122.431 E0.01511
G1 X97.756 Y122.485 E0.00968
G1 X97.480 Y122.519 E0.01655
G1 X97.250 Y122.504 E0.01367
G1 X97.041 Y122.456 E0.01270
G1 X96.849 Y122.357 E0.01280
G1 X96.692 Y122.203 E0.01302
G1 X96.635 Y122.102 E0.00691
G1 X96.422 Y122.158 E0.01306
G1 X96.422 Y123.409 E0.07426
G1 X95.278 Y123.410 E0.06791
G1 X95.278 Y122.212 E0.07103
G1 X94.824 Y122.380 E0.02869
G1 X94.554 Y122.445 E0.01646
G1 X94.263 Y122.485 E0.01745
G1 X93.958 Y122.499 E0.01808
G1 X93.696 Y122.482 E0.01563
G1 X93.460 Y122.425 E0.01438
G1 X93.255 Y122.327 E0.01347
G1 X92.869 Y122.000 E0.03001
G1 X92.869 Y123.395 E0.08272
G1 X91.776 Y123.395 E0.06482
G1 X91.316 Y123.395 F7800.000
G1 F6240
G1 X91.716 Y122.485 E-0.49973
G1 F6240
G1 X91.246 Y122.504 E-0.25775
G1 F6240
G1 X90.989 Y122.455 E-0.14339
G1 F6240
G1 X90.683 Y122.295 E-0.18952
G1 F6240
G1 X90.505 Y122.115 E-0.13859
G1 F6240
G1 X90.500 Y122.105 E-0.00602
G1 E-0.06500 F3600.00000
G1 X84.758 Y112.482 F7800.000
G1 E1.30000 F3600.00000
G1 X84.499 Y112.624 E0.01748 F1080.000
G1 X84.225 Y112.732 E0.01748
G1 X83.940 Y112.806 E0.01750
G1 X83.647 Y112.842 E0.01749
G1 X83.353 Y112.842 E0.01747
G1 X83.060 Y112.806 E0.01748
G1 X82.775 Y112.732 E0.01750
G1 X82.501 Y112.624 E0.01748
G1 X82.242 Y112.482 E0.01748
G1 X82.004 Y112.308 E0.01749
G1 X81.789 Y112.107 E0.01748
G1 X81.601 Y111.880 E0.01748
G1 X81.443 Y111.631 E0.01750
G1 X81.318 Y111.364 E0.01748
G1 X81.227 Y111.084 E0.01748
G1 X81.171 Y110.794 E0.01749
G1 X81.153 Y110.500 E0.01749
G1 X81.171 Y110.206 E0.01749
G1 X81.227 Y109.916 E0.01749
G1 X81.318 Y109.636 E0.01748
G1 X81.443 Y109.369 E0.01749
G1 X81.601 Y109.120 E0.01749
G1 X81.789 Y108.893 E0.01748
G1 X82.004 Y108.692 E0.01748
G1 X82.242 Y108.518 E0.01749
G1 X82.501 Y108.376 E0.01748
G1 X82.775 Y108.268 E0.01748
G1 X83.060 Y108.194 E0.01748
G1 X83.353 Y108.158 E0.01748
G1 X83.647 Y108.158 E0.01749 F1080.000
G1 X83.940 Y108.194 E0.01748
G1 X84.225 Y108.268 E0.01748
G1 X84.499 Y108.376 E0.01748
G1 X84.758 Y108.518 E0.01748
G1 X84.996 Y108.692 E0.01749
G1 X85.211 Y108.893 E0.01748
G1 X85.399 Y109.120 E0.01748
G1 X85.557 Y109.369 E0.01749
G1 X85.682 Y109.636 E0.01749
G1 X85.773 Y109.916 E0.01748
G1 X85.829 Y110.206 E0.01749
G1 X85.847 Y110.500 E0.01749
G1 X85.829 Y110.794 E0.01749
G1 X85.773 Y111.084 E0.01749
G1 X85.682 Y111.364 E0.01748
G1 X85.557 Y111.631 E0.01748
G1 X85.399 Y111.880 E0.01750
G1 X85.211 Y112.107 E0.01748
G1 X84.996 Y112.308 E0.01748
G1 X84.806 Y112.446 E0.01393
G1 X84.502 Y112.079 F7800.000
G1 X84.296 Y112.192 E0.01393 F1080.000
G1 X84.078 Y112.279 E0.01393
G1 X83.850 Y112.337 E0.01394
G1 X83.617 Y112.367 E0.01393
G1 X83.383 Y112.367 E0.01393
G1 X83.150 Y112.337 E0.01393
G1 X82.922 Y112.279 E0.01394
G1 X82.704 Y112.192 E0.01393
G1 X82.498 Y112.079 E0.01393
G1 X82.308 Y111.941 E0.01394
G1 X82.136 Y111.780 E0.01393
G1 X81.987 Y111.600 E0.01393
G1 X81.861 Y111.401 E0.01394
G1 X81.761 Y111.189 E0.01393
G1 X81.688 Y110.965 E0.01393
G1 X81.644 Y110.734 E0.01394
G1 X81.629 Y110.500 E0.01393
G1 X81.644 Y110.266 E0.01393
G1 X81.688 Y110.035 E0.01394
G1 X81.761 Y109.811 E0.01393
G1 X81.861 Y109.599 E0.01393
G1 X81.987 Y109.400 E0.01394
G1 X82.136 Y109.220 E0.01393
G1 X82.308 Y109.059 E0.01393
G1 X82.498 Y108.921 E0.01394
G1 X82.704 Y108.807 E0.01393
G1 X82.922 Y108.721 E0.01393
G1 X83.150 Y108.663 E0.01393
G1 X83.383 Y108.633 E0.01393
G1 X83.617 Y108.633 E0.01394 F1080.000
G1 X83.851 Y108.663 E0.01393
G1 X84.078 Y108.721 E0.01393
G1 X84.296 Y108.807 E0.01393
G1 X84.502 Y108.921 E0.01393
G1 X84.692 Y109.059 E0.01394
G1 X84.864 Y109.220 E0.01393
