; generated by Slic3r 1.3.1-dev (Build 2d100c4) on 2020-05-15 at 13:15:28

; external perimeters extrusion width = 0.44mm (3.91mm^3/s)
; perimeters extrusion width = 0.56mm (5.65mm^3/s)
; infill extrusion width = 0.50mm (5.02mm^3/s)
; solid infill extrusion width = 0.56mm (5.65mm^3/s)
; top infill extrusion width = 0.56mm (5.65mm^3/s)

M107
M190 S60 ; set bed temperature and wait for it to be reached
M104 S215 ; set temperature
G28 ; home all axes
G92 E0.0 ; reset extruder
; Filament gcode

M109 S215 ; set temperature and wait for it to be reached
G21 ; set units to millimeters
G90 ; use absolute coordinates
M83 ; use relative distances for extrusion
G1 E-1.30000 F3600.00000
G1 Z0.300 F7800.000
G1 X70.461 Y59.557 F7800.000
G1 E1.30000 F3600.00000
M201 X500 Y500
M204 P500 T500
G1 F2160.000
G1 X72.857 Y57.831 E0.17519
G1 X75.628 Y56.809 E0.17519
G1 X78.000 Y56.549 E0.14158
G1 X102.000 Y56.549 E1.42373
G1 X104.926 Y56.947 E0.17519
G1 X107.640 Y58.113 E0.17519
G1 X109.943 Y59.961 E0.17519
G1 X111.669 Y62.357 E0.17519
G1 X112.691 Y65.128 E0.17519
G1 X112.951 Y67.500 E0.14158
G1 X112.951 Y112.500 E2.66948
G1 X112.553 Y115.426 E0.17519
G1 X111.387 Y118.140 E0.17519
G1 X109.539 Y120.443 E0.17519
G1 X107.143 Y122.169 E0.17519
G1 X104.372 Y123.191 E0.17519
G1 X102.000 Y123.451 E0.14158
G1 X78.000 Y123.451 E1.42373
G1 X75.074 Y123.053 E0.17519
G1 X72.360 Y121.887 E0.17519
G1 X70.057 Y120.039 E0.17519
G1 X68.331 Y117.643 E0.17519
G1 X67.309 Y114.872 E0.17519
G1 X67.049 Y112.500 E0.14158
G1 X67.049 Y67.500 E2.66948
G1 X67.447 Y64.574 E0.17519
G1 X68.613 Y61.860 E0.17519
G1 X70.423 Y59.604 E0.17163
G1 X70.928 Y59.772 F7800.000
G1 F2160.000
G1 X73.307 Y58.134 E0.17132
G1 X76.043 Y57.209 E0.17132
G1 X78.000 Y57.024 E0.11663
G1 X102.000 Y57.024 E1.42373
G1 X104.860 Y57.422 E0.17132
G1 X107.503 Y58.586 E0.17132
G1 X109.728 Y60.428 E0.17132
G1 X111.366 Y62.807 E0.17132
G1 X112.291 Y65.543 E0.17132
G1 X112.476 Y67.500 E0.11663
G1 X112.476 Y112.500 E2.66948
G1 X112.078 Y115.360 E0.17132
G1 X110.914 Y118.003 E0.17132
G1 X109.072 Y120.228 E0.17132
G1 X106.693 Y121.866 E0.17132
G1 X103.957 Y122.791 E0.17132
G1 X102.000 Y122.976 E0.11663
G1 X78.000 Y122.976 E1.42373
G1 X75.140 Y122.578 E0.17132
G1 X72.497 Y121.414 E0.17132
G1 X70.272 Y119.572 E0.17132
G1 X68.634 Y117.193 E0.17132
G1 X67.709 Y114.457 E0.17132
G1 X67.524 Y112.500 E0.11663
G1 X67.524 Y67.500 E2.66948
G1 X67.922 Y64.640 E0.17132
G1 X69.086 Y61.997 E0.17132
G1 X70.890 Y59.818 E0.16776
G1 F6240.000
G1 X72.739 Y58.530 E-1.23500
G1 E-0.06500 F3600.00000
G1 X100.391 Y100.237 F7800.000
G1 E1.30000 F3600.00000
G1 F1080.000
G1 X99.737 Y100.891 E0.05484
G1 X98.913 Y101.310 E0.05484
G1 X98.000 Y101.455 E0.05484
G1 X97.087 Y101.310 E0.05484
G1 X96.263 Y100.891 E0.05484
G1 X95.609 Y100.237 E0.05484
G1 X95.190 Y99.413 E0.05484
G1 X95.045 Y98.500 E0.05484
G1 X95.124 Y98.000 E0.03003
G1 X95.045 Y97.500 E0.03003
G1 X95.190 Y96.587 E0.05484
G1 X95.609 Y95.763 E0.05484
G1 X96.263 Y95.109 E0.05484
G1 X97.087 Y94.690 E0.05484
G1 X98.000 Y94.545 E0.05484
G1 X98.913 Y94.690 E0.05484
G1 X99.737 Y95.109 E0.05484
G1 X100.391 Y95.763 E0.05484
G1 X100.810 Y96.587 E0.05484
G1 X100.955 Y97.500 E0.05484
G1 X100.876 Y98.000 E0.03003
G1 X100.955 Y98.500 E0.03003
G1 X100.810 Y99.413 E0.05484
G1 X100.418 Y100.183 E0.05128
G1 X100.001 Y99.954 F7800.000
G1 F1080.000
G1 X99.454 Y100.501 E0.04590
G1 X98.764 Y100.852 E0.04591
G1 X98.000 Y100.973 E0.04590
G1 X97.236 Y100.852 E0.04590
G1 X96.546 Y100.501 E0.04591
G1 X95.999 Y99.954 E0.04590
G1 X95.648 Y99.264 E0.04591
G1 X95.527 Y98.500 E0.04590
G1 X95.606 Y98.000 E0.03003
G1 X95.527 Y97.500 E0.03003
G1 X95.648 Y96.736 E0.04590
G1 X95.999 Y96.046 E0.04591
G1 X96.546 Y95.499 E0.04590
G1 X97.236 Y95.148 E0.04591
G1 X98.000 Y95.027 E0.04590
G1 X98.764 Y95.148 E0.04590
G1 X99.454 Y95.499 E0.04591
G1 X100.001 Y96.046 E0.04590
G1 X100.352 Y96.736 E0.04591
G1 X100.473 Y97.500 E0.04590
G1 X100.394 Y98.000 E0.03003
G1 X100.473 Y98.500 E0.03003
G1 X100.352 Y99.264 E0.04590
G1 X100.028 Y99.900 E0.04235
G1 X100.001 Y99.954 F7800.000
G1 F6240.000
G1 X100.001 Y99.954 E-0.03289
G1 F6240.000
G1 X99.454 Y100.501 E-0.42411
G1 F6240.000
G1 X98.764 Y100.852 E-0.42413
G1 F6240.000
G1 X98.127 Y100.953 E-0.35387
G1 E-0.06500 F3600.00000
G1 X84.955 Y98.500 F7800.000
G1 E1.30000 F3600.00000
G1 F1080.000
G1 X84.810 Y99.413 E0.05484
G1 X84.391 Y100.237 E0.05484
G1 X83.737 Y100.891 E0.05484
G1 X82.913 Y101.310 E0.05484
G1 X82.000 Y101.455 E0.05484
G1 X81.087 Y101.310 E0.05484
G1 X80.263 Y100.891 E0.05484
G1 X79.609 Y100.237 E0.05484
G1 X79.190 Y99.413 E0.05484
G1 X79.045 Y98.500 E0.05484
G1 X79.124 Y98.000 E0.03003
G1 X79.045 Y97.500 E0.03003
G1 X79.190 Y96.587 E0.05484
G1 X79.609 Y95.763 E0.05484
G1 X80.263 Y95.109 E0.05484
G1 X81.087 Y94.690 E0.05484
G1 X82.000 Y94.545 E0.05484
G1 X82.913 Y94.690 E0.05484
G1 X83.737 Y95.109 E0.05484
G1 X84.391 Y95.763 E0.05484
G1 X84.810 Y96.587 E0.05484
G1 X84.955 Y97.500 E0.05484
G1 X84.876 Y98.000 E0.03003
G1 X84.946 Y98.441 E0.02647
G1 X84.473 Y98.500 F7800.000
G1 F1080.000
G1 X84.352 Y99.264 E0.04590
G1 X84.001 Y99.954 E0.04591
G1 X83.454 Y100.501 E0.04591
G1 X82.764 Y100.852 E0.04591
G1 X82.000 Y100.973 E0.04591
G1 X81.236 Y100.852 E0.04591
G1 X80.546 Y100.501 E0.04591
G1 X79.999 Y99.954 E0.04591
G1 X79.648 Y99.264 E0.04591
G1 X79.527 Y98.500 E0.04590
G1 X79.606 Y98.000 E0.03003
G1 X79.527 Y97.500 E0.03003
G1 X79.648 Y96.736 E0.04590
G1 X79.999 Y96.046 E0.04591
G1 X80.546 Y95.499 E0.04591
G1 X81.236 Y95.148 E0.04591
G1 X82.000 Y95.027 E0.04591
G1 X82.764 Y95.148 E0.04591
G1 X83.454 Y95.499 E0.04591
G1 X84.001 Y96.046 E0.04591
G1 X84.352 Y96.736 E0.04591
G1 X84.473 Y97.500 E0.04590
G1 X84.394 Y98.000 E0.03003
G1 X84.464 Y98.441 E0.02647
G1 X84.473 Y98.500 F7800.000
G1 F6240.000
G1 X84.473 Y98.500 E-0.03288
G1 F6240.000
G1 X84.352 Y99.264 E-0.42410
G1 F6240.000
G1 X84.001 Y99.954 E-0.42413
G1 F6240.000
G1 X83.544 Y100.410 E-0.35388
G1 E-0.06500 F3600.00000
G1 X84.754 Y95.246 F7800.000
G1 E1.30000 F3600.00000
G1 F1620.000
G1 X84.754 Y87.099 E0.48325
G1 X85.044 Y85.771 E0.08065
G1 X85.276 Y84.051 E0.10297
G1 X85.347 Y82.500 E0.09210
G1 X85.276 Y80.949 E0.09210
G1 X85.044 Y79.229 E0.10297
G1 X84.754 Y77.901 E0.08065
G1 X84.754 Y69.754 E0.48325
G1 X95.246 Y69.754 E0.62236
G1 X95.246 Y77.869 E0.48138
G1 X95.152 Y78.235 E0.02243
G1 X94.817 Y80.123 E0.11370
G1 X94.671 Y81.734 E0.09601
G1 X94.671 Y83.266 E0.09083
G1 X94.817 Y84.877 E0.09601
G1 X95.152 Y86.765 E0.11370
G1 X95.246 Y87.131 E0.02243
G1 X95.246 Y95.246 E0.48138
G1 X84.814 Y95.246 E0.61880
G1 X85.230 Y94.770 F7800.000
G1 F1458.000
G1 X85.230 Y87.151 E0.45199
G1 X85.512 Y85.854 E0.07874
G1 X85.750 Y84.094 E0.10535
G1 X85.823 Y82.500 E0.09464
G1 X85.750 Y80.906 E0.09464
G1 X85.512 Y79.146 E0.10535
G1 X85.230 Y77.849 E0.07874
G1 X85.230 Y70.230 E0.45199
G1 X94.770 Y70.230 E0.56593
G1 X94.770 Y77.809 E0.44962
G1 X94.687 Y78.135 E0.01993
G1 X94.345 Y80.059 E0.11596
G1 X94.195 Y81.713 E0.09849
G1 X94.195 Y83.287 E0.09339
G1 X94.345 Y84.941 E0.09849
G1 X94.687 Y86.865 E0.11596
G1 X94.770 Y87.191 E0.01993
G1 X94.770 Y94.770 E0.44962
G1 X85.290 Y94.770 E0.56237
G1 X84.840 Y94.859 F7800.000
G1 F6240.000
G1 X85.272 Y92.517 E-1.23500
G1 E-0.06500 F3600.00000
G1 X78.746 Y111.754 F7800.000
G1 E1.30000 F3600.00000
G1 F1620.000
G1 X78.746 Y68.246 E2.58102
G1 X101.254 Y68.246 E1.33526
G1 X101.254 Y111.754 E2.58102
G1 X78.806 Y111.754 E1.33170
G1 X78.270 Y112.230 F7800.000
G1 F1458.000
G1 X78.270 Y67.770 E2.63745
G1 X101.730 Y67.770 E1.39169
G1 X101.730 Y112.230 E2.63745
G1 X78.330 Y112.230 E1.38813
G1 X78.334 Y111.835 F7800.000
G1 F6240.000
G1 X78.327 Y109.977 E-1.23500
G1 E-0.06500 F3600.00000
G1 X79.312 Y100.237 F7800.000
G1 E1.30000 F3600.00000
G1 F360.000
G1 X79.093 Y99.936 E0.00182
G1 F360.000
G1 X78.983 Y99.785 E0.00272
G1 F6240.000
G1 X79.093 Y99.936 E-0.10210
G1 E-1.19790 F3600.00000
G1 X78.983 Y96.215 F7800.000
G1 E1.30000 F3600.00000
G1 F360.000
G1 X79.093 Y96.064 E0.00272
G1 F360.000
G1 X79.312 Y95.763 E0.00182
G1 F6240.000
G1 X79.093 Y96.064 E-0.20421
G1 E-1.09579 F3600.00000
G1 X100.688 Y95.763 F7800.000
G1 E1.30000 F3600.00000
G1 F360.000
G1 X100.798 Y95.914 E0.00091
G1 F360.000
G1 X101.017 Y96.215 E0.00543
G1 F6240.000
G1 X100.798 Y95.914 E-0.20423
G1 E-1.09577 F3600.00000
G1 X101.017 Y99.785 F7800.000
G1 E1.30000 F3600.00000
G1 F360.000
G1 X100.798 Y100.086 E0.00543
G1 F360.000
G1 X100.688 Y100.237 E0.00091
G1 F6240.000
G1 X100.798 Y100.086 E-0.10211
G1 E-1.19789 F3600.00000
G1 X100.728 Y95.160 F7800.000
G1 E1.30000 F3600.00000
G1 F1620.000
G1 X100.829 Y95.059 E0.00854
G1 X100.829 Y94.383 E0.04022
G1 X100.206 Y95.007 E0.05251
G1 X99.969 Y94.770 E0.01991
G1 X99.835 Y94.702 E0.00897
G1 X100.829 Y93.708 E0.08372
G1 X100.829 Y93.033 E0.04022
G1 X99.388 Y94.474 E0.12139
G1 X99.011 Y94.282 E0.02516
G1 X98.919 Y94.268 E0.00557
G1 X100.829 Y92.357 E0.16088
G1 X100.829 Y91.682 E0.04022
G1 X98.336 Y94.175 E0.20998
G1 X97.950 Y94.114 E0.02331
G1 X97.679 Y94.157 E0.01629
G1 X100.829 Y91.007 E0.26530
G1 X100.829 Y90.332 E0.04022
G1 X96.869 Y94.292 E0.33353
G1 X95.930 Y94.770 E0.06280
G1 X95.671 Y95.029 E0.02181
G1 X95.671 Y94.815 E0.01277
G1 X100.829 Y89.656 E0.43447
G1 X100.829 Y88.981 E0.04022
G1 X95.671 Y94.140 E0.43447
G1 X95.671 Y93.464 E0.04022
G1 X100.829 Y88.306 E0.43447
G1 X100.829 Y87.630 E0.04022
G1 X95.671 Y92.789 E0.43447
G1 X95.671 Y92.114 E0.04022
G1 X100.829 Y86.955 E0.43447
G1 X100.829 Y86.280 E0.04022
G1 X95.671 Y91.438 E0.43447
G1 X95.671 Y90.763 E0.04022
G1 X100.829 Y85.605 E0.43447
G1 X100.829 Y84.929 E0.04022
G1 X95.671 Y90.088 E0.43447
G1 X95.671 Y89.413 E0.04022
G1 X100.829 Y84.254 E0.43447
G1 X100.829 Y83.579 E0.04022
G1 X95.671 Y88.737 E0.43447
G1 X95.671 Y88.062 E0.04022
G1 X100.829 Y82.903 E0.43447
G1 X100.829 Y82.228 E0.04022
G1 X95.671 Y87.387 E0.43447
G1 X95.671 Y87.121 E0.01579
G1 X95.587 Y86.795 E0.02008
G1 X100.829 Y81.553 E0.44151
G1 X100.829 Y80.878 E0.04022
G1 X95.480 Y86.227 E0.45053
G1 X95.378 Y85.653 E0.03469
G1 X100.829 Y80.202 E0.45910
G1 X100.829 Y79.527 E0.04022
G1 X95.277 Y85.080 E0.46766
G1 X95.203 Y84.478 E0.03612
G1 X100.829 Y78.852 E0.47383
G1 X100.829 Y78.176 E0.04022
G1 X95.147 Y83.859 E0.47857
G1 X95.096 Y83.234 E0.03729
G1 X100.829 Y77.501 E0.48288
G1 X100.829 Y76.826 E0.04022
G1 X95.096 Y82.559 E0.48288
G1 X95.096 Y81.884 E0.04022
G1 X100.829 Y76.151 E0.48288
G1 X100.829 Y75.475 E0.04022
G1 X95.156 Y81.149 E0.47785
G1 X95.223 Y80.406 E0.04442
G1 X100.829 Y74.800 E0.47217
G1 X100.829 Y74.125 E0.04022
G1 X95.351 Y79.603 E0.46142
G1 X95.496 Y78.782 E0.04965
G1 X100.829 Y73.449 E0.44915
G1 X100.829 Y72.774 E0.04022
G1 X95.671 Y77.933 E0.43447
G1 X95.671 Y77.257 E0.04022
G1 X100.829 Y72.099 E0.43447
G1 X100.829 Y71.424 E0.04022
G1 X95.671 Y76.582 E0.43447
G1 X95.671 Y75.907 E0.04022
G1 X100.829 Y70.748 E0.43447
G1 X100.829 Y70.073 E0.04022
G1 X95.671 Y75.232 E0.43447
G1 X95.671 Y74.556 E0.04022
G1 X100.829 Y69.398 E0.43447
G1 X100.829 Y68.722 E0.04022
G1 X95.671 Y73.881 E0.43447
G1 X95.671 Y73.206 E0.04022
G1 X100.206 Y68.671 E0.38195
G1 X99.530 Y68.671 E0.04022
G1 X95.671 Y72.530 E0.32508
G1 X95.671 Y71.855 E0.04022
G1 X98.855 Y68.671 E0.26820
G1 X98.180 Y68.671 E0.04022
G1 X95.671 Y71.180 E0.21132
G1 X95.671 Y70.505 E0.04022
G1 X97.505 Y68.671 E0.15445
G1 X96.829 Y68.671 E0.04022
G1 X95.671 Y69.829 E0.09757
G1 X95.671 Y69.329 E0.02978
G1 X95.495 Y69.329 E0.01044
G1 X96.154 Y68.671 E0.05546
G1 X95.479 Y68.671 E0.04022
G1 X94.820 Y69.329 E0.05546
G1 X94.145 Y69.329 E0.04022
G1 X94.803 Y68.671 E0.05546
G1 X94.128 Y68.671 E0.04022
G1 X93.470 Y69.329 E0.05546
G1 X92.794 Y69.329 E0.04022
G1 X93.453 Y68.671 E0.05546
G1 X92.778 Y68.671 E0.04022
G1 X92.119 Y69.329 E0.05546
G1 X91.444 Y69.329 E0.04022
G1 X92.102 Y68.671 E0.05546
G1 X91.427 Y68.671 E0.04022
G1 X90.768 Y69.329 E0.05546
G1 X90.093 Y69.329 E0.04022
G1 X90.752 Y68.671 E0.05546
G1 X90.076 Y68.671 E0.04022
G1 X89.418 Y69.329 E0.05546
G1 X88.743 Y69.329 E0.04022
G1 X89.401 Y68.671 E0.05546
G1 X88.726 Y68.671 E0.04022
G1 X88.067 Y69.329 E0.05546
G1 X87.392 Y69.329 E0.04022
G1 X88.051 Y68.671 E0.05546
G1 X87.375 Y68.671 E0.04022
G1 X86.717 Y69.329 E0.05546
G1 X86.041 Y69.329 E0.04022
G1 X86.700 Y68.671 E0.05546
G1 X86.025 Y68.671 E0.04022
G1 X85.366 Y69.329 E0.05546
G1 X84.691 Y69.329 E0.04022
G1 X85.349 Y68.671 E0.05546
G1 X84.674 Y68.671 E0.04022
G1 X79.171 Y74.174 E0.46352
G1 X79.171 Y73.499 E0.04022
G1 X83.999 Y68.671 E0.40664
G1 X83.324 Y68.671 E0.04022
G1 X79.171 Y72.824 E0.34977
G1 X79.171 Y72.148 E0.04022
G1 X82.648 Y68.671 E0.29289
G1 X81.973 Y68.671 E0.04022
G1 X79.171 Y71.473 E0.23601
G1 X79.171 Y70.798 E0.04022
G1 X81.298 Y68.671 E0.17914
G1 X80.622 Y68.671 E0.04022
G1 X79.171 Y70.122 E0.12226
G1 X79.171 Y69.447 E0.04022
G1 X79.947 Y68.671 E0.06539
G1 X79.272 Y68.671 E0.04022
G1 X79.171 Y68.772 E0.00850
G1 F6240.000
G1 X79.272 Y68.671 E-0.07820
G1 F6240.000
G1 X79.947 Y68.671 E-0.37011
G1 F6240.000
G1 X79.171 Y69.447 E-0.60173
G1 F6240.000
G1 X79.171 Y69.785 E-0.18496
G1 E-0.06500 F3600.00000
G1 X79.171 Y74.174 F7800.000
G1 E1.30000 F3600.00000
G1 F1620.000
G1 X79.171 Y74.849 E0.04022
G1 X84.329 Y69.691 E0.43447
G1 X84.329 Y70.366 E0.04022
G1 X79.171 Y75.525 E0.43447
G1 X79.171 Y76.200 E0.04022
G1 X84.329 Y71.041 E0.43447
G1 X84.329 Y71.717 E0.04022
G1 X79.171 Y76.875 E0.43447
G1 X79.171 Y77.551 E0.04022
G1 X84.329 Y72.392 E0.43447
G1 X84.329 Y73.067 E0.04022
G1 X79.171 Y78.226 E0.43447
G1 X79.171 Y78.901 E0.04022
G1 X84.329 Y73.743 E0.43447
G1 X84.329 Y74.418 E0.04022
G1 X79.171 Y79.576 E0.43447
G1 X79.171 Y80.252 E0.04022
G1 X84.329 Y75.093 E0.43447
G1 X84.329 Y75.768 E0.04022
G1 X79.171 Y80.927 E0.43447
G1 X79.171 Y81.602 E0.04022
G1 X84.329 Y76.444 E0.43447
G1 X84.329 Y77.119 E0.04022
G1 X79.171 Y82.278 E0.43447
G1 X79.171 Y82.953 E0.04022
G1 X84.329 Y77.794 E0.43447
G1 X84.329 Y77.901 E0.00637
G1 X84.431 Y78.368 E0.02845
G1 X79.171 Y83.628 E0.44303
G1 X79.171 Y84.303 E0.04022
G1 X84.552 Y78.922 E0.45321
G1 X84.657 Y79.493 E0.03454
G1 X79.171 Y84.979 E0.46205
G1 X79.171 Y85.654 E0.04022
G1 X84.737 Y80.088 E0.46881
G1 X84.817 Y80.683 E0.03576
G1 X79.171 Y86.329 E0.47557
G1 X79.171 Y87.005 E0.04022
G1 X84.869 Y81.307 E0.47991
G1 X84.898 Y81.952 E0.03850
G1 X79.171 Y87.680 E0.48240
G1 X79.171 Y88.355 E0.04022
G1 X84.914 Y82.612 E0.48368
G1 X84.881 Y83.320 E0.04219
G1 X79.171 Y89.030 E0.48096
G1 X79.171 Y89.706 E0.04022
G1 X84.842 Y84.035 E0.47763
G1 X84.736 Y84.815 E0.04691
G1 X79.171 Y90.381 E0.46876
G1 X79.171 Y91.056 E0.04022
G1 X84.631 Y85.596 E0.45990
G1 X84.448 Y86.455 E0.05231
G1 X79.171 Y91.732 E0.44443
G1 X79.171 Y92.407 E0.04022
G1 X84.329 Y87.248 E0.43447
G1 X84.329 Y87.924 E0.04022
G1 X79.171 Y93.082 E0.43447
G1 X79.171 Y93.757 E0.04022
G1 X84.329 Y88.599 E0.43447
G1 X84.329 Y89.274 E0.04022
G1 X79.171 Y94.433 E0.43447
G1 X79.171 Y95.108 E0.04022
G1 X84.329 Y89.949 E0.43447
G1 X84.329 Y90.625 E0.04022
G1 X80.448 Y94.506 E0.32694
G1 X80.888 Y94.282 E0.02941
G1 X81.434 Y94.196 E0.03292
G1 X84.329 Y91.300 E0.24389
G1 X84.329 Y91.975 E0.04022
G1 X82.158 Y94.147 E0.18291
G1 X82.741 Y94.239 E0.03515
G1 X84.329 Y92.651 E0.13381
G1 X84.329 Y93.326 E0.04022
G1 X83.251 Y94.404 E0.09082
G1 X83.698 Y94.632 E0.02990
G1 X84.329 Y94.001 E0.05314
G1 X84.329 Y94.676 E0.04022
G1 X84.102 Y94.903 E0.01910
G1 X85.121 Y95.671 F7800.000
G1 F1620.000
G1 X84.909 Y95.883 E0.01785
G1 X85.139 Y96.333 E0.03010
G1 X85.801 Y95.671 E0.05578
G1 X86.480 Y95.671 E0.04048
G1 X85.279 Y96.873 E0.10122
G1 X85.372 Y97.459 E0.03538
G1 X87.160 Y95.671 E0.15064
G1 X87.840 Y95.671 E0.04048
G1 X85.328 Y98.183 E0.21158
G1 X85.386 Y98.550 E0.02217
G1 X85.338 Y98.852 E0.01819
G1 X88.520 Y95.671 E0.26794
G1 X89.199 Y95.671 E0.04048
G1 X85.176 Y99.694 E0.33882
G1 F6240.000
G1 X86.770 Y98.100 E-1.23500
G1 E-0.06500 F3600.00000
G1 X79.171 Y100.941 F7800.000
G1 E1.30000 F3600.00000
G1 F1620.000
G1 X79.272 Y100.840 E0.00850
G1 X79.486 Y100.685 E0.01571
G1 X79.796 Y100.995 E0.02617
G1 X79.171 Y101.621 E0.05269
G1 X79.171 Y102.301 E0.04048
G1 X80.171 Y101.301 E0.08421
G1 X80.621 Y101.530 E0.03010
G1 X79.171 Y102.980 E0.12213
