; generated by Slic3r 1.2.9 on 2020-05-13 at 11:59:20

; external perimeters extrusion width = 0.40mm
; perimeters extrusion width = 0.56mm
; infill extrusion width = 0.56mm
; solid infill extrusion width = 0.56mm
; top infill extrusion width = 0.56mm

M107
M190 S60 ; set bed temperature
M104 S215 ; set temperature
G28 ; home all axes
G92 E0.0 ; reset extruder
M109 S215 ; wait for temperature to be reached
G21 ; set units to millimeters
G90 ; use absolute coordinates
M83 ; use relative distances for extrusion
G1 E-1.30000 F3600.00000
G1 Z0.300 F7800.000
G1 X80.461 Y69.557 F7800.000
G1 E1.30000 F3600.00000
M204 S500
G1 X82.857 Y67.831 E0.17519 F2160.000
G1 X85.628 Y66.809 E0.17519
G1 X88.000 Y66.549 E0.14158
G1 X112.000 Y66.549 E1.42373
G1 X114.926 Y66.947 E0.17519
G1 X117.640 Y68.113 E0.17519 F2160.000
G1 X119.943 Y69.961 E0.17519
G1 X121.669 Y72.357 E0.17519
G1 X122.691 Y75.128 E0.17519
G1 X122.951 Y77.500 E0.14158
G1 X122.951 Y122.500 E2.66948
G1 X122.553 Y125.426 E0.17519
G1 X121.387 Y128.140 E0.17519
G1 X119.539 Y130.443 E0.17519
G1 X117.143 Y132.169 E0.17519
G1 X114.372 Y133.191 E0.17519
G1 X112.000 Y133.451 E0.14158
G1 X88.000 Y133.451 E1.42373
G1 X85.074 Y133.053 E0.17519
G1 X82.360 Y131.887 E0.17519
G1 X80.057 Y130.039 E0.17519
G1 X78.331 Y127.643 E0.17519
G1 X77.309 Y124.872 E0.17519
G1 X77.049 Y122.500 E0.14158
G1 X77.049 Y77.500 E2.66948
G1 X77.447 Y74.574 E0.17519
G1 X78.613 Y71.860 E0.17519
G1 X80.423 Y69.604 E0.17163
G1 X80.843 Y69.874 F7800.000
G1 X80.928 Y69.772 E0.00787 F2160.000
G1 X83.307 Y68.134 E0.17132
G1 X86.043 Y67.209 E0.17132
G1 X88.000 Y67.024 E0.11663
G1 X112.000 Y67.024 E1.42373
G1 X114.860 Y67.422 E0.17132
G1 X117.503 Y68.586 E0.17132 F2160.000
G1 X119.728 Y70.428 E0.17132
G1 X121.366 Y72.807 E0.17132
G1 X122.291 Y75.543 E0.17132
G1 X122.476 Y77.500 E0.11663
G1 X122.476 Y122.500 E2.66948
G1 X122.078 Y125.360 E0.17132
G1 X120.914 Y128.003 E0.17132
G1 X119.072 Y130.228 E0.17132
G1 X116.693 Y131.866 E0.17132
G1 X113.957 Y132.791 E0.17132
G1 X112.000 Y132.976 E0.11663
G1 X88.000 Y132.976 E1.42373
G1 X85.140 Y132.578 E0.17132
G1 X82.497 Y131.414 E0.17132
G1 X80.272 Y129.572 E0.17132
G1 X78.634 Y127.193 E0.17132
G1 X77.709 Y124.457 E0.17132
G1 X77.524 Y122.500 E0.11663
G1 X77.524 Y77.500 E2.66948
G1 X77.922 Y74.640 E0.17132
G1 X79.086 Y71.997 E0.17132
G1 X80.805 Y69.920 E0.15990
G1 F6240
G1 X80.928 Y69.772 E-0.10555
G1 F6240
G1 X82.625 Y68.603 E-1.12945
G1 E-0.06500 F3600.00000
G1 X110.390 Y110.238 F7800.000
G1 E1.30000 F3600.00000
G1 X109.727 Y110.896 E0.05537 F1080.000
G1 X108.913 Y111.310 E0.05419
G1 X108.000 Y111.455 E0.05484
G1 X107.085 Y111.310 E0.05494
G1 X106.255 Y110.883 E0.05537
G1 X105.609 Y110.237 E0.05419
G1 X105.190 Y109.413 E0.05484
G1 X105.045 Y108.500 E0.05484
G1 X105.124 Y108.000 E0.03003
G1 X105.045 Y107.500 E0.03003
G1 X105.190 Y106.587 E0.05484
G1 X105.609 Y105.763 E0.05484
G1 X106.263 Y105.109 E0.05484
G1 X107.087 Y104.690 E0.05484
G1 X107.989 Y104.547 E0.05419 F1080.000
G1 X108.912 Y104.689 E0.05537
G1 X109.737 Y105.109 E0.05494
G1 X110.391 Y105.763 E0.05484
G1 X110.810 Y106.587 E0.05484
G1 X110.955 Y107.500 E0.05484
G1 X110.876 Y108.000 E0.03003
G1 X110.955 Y108.500 E0.03003
G1 X110.810 Y109.413 E0.05484
G1 X110.417 Y110.185 E0.05138
G1 X110.001 Y109.954 F7800.000
G1 X109.445 Y110.505 E0.04643 F1080.000
G1 X108.764 Y110.852 E0.04532
G1 X108.000 Y110.973 E0.04590
G1 X107.235 Y110.852 E0.04594
G1 X106.539 Y110.494 E0.04644
G1 X105.999 Y109.954 E0.04531
G1 X105.648 Y109.264 E0.04591
G1 X105.527 Y108.500 E0.04590
G1 X105.606 Y108.000 E0.03003
G1 X105.527 Y107.500 E0.03003
G1 X105.648 Y106.736 E0.04590
G1 X105.999 Y106.046 E0.04591
G1 X106.546 Y105.499 E0.04590
G1 X107.236 Y105.148 E0.04591
G1 X107.990 Y105.028 E0.04531 F1080.000
G1 X108.764 Y105.147 E0.04643
G1 X109.454 Y105.499 E0.04594
G1 X110.001 Y106.046 E0.04590
G1 X110.352 Y106.736 E0.04591
G1 X110.473 Y107.500 E0.04590
G1 X110.394 Y108.000 E0.03003
G1 X110.473 Y108.500 E0.03003
G1 X110.352 Y109.264 E0.04590
G1 X110.028 Y109.901 E0.04238
G1 X110.143 Y110.328 F7800.000
G1 F6240
G1 X109.445 Y110.505 E-0.46036
G1 F6240
G1 X108.764 Y110.852 E-0.41867
G1 F6240
G1 X108.123 Y110.954 E-0.35597
G1 E-0.06500 F3600.00000
G1 X94.955 Y108.500 F7800.000
G1 E1.30000 F3600.00000
G1 X94.810 Y109.413 E0.05484 F1080.000
G1 X94.391 Y110.237 E0.05484
G1 X93.737 Y110.891 E0.05484
G1 X92.913 Y111.310 E0.05484
G1 X92.000 Y111.455 E0.05484
G1 X91.087 Y111.310 E0.05484
G1 X90.263 Y110.891 E0.05484
G1 X89.609 Y110.237 E0.05484
G1 X89.190 Y109.413 E0.05484
G1 X89.045 Y108.500 E0.05484
G1 X89.124 Y108.000 E0.03003
G1 X89.045 Y107.500 E0.03003
G1 X89.190 Y106.587 E0.05484
G1 X89.609 Y105.763 E0.05484
G1 X90.263 Y105.109 E0.05484
G1 X91.087 Y104.690 E0.05484
G1 X91.989 Y104.547 E0.05419 F1080.000
G1 X92.912 Y104.689 E0.05537
G1 X93.737 Y105.109 E0.05494
G1 X94.391 Y105.763 E0.05484
G1 X94.810 Y106.587 E0.05484
G1 X94.955 Y107.500 E0.05484
G1 X94.876 Y108.000 E0.03003
G1 X94.946 Y108.441 E0.02647
G1 X94.473 Y108.500 F7800.000
G1 X94.352 Y109.264 E0.04590 F1080.000
G1 X94.001 Y109.954 E0.04591
G1 X93.454 Y110.501 E0.04590
G1 X92.764 Y110.852 E0.04591
G1 X92.000 Y110.973 E0.04591
G1 X91.236 Y110.852 E0.04591
G1 X90.546 Y110.501 E0.04591
G1 X89.999 Y109.954 E0.04591
G1 X89.648 Y109.264 E0.04591
G1 X89.527 Y108.500 E0.04590
G1 X89.606 Y108.000 E0.03003
G1 X89.527 Y107.500 E0.03003
G1 X89.648 Y106.736 E0.04590
G1 X89.999 Y106.046 E0.04591
G1 X90.546 Y105.499 E0.04591
G1 X91.236 Y105.148 E0.04591
G1 X91.990 Y105.028 E0.04532 F1080.000
G1 X92.764 Y105.147 E0.04644
G1 X93.454 Y105.499 E0.04594
G1 X94.001 Y106.046 E0.04590
G1 X94.352 Y106.736 E0.04591
G1 X94.473 Y107.500 E0.04590
G1 X94.394 Y108.000 E0.03003
G1 X94.464 Y108.441 E0.02647
G1 X94.809 Y108.718 F7800.000
G1 X94.754 Y105.246 F7800.000
G1 X94.754 Y97.099 E0.48325 F1620.000
G1 X95.044 Y95.771 E0.08065
G1 X95.276 Y94.051 E0.10297
G1 X95.347 Y92.500 E0.09210
G1 X95.276 Y90.949 E0.09210
G1 X95.044 Y89.229 E0.10297
G1 X94.754 Y87.901 E0.08065
G1 X94.754 Y79.754 E0.48325
G1 X105.246 Y79.754 E0.62236
G1 X105.246 Y87.869 E0.48138
G1 X105.152 Y88.235 E0.02243
G1 X104.817 Y90.122 E0.11366
G1 X104.671 Y91.770 E0.09819
G1 X104.671 Y93.266 E0.08869
G1 X104.817 Y94.877 E0.09601
G1 X105.152 Y96.765 E0.11370
G1 X105.246 Y97.131 E0.02243
G1 X105.246 Y105.246 E0.48138
G1 X94.814 Y105.246 E0.61880
G1 X95.230 Y104.770 F7800.000
G1 X95.230 Y97.151 E0.45199 F1458.000
G1 X95.512 Y95.854 E0.07874
G1 X95.750 Y94.094 E0.10535
G1 X95.823 Y92.500 E0.09464
G1 X95.750 Y90.906 E0.09464
G1 X95.512 Y89.146 E0.10535
G1 X95.230 Y87.849 E0.07874
G1 X95.230 Y80.230 E0.45199
G1 X104.770 Y80.230 E0.56593
G1 X104.770 Y87.809 E0.44962
G1 X104.687 Y88.135 E0.01993
G1 X104.345 Y90.059 E0.11594
G1 X104.195 Y91.749 E0.10067
G1 X104.195 Y93.287 E0.09122
G1 X104.345 Y94.941 E0.09849
G1 X104.687 Y96.865 E0.11596
G1 X104.770 Y97.191 E0.01993
G1 X104.770 Y104.770 E0.44962
G1 X95.290 Y104.770 E0.56237
G1 X94.830 Y104.770 F7800.000
G1 F6240
G1 X95.272 Y102.517 E-1.23500
G1 E-0.06500 F3600.00000
G1 X88.746 Y121.754 F7800.000
G1 E1.30000 F3600.00000
G1 X88.746 Y78.246 E2.58102 F1620.000
G1 X111.254 Y78.246 E1.33526
G1 X111.254 Y121.754 E2.58102
G1 X88.806 Y121.754 E1.33170
G1 X88.270 Y122.230 F7800.000
G1 X88.270 Y77.770 E2.63745 F1458.000
G1 X111.730 Y77.770 E1.39169
G1 X111.730 Y122.230 E2.63745
G1 X88.330 Y122.230 E1.38813
G1 X88.470 Y121.884 F7800.000
G1 X89.029 Y121.229 F7800.000
G1 X89.271 Y121.471 E0.02074 F1620.000
G1 X89.955 Y121.471 E0.04148
G1 X89.029 Y120.545 E0.07939
G1 X89.029 Y119.862 E0.04148
G1 X90.638 Y121.471 E0.13805
G1 X91.322 Y121.471 E0.04148
G1 X89.029 Y119.178 E0.19670
G1 X89.029 Y118.494 E0.04148
G1 X92.006 Y121.471 E0.25536
G1 X92.690 Y121.471 E0.04148
G1 X89.029 Y117.810 E0.31401
G1 X89.029 Y117.126 E0.04148
G1 X93.374 Y121.471 E0.37267
G1 X94.058 Y121.471 E0.04148
G1 X89.029 Y116.442 E0.43132
G1 X89.029 Y115.758 E0.04148
G1 X94.742 Y121.471 E0.48998
G1 X95.425 Y121.471 E0.04148
G1 X89.029 Y115.075 E0.54863
G1 X89.029 Y114.391 E0.04148
G1 X96.109 Y121.471 E0.60729
G1 X96.793 Y121.471 E0.04148
G1 X89.029 Y113.707 E0.66594
G1 X89.029 Y113.023 E0.04148
G1 X97.477 Y121.471 E0.72460
G1 X98.161 Y121.471 E0.04148
G1 X89.029 Y112.339 E0.78325
G1 X89.029 Y111.655 E0.04148
G1 X98.845 Y121.471 E0.84191
G1 X99.529 Y121.471 E0.04148
G1 X89.029 Y110.971 E0.90056
G1 X89.029 Y110.288 E0.04148
G1 X100.212 Y121.471 E0.95922
G1 X100.896 Y121.471 E0.04148
G1 X91.031 Y111.606 E0.84617
G1 X91.843 Y111.734 E0.04990
G1 X101.580 Y121.471 E0.83513
G1 X102.264 Y121.471 E0.04148
G1 X92.449 Y111.656 E0.84185
G1 X93.014 Y111.538 E0.03504
G1 X102.948 Y121.471 E0.85200
G1 X103.632 Y121.471 E0.04148
G1 X93.467 Y111.307 E0.87180
G1 X93.907 Y111.062 E0.03049
G1 X104.316 Y121.471 E0.89277
G1 X104.999 Y121.471 E0.04148
G1 X94.249 Y110.720 E0.92210
G1 X94.591 Y110.378 E0.02933
G1 X105.683 Y121.471 E0.95143
G1 X106.367 Y121.471 E0.04148
G1 X94.826 Y109.930 E0.98990
G1 X95.057 Y109.477 E0.03084
G1 X107.051 Y121.471 E1.02875
G1 X107.735 Y121.471 E0.04148
G1 X95.164 Y108.900 E1.07824
G1 X95.224 Y108.276 E0.03802
G1 X108.419 Y121.471 E1.13176
G1 X109.103 Y121.471 E0.04148
G1 X95.214 Y107.582 E1.19123
G1 X95.154 Y106.839 E0.04524
G1 X109.786 Y121.471 E1.25501
G1 X110.470 Y121.471 E0.04148
G1 X94.783 Y105.783 E1.34554
G1 X95.212 Y105.529 E0.03027
G1 X110.971 Y121.288 E1.35166
G1 X110.971 Y120.604 E0.04148
G1 X95.896 Y105.529 E1.29300
G1 X96.580 Y105.529 E0.04148
G1 X110.971 Y119.920 E1.23435
G1 X110.971 Y119.236 E0.04148
G1 X97.264 Y105.529 E1.17569
G1 X97.948 Y105.529 E0.04148
G1 X110.971 Y118.552 E1.11704
G1 X110.971 Y117.869 E0.04148
G1 X98.631 Y105.529 E1.05838
G1 X99.315 Y105.529 E0.04148
G1 X110.971 Y117.185 E0.99973
G1 X110.971 Y116.501 E0.04148
G1 X99.999 Y105.529 E0.94107
G1 X104.786 Y105.529 F7800.000
G1 X105.226 Y105.969 E0.03771 F1620.000
G1 X104.995 Y106.422 E0.03084
G1 X104.102 Y105.529 E0.07657
G1 X103.418 Y105.529 E0.04148
G1 X104.857 Y106.968 E0.12341
G1 X104.764 Y107.558 E0.03625
G1 X102.735 Y105.529 E0.17404
G1 X102.051 Y105.529 E0.04148
G1 X104.807 Y108.285 E0.23641
G1 X104.817 Y108.979 E0.04208
G1 X101.367 Y105.529 E0.29591
G1 X100.683 Y105.529 E0.04148
G1 X105.058 Y109.904 E0.37527
G1 X106.595 Y111.441 F7800.000
G1 X110.971 Y115.817 E0.37537 F1620.000
G1 X110.971 Y115.133 E0.04148
G1 X107.521 Y111.683 E0.29591
G1 X108.215 Y111.693 E0.04208
G1 X110.971 Y114.449 E0.23641
G1 X110.971 Y113.765 E0.04148
G1 X108.805 Y111.600 E0.18577
G1 X109.288 Y111.398 E0.03171
G1 X110.971 Y113.082 E0.14438
G1 X110.971 Y112.398 E0.04148
G1 X109.741 Y111.167 E0.10552
G1 X110.112 Y110.854 E0.02943
G1 X110.971 Y111.714 E0.07372
G1 X110.971 Y111.030 E0.04148
G1 X110.455 Y110.514 E0.04427
G1 X110.734 Y110.110 E0.02981
G1 X110.971 Y110.346 E0.02030
G1 X110.973 Y105.592 F7800.000
G1 X105.527 Y100.146 E0.46706 F1620.000
G1 X105.527 Y99.459 E0.04171
G1 X110.973 Y104.904 E0.46706
G1 X110.973 Y104.217 E0.04171
G1 X105.527 Y98.771 E0.46706
G1 X105.527 Y98.083 E0.04171
G1 X110.973 Y103.529 E0.46706
G1 X110.973 Y102.841 E0.04171
G1 X105.527 Y97.396 E0.46706
G1 X105.434 Y96.615 E0.04771
G1 X110.973 Y102.153 E0.47507
G1 X110.973 Y101.466 E0.04171
G1 X105.282 Y95.775 E0.48806
G1 X105.134 Y94.940 E0.05149
G1 X110.973 Y100.778 E0.50078
G1 X110.973 Y100.090 E0.04171
G1 X105.045 Y94.163 E0.50843
G1 X104.976 Y93.406 E0.04606
G1 X110.973 Y99.403 E0.51433
G1 X110.973 Y98.715 E0.04171
G1 X104.953 Y92.695 E0.51636
G1 X104.953 Y92.007 E0.04171
G1 X110.973 Y98.027 E0.51636
G1 X110.973 Y97.340 E0.04171
G1 X104.982 Y91.349 E0.51380
G1 X105.038 Y90.718 E0.03845
G1 X110.973 Y96.652 E0.50898
G1 X110.973 Y95.964 E0.04171
G1 X105.095 Y90.086 E0.50417
G1 X105.197 Y89.501 E0.03604
G1 X110.973 Y95.277 E0.49539
G1 X110.973 Y94.589 E0.04171
G1 X105.301 Y88.917 E0.48650
G1 X105.404 Y88.333 E0.03598
G1 X110.973 Y93.901 E0.47762
G1 X110.973 Y93.214 E0.04171
G1 X105.527 Y87.768 E0.46706
G1 X105.527 Y87.081 E0.04171
G1 X110.973 Y92.526 E0.46706
G1 X110.973 Y91.838 E0.04171
G1 X105.527 Y86.393 E0.46706
G1 X105.527 Y85.705 E0.04171
G1 X110.973 Y91.151 E0.46706
G1 X110.973 Y90.463 E0.04171
G1 X105.527 Y85.018 E0.46706
G1 X105.527 Y84.330 E0.04171
G1 X110.973 Y89.775 E0.46706
G1 X110.973 Y89.088 E0.04171
G1 X105.527 Y83.642 E0.46706
G1 X105.527 Y82.955 E0.04171
G1 X110.973 Y88.400 E0.46706
G1 X110.973 Y87.712 E0.04171
G1 X105.527 Y82.267 E0.46706
G1 X105.527 Y81.579 E0.04171
G1 X110.973 Y87.025 E0.46706
G1 X110.973 Y86.337 E0.04171
G1 X105.527 Y80.891 E0.46706
G1 X105.527 Y80.204 E0.04171
G1 X110.973 Y85.649 E0.46706
G1 X110.973 Y84.962 E0.04171
G1 X104.538 Y78.527 E0.55187
G1 X105.226 Y78.527 E0.04171
G1 X110.973 Y84.274 E0.49289
G1 X110.973 Y83.586 E0.04171
G1 X105.914 Y78.527 E0.43391
G1 X106.601 Y78.527 E0.04171
G1 X110.973 Y82.899 E0.37492
G1 X110.973 Y82.211 E0.04171
G1 X107.289 Y78.527 E0.31594
G1 X107.977 Y78.527 E0.04171
G1 X110.973 Y81.523 E0.25696
G1 X110.973 Y80.835 E0.04171
G1 X108.665 Y78.527 E0.19798
G1 X109.352 Y78.527 E0.04171
G1 X110.973 Y80.148 E0.13899
G1 X110.973 Y79.460 E0.04171
G1 X110.040 Y78.527 E0.08001
G1 X110.728 Y78.527 E0.04171
G1 X110.973 Y78.772 E0.02103
G1 X103.851 Y78.527 F7800.000
G1 X104.796 Y79.473 E0.08109 F1620.000
G1 X104.109 Y79.473 E0.04171
G1 X103.163 Y78.527 E0.08109
G1 X102.475 Y78.527 E0.04171
G1 X103.421 Y79.473 E0.08109
G1 X102.733 Y79.473 E0.04171
G1 X101.788 Y78.527 E0.08109
G1 X101.100 Y78.527 E0.04171
G1 X102.045 Y79.473 E0.08109
G1 X101.358 Y79.473 E0.04171
G1 X100.412 Y78.527 E0.08109
G1 X99.725 Y78.527 E0.04171
G1 X100.670 Y79.473 E0.08109
G1 X99.982 Y79.473 E0.04171
G1 X99.037 Y78.527 E0.08109
G1 X98.349 Y78.527 E0.04171
G1 X99.295 Y79.473 E0.08109
G1 X98.607 Y79.473 E0.04171
G1 X97.662 Y78.527 E0.08109
G1 X96.974 Y78.527 E0.04171
G1 X97.919 Y79.473 E0.08109
G1 X97.232 Y79.473 E0.04171
G1 X96.286 Y78.527 E0.08109
G1 X95.599 Y78.527 E0.04171
G1 X96.544 Y79.473 E0.08109
G1 X95.856 Y79.473 E0.04171
G1 X94.911 Y78.527 E0.08109
G1 X94.223 Y78.527 E0.04171
G1 X95.169 Y79.473 E0.08109
G1 X94.481 Y79.473 E0.04171
G1 X93.536 Y78.527 E0.08109
G1 X92.848 Y78.527 E0.04171
G1 X94.473 Y80.152 E0.13936
G1 X94.473 Y80.840 E0.04171
G1 X92.160 Y78.527 E0.19834
G1 X91.473 Y78.527 E0.04171
G1 X94.473 Y81.527 E0.25732
G1 X94.473 Y82.215 E0.04171
G1 X90.785 Y78.527 E0.31631
G1 X90.097 Y78.527 E0.04171
G1 X94.473 Y82.903 E0.37529
G1 X94.473 Y83.590 E0.04171
G1 X89.410 Y78.527 E0.43427
G1 X89.027 Y78.833 E0.02967
G1 X94.473 Y84.278 E0.46706
G1 X94.473 Y84.966 E0.04171
G1 X89.027 Y79.520 E0.46706
G1 X89.027 Y80.208 E0.04171
G1 X94.473 Y85.653 E0.46706
G1 X94.473 Y86.341 E0.04171
G1 X89.027 Y80.896 E0.46706
G1 X89.027 Y81.583 E0.04171
G1 X94.473 Y87.029 E0.46706
G1 X94.473 Y87.717 E0.04171
G1 X89.027 Y82.271 E0.46706
G1 X89.027 Y82.959 E0.04171
G1 X94.573 Y88.504 E0.47565
G1 X94.764 Y89.384 E0.05457
G1 X89.027 Y83.646 E0.49207
G1 X89.027 Y84.334 E0.04171
G1 X94.873 Y90.180 E0.50139
G1 X94.980 Y90.975 E0.04865
G1 X89.027 Y85.022 E0.51059
G1 X89.027 Y85.709 E0.04171
G1 X95.024 Y91.706 E0.51430
G1 X95.056 Y92.426 E0.04375
G1 X89.027 Y86.397 E0.51713
G1 X89.027 Y87.085 E0.04171
G1 X95.042 Y93.099 E0.51587
G1 X95.012 Y93.757 E0.03993
G1 X89.027 Y87.773 E0.51330
G1 X89.027 Y88.460 E0.04171
G1 X94.959 Y94.391 E0.50872
G1 X94.877 Y94.997 E0.03708
G1 X89.027 Y89.148 E0.50171
G1 X89.027 Y89.836 E0.04171
G1 X94.795 Y95.603 E0.49470
G1 X94.686 Y96.182 E0.03571
G1 X89.027 Y90.523 E0.48534
G1 X89.027 Y91.211 E0.04171
G1 X94.563 Y96.747 E0.47479
G1 X94.473 Y97.344 E0.03665
G1 X89.027 Y91.899 E0.46706
G1 X89.027 Y92.586 E0.04171
G1 X94.473 Y98.032 E0.46706
G1 X94.473 Y98.719 E0.04171
G1 X89.027 Y93.274 E0.46706
G1 X89.027 Y93.962 E0.04171
G1 X94.473 Y99.407 E0.46706
G1 X94.473 Y100.095 E0.04171
G1 X89.027 Y94.649 E0.46706
G1 X89.027 Y95.337 E0.04171
G1 X94.473 Y100.782 E0.46706
G1 X94.473 Y101.470 E0.04171
G1 X89.027 Y96.025 E0.46706
G1 X89.027 Y96.712 E0.04171
G1 X94.473 Y102.158 E0.46706
G1 X94.473 Y102.845 E0.04171
G1 X89.027 Y97.400 E0.46706
G1 X89.027 Y98.088 E0.04171
G1 X94.473 Y103.533 E0.46706
G1 X94.473 Y104.221 E0.04171
G1 X89.027 Y98.775 E0.46706
