; generated by Slic3r 1.3.1-dev (Build 2d100c4) on 2020-05-15 at 13:15:19

; external perimeters extrusion width = 0.44mm (3.91mm^3/s)
; perimeters extrusion width = 0.56mm (5.65mm^3/s)
; infill extrusion width = 0.50mm (5.02mm^3/s)
; solid infill extrusion width = 0.56mm (5.65mm^3/s)
; top infill extrusion width = 0.56mm (5.65mm^3/s)

M107
M190 S60 ; set bed temperature and wait for it to be reached
M104 S215 ; set temperature
G28 ; home all axes
G92 E0.0 ; reset extruder
; Filament gcode

M109 S215 ; set temperature and wait for it to be reached
G21 ; set units to millimeters
G90 ; use absolute coordinates
M83 ; use relative distances for extrusion
G1 E-1.30000 F3600.00000
G1 Z0.300 F7800.000
G1 X62.105 Y57.650 F7800.000
G1 E1.30000 F3600.00000
M201 X500 Y500
M204 P500 T500
G1 F2160.000
G1 X63.046 Y56.647 E0.08161
G1 X63.230 Y56.475 E0.01490
G1 X64.284 Y55.602 E0.08122
G1 X64.487 Y55.454 E0.01490
G1 X65.652 Y54.715 E0.08187
G1 X65.873 Y54.594 E0.01490
G1 X67.120 Y54.007 E0.08180
G1 X67.354 Y53.914 E0.01490
G1 X68.656 Y53.491 E0.08123
G1 X68.899 Y53.429 E0.01490
G1 X70.252 Y53.171 E0.08168
G1 X70.501 Y53.139 E0.01490
G1 X71.874 Y53.053 E0.08163
G1 X108.126 Y53.053 E2.15049
G1 X109.499 Y53.139 E0.08163
G1 X109.748 Y53.171 E0.01490
G1 X111.101 Y53.429 E0.08168
G1 X111.344 Y53.491 E0.01490
G1 X112.646 Y53.914 E0.08122
G1 X112.880 Y54.007 E0.01490
G1 X114.127 Y54.594 E0.08180
G1 X114.348 Y54.715 E0.01490
G1 X115.513 Y55.454 E0.08187
G1 X115.716 Y55.602 E0.01490
G1 X116.770 Y56.475 E0.08122
G1 X116.954 Y56.647 E0.01490
G1 X117.895 Y57.650 E0.08162
G1 X118.056 Y57.843 E0.01490
G1 X118.865 Y58.957 E0.08164
G1 X118.999 Y59.169 E0.01490
G1 X119.661 Y60.372 E0.08148
G1 X119.768 Y60.600 E0.01490
G1 X120.275 Y61.879 E0.08165
G1 X120.352 Y62.118 E0.01490
G1 X120.695 Y63.453 E0.08178
G1 X120.742 Y63.700 E0.01490
G1 X120.914 Y65.060 E0.08135
G1 X120.930 Y65.311 E0.01490
G1 X120.951 Y66.000 E0.04088
G1 X120.951 Y114.000 E2.84745
G1 X120.930 Y114.689 E0.04088
G1 X120.914 Y114.940 E0.01490
G1 X120.742 Y116.300 E0.08135
G1 X120.695 Y116.547 E0.01490
G1 X120.352 Y117.882 E0.08178
G1 X120.275 Y118.121 E0.01490
G1 X119.768 Y119.400 E0.08164
G1 X119.661 Y119.628 E0.01490
G1 X118.999 Y120.831 E0.08148
G1 X118.864 Y121.043 E0.01490
G1 X118.056 Y122.157 E0.08163
G1 X117.895 Y122.350 E0.01490
G1 X116.953 Y123.353 E0.08163
G1 X116.770 Y123.525 E0.01490
G1 X115.716 Y124.398 E0.08120
G1 X115.513 Y124.545 E0.01490
G1 X114.347 Y125.285 E0.08189
G1 X114.127 Y125.406 E0.01490
G1 X112.880 Y125.993 E0.08179
G1 X112.646 Y126.086 E0.01490
G1 X111.344 Y126.509 E0.08123
G1 X111.101 Y126.571 E0.01490
G1 X109.748 Y126.829 E0.08167
G1 X109.499 Y126.861 E0.01490
G1 X108.126 Y126.947 E0.08164
G1 X71.874 Y126.947 E2.15049
G1 X70.501 Y126.861 E0.08164
G1 X70.252 Y126.829 E0.01490
G1 X68.899 Y126.571 E0.08166
G1 X68.656 Y126.509 E0.01490
G1 X67.354 Y126.086 E0.08123
G1 X67.120 Y125.993 E0.01490
G1 X65.873 Y125.406 E0.08178
G1 X65.653 Y125.285 E0.01490
G1 X64.487 Y124.545 E0.08189
G1 X64.284 Y124.398 E0.01490
G1 X63.230 Y123.525 E0.08120
G1 X63.047 Y123.353 E0.01490
G1 X62.105 Y122.350 E0.08162
G1 X61.944 Y122.157 E0.01490
G1 X61.136 Y121.043 E0.08164
G1 X61.001 Y120.831 E0.01490
G1 X60.339 Y119.628 E0.08148
G1 X60.232 Y119.401 E0.01490
G1 X59.725 Y118.121 E0.08166
G1 X59.648 Y117.882 E0.01490
G1 X59.305 Y116.547 E0.08176
G1 X59.258 Y116.300 E0.01490
G1 X59.086 Y114.940 E0.08136
G1 X59.070 Y114.689 E0.01490
G1 X59.049 Y114.000 E0.04088
G1 X59.049 Y66.000 E2.84745
G1 X59.086 Y65.060 E0.05578
G1 X59.258 Y63.700 E0.08136
G1 X59.305 Y63.453 E0.01490
G1 X59.648 Y62.118 E0.08176
G1 X59.725 Y61.879 E0.01490
G1 X60.232 Y60.599 E0.08166
G1 X60.339 Y60.372 E0.01490
G1 X61.001 Y59.169 E0.08147
G1 X61.135 Y58.957 E0.01490
G1 X62.066 Y57.696 E0.09296
G1 X62.471 Y57.953 F7800.000
G1 F2160.000
G1 X63.372 Y56.994 E0.07807
G1 X63.555 Y56.822 E0.01490
G1 X64.564 Y55.987 E0.07769
G1 X64.767 Y55.839 E0.01490
G1 X65.882 Y55.131 E0.07831
G1 X66.102 Y55.010 E0.01490
G1 X67.295 Y54.449 E0.07825
G1 X67.529 Y54.357 E0.01490
G1 X68.775 Y53.952 E0.07770
G1 X69.018 Y53.889 E0.01490
G1 X70.312 Y53.642 E0.07813
G1 X70.561 Y53.611 E0.01490
G1 X71.874 Y53.528 E0.07808
G1 X108.126 Y53.528 E2.15049
G1 X109.439 Y53.611 E0.07808
G1 X109.688 Y53.642 E0.01490
G1 X110.982 Y53.889 E0.07813
G1 X111.225 Y53.952 E0.01490
G1 X112.471 Y54.357 E0.07770
G1 X112.705 Y54.449 E0.01490
G1 X113.898 Y55.010 E0.07825
G1 X114.118 Y55.131 E0.01490
G1 X115.233 Y55.839 E0.07831
G1 X115.436 Y55.987 E0.01490
G1 X116.445 Y56.822 E0.07769
G1 X116.628 Y56.994 E0.01490
G1 X117.529 Y57.953 E0.07807
G1 X117.689 Y58.146 E0.01490
G1 X118.463 Y59.211 E0.07809
G1 X118.598 Y59.423 E0.01490
G1 X119.231 Y60.575 E0.07794
G1 X119.338 Y60.802 E0.01490
G1 X119.822 Y62.026 E0.07810
G1 X119.900 Y62.265 E0.01490
G1 X120.228 Y63.542 E0.07823
G1 X120.275 Y63.789 E0.01490
G1 X120.439 Y65.090 E0.07782
G1 X120.455 Y65.341 E0.01490
G1 X120.476 Y66.000 E0.03911
G1 X120.476 Y114.000 E2.84745
G1 X120.455 Y114.659 E0.03911
G1 X120.439 Y114.910 E0.01490
G1 X120.275 Y116.211 E0.07782
G1 X120.228 Y116.458 E0.01490
G1 X119.900 Y117.735 E0.07823
G1 X119.822 Y117.974 E0.01490
G1 X119.338 Y119.198 E0.07810
G1 X119.231 Y119.425 E0.01490
G1 X118.598 Y120.577 E0.07794
G1 X118.463 Y120.789 E0.01490
G1 X117.689 Y121.854 E0.07809
G1 X117.529 Y122.047 E0.01490
G1 X116.628 Y123.006 E0.07808
G1 X116.445 Y123.178 E0.01490
G1 X115.436 Y124.013 E0.07767
G1 X115.233 Y124.161 E0.01490
G1 X114.118 Y124.869 E0.07834
G1 X113.898 Y124.990 E0.01490
G1 X112.705 Y125.551 E0.07824
G1 X112.471 Y125.643 E0.01490
G1 X111.225 Y126.048 E0.07770
G1 X110.982 Y126.111 E0.01490
G1 X109.689 Y126.357 E0.07812
G1 X109.440 Y126.389 E0.01490
G1 X108.126 Y126.472 E0.07810
G1 X71.874 Y126.472 E2.15049
G1 X70.560 Y126.389 E0.07810
G1 X70.311 Y126.357 E0.01490
G1 X69.018 Y126.111 E0.07812
G1 X68.775 Y126.048 E0.01490
G1 X67.529 Y125.643 E0.07770
G1 X67.295 Y125.551 E0.01490
G1 X66.102 Y124.990 E0.07823
G1 X65.882 Y124.869 E0.01490
G1 X64.767 Y124.161 E0.07834
G1 X64.564 Y124.013 E0.01490
G1 X63.555 Y123.178 E0.07767
G1 X63.372 Y123.006 E0.01490
G1 X62.471 Y122.047 E0.07808
G1 X62.311 Y121.854 E0.01490
G1 X61.537 Y120.789 E0.07809
G1 X61.402 Y120.577 E0.01490
G1 X60.769 Y119.425 E0.07794
G1 X60.662 Y119.198 E0.01490
G1 X60.178 Y117.974 E0.07811
G1 X60.100 Y117.735 E0.01490
G1 X59.772 Y116.458 E0.07821
G1 X59.725 Y116.211 E0.01490
G1 X59.561 Y114.910 E0.07782
G1 X59.545 Y114.659 E0.01490
G1 X59.524 Y114.000 E0.03911
G1 X59.524 Y66.000 E2.84745
G1 X59.561 Y65.090 E0.05400
G1 X59.725 Y63.789 E0.07782
G1 X59.772 Y63.542 E0.01490
G1 X60.100 Y62.265 E0.07821
G1 X60.178 Y62.026 E0.01490
G1 X60.662 Y60.802 E0.07812
G1 X60.769 Y60.575 E0.01490
G1 X61.402 Y59.424 E0.07793
G1 X61.537 Y59.211 E0.01490
G1 X62.433 Y57.999 E0.08942
G1 F6240.000
G1 X63.372 Y56.994 E-0.75409
G1 F6240.000
G1 X63.555 Y56.822 E-0.13765
G1 F6240.000
G1 X64.038 Y56.422 E-0.34326
G1 E-0.06500 F3600.00000
G1 X99.773 Y115.113 F7800.000
G1 E1.30000 F3600.00000
G1 F1080.000
G1 X94.070 Y115.113 E0.33832
G1 X91.548 Y112.591 E0.21159
G1 X91.548 Y106.888 E0.33832
G1 X99.773 Y106.888 E0.48795
G1 X99.773 Y115.053 E0.48436
G1 X99.877 Y115.499 F7800.000
G1 F6240.000
G1 X97.520 Y115.076 E-1.23500
G1 E-0.06500 F3600.00000
G1 X104.361 Y112.955 F7800.000
G1 E1.30000 F3600.00000
G1 F1080.000
G1 X104.227 Y112.584 E0.02341
G1 X104.171 Y112.294 E0.01749
G1 X104.153 Y112.000 E0.01749
G1 X104.171 Y111.706 E0.01749
G1 X104.227 Y111.416 E0.01749
G1 X104.318 Y111.136 E0.01748
G1 X104.443 Y110.869 E0.01748
G1 X104.601 Y110.620 E0.01749
G1 X104.789 Y110.393 E0.01749
G1 X105.004 Y110.191 E0.01749
G1 X105.242 Y110.018 E0.01748
G1 X105.501 Y109.876 E0.01748
G1 X105.775 Y109.768 E0.01748
G1 X106.060 Y109.694 E0.01750
G1 X106.353 Y109.658 E0.01749
G1 X106.647 Y109.658 E0.01747
G1 X106.940 Y109.694 E0.01749
G1 X107.225 Y109.768 E0.01750
G1 X107.499 Y109.876 E0.01748
G1 X107.758 Y110.018 E0.01748
G1 X107.996 Y110.192 E0.01749
G1 X108.211 Y110.393 E0.01748
G1 X108.399 Y110.620 E0.01748
G1 X108.557 Y110.869 E0.01750
G1 X108.682 Y111.136 E0.01748
G1 X108.773 Y111.416 E0.01748
G1 X108.829 Y111.706 E0.01749
G1 X108.847 Y112.000 E0.01749
G1 X108.829 Y112.294 E0.01749
G1 X108.773 Y112.584 E0.01749
G1 X108.682 Y112.864 E0.01748
G1 X108.557 Y113.131 E0.01748
G1 X108.399 Y113.380 E0.01750
G1 X108.211 Y113.607 E0.01748
G1 X107.996 Y113.808 E0.01748
G1 X107.758 Y113.982 E0.01749
G1 X107.499 Y114.124 E0.01748
G1 X107.225 Y114.232 E0.01748
G1 X106.940 Y114.306 E0.01750
G1 X106.647 Y114.342 E0.01749
G1 X106.353 Y114.342 E0.01747
G1 X106.060 Y114.306 E0.01749
G1 X105.775 Y114.232 E0.01750
G1 X105.501 Y114.124 E0.01748
G1 X105.242 Y113.982 E0.01748
G1 X105.004 Y113.809 E0.01748
G1 X104.789 Y113.607 E0.01749
G1 X104.601 Y113.380 E0.01749
G1 X104.386 Y113.009 E0.02540
G1 X104.791 Y112.753 F7800.000
G1 F1080.000
G1 X104.688 Y112.465 E0.01811
G1 X104.644 Y112.234 E0.01394
G1 X104.629 Y112.000 E0.01393
G1 X104.644 Y111.766 E0.01393
G1 X104.688 Y111.535 E0.01394
G1 X104.761 Y111.311 E0.01393
G1 X104.861 Y111.099 E0.01393
G1 X104.987 Y110.901 E0.01394
G1 X105.136 Y110.720 E0.01393
G1 X105.308 Y110.559 E0.01394
G1 X105.498 Y110.421 E0.01394
G1 X105.704 Y110.308 E0.01393
G1 X105.922 Y110.221 E0.01393
G1 X106.150 Y110.163 E0.01394
G1 X106.383 Y110.133 E0.01393
G1 X106.617 Y110.133 E0.01393
G1 X106.850 Y110.163 E0.01393
G1 X107.078 Y110.221 E0.01394
G1 X107.296 Y110.308 E0.01393
G1 X107.502 Y110.421 E0.01393
G1 X107.692 Y110.559 E0.01394
G1 X107.863 Y110.719 E0.01393
G1 X108.013 Y110.900 E0.01393
G1 X108.139 Y111.099 E0.01394
G1 X108.239 Y111.311 E0.01393
G1 X108.312 Y111.535 E0.01393
G1 X108.356 Y111.766 E0.01394
G1 X108.371 Y112.000 E0.01393
G1 X108.356 Y112.234 E0.01393
G1 X108.312 Y112.465 E0.01394
G1 X108.239 Y112.689 E0.01393
G1 X108.139 Y112.901 E0.01393
G1 X108.013 Y113.100 E0.01394
G1 X107.863 Y113.281 E0.01393
G1 X107.692 Y113.441 E0.01393
G1 X107.502 Y113.579 E0.01394
G1 X107.296 Y113.692 E0.01393
G1 X107.078 Y113.779 E0.01393
G1 X106.850 Y113.837 E0.01394
G1 X106.617 Y113.867 E0.01393
G1 X106.383 Y113.867 E0.01393
G1 X106.150 Y113.837 E0.01393
G1 X105.922 Y113.779 E0.01394
G1 X105.704 Y113.692 E0.01393
G1 X105.498 Y113.579 E0.01393
G1 X105.308 Y113.441 E0.01394
G1 X105.136 Y113.280 E0.01394
G1 X104.987 Y113.099 E0.01393
G1 X104.817 Y112.807 E0.02008
G1 X104.720 Y112.748 F7800.000
G1 F6240.000
G1 X104.761 Y112.689 E-0.07168
G1 F6240.000
G1 X104.688 Y112.465 E-0.12872
G1 F6240.000
G1 X104.644 Y112.234 E-0.12877
G1 F6240.000
G1 X104.629 Y112.000 E-0.12874
G1 F6240.000
G1 X104.644 Y111.766 E-0.12874
G1 F6240.000
G1 X104.688 Y111.535 E-0.12877
G1 F6240.000
G1 X104.761 Y111.311 E-0.12872
G1 F6240.000
G1 X104.861 Y111.099 E-0.12873
G1 F6240.000
G1 X104.987 Y110.901 E-0.12877
G1 F6240.000
G1 X105.136 Y110.720 E-0.12873
G1 F6240.000
G1 X105.143 Y110.714 E-0.00463
G1 E-0.06500 F3600.00000
G1 X106.060 Y102.806 F7800.000
G1 E1.30000 F3600.00000
G1 F1080.000
G1 X105.775 Y102.732 E0.01750
G1 X105.501 Y102.624 E0.01748
G1 X105.242 Y102.482 E0.01748
G1 X105.004 Y102.308 E0.01749
G1 X104.789 Y102.107 E0.01748
G1 X104.601 Y101.880 E0.01748
G1 X104.443 Y101.631 E0.01750
G1 X104.318 Y101.364 E0.01748
G1 X104.227 Y101.084 E0.01748
G1 X104.171 Y100.794 E0.01749
G1 X104.153 Y100.500 E0.01749
G1 X104.171 Y100.206 E0.01749
G1 X104.227 Y99.916 E0.01749
G1 X104.318 Y99.636 E0.01747
G1 X104.443 Y99.369 E0.01749
G1 X104.601 Y99.120 E0.01749
G1 X104.789 Y98.893 E0.01748
G1 X105.004 Y98.692 E0.01748
G1 X105.242 Y98.518 E0.01749
G1 X105.501 Y98.376 E0.01748
G1 X105.775 Y98.268 E0.01748
G1 X106.060 Y98.194 E0.01748
G1 X106.353 Y98.158 E0.01748
G1 X106.647 Y98.158 E0.01749
G1 X106.940 Y98.194 E0.01748
G1 X107.225 Y98.268 E0.01748
G1 X107.499 Y98.376 E0.01748
G1 X107.758 Y98.518 E0.01748
G1 X107.996 Y98.692 E0.01749
G1 X108.211 Y98.893 E0.01748
G1 X108.399 Y99.120 E0.01748
G1 X108.557 Y99.369 E0.01749
G1 X108.682 Y99.636 E0.01749
G1 X108.773 Y99.916 E0.01747
G1 X108.829 Y100.206 E0.01749
G1 X108.847 Y100.500 E0.01749
G1 X108.829 Y100.794 E0.01749
G1 X108.773 Y101.084 E0.01749
G1 X108.682 Y101.364 E0.01748
G1 X108.557 Y101.631 E0.01748
G1 X108.399 Y101.880 E0.01750
G1 X108.211 Y102.107 E0.01748
G1 X107.996 Y102.308 E0.01748
G1 X107.758 Y102.482 E0.01749
G1 X107.499 Y102.624 E0.01748
G1 X107.225 Y102.732 E0.01748
G1 X106.940 Y102.806 E0.01750
G1 X106.647 Y102.842 E0.01749
G1 X106.353 Y102.842 E0.01747
G1 X106.120 Y102.813 E0.01393
G1 X106.150 Y102.337 F7800.000
G1 F1080.000
G1 X105.922 Y102.279 E0.01394
G1 X105.704 Y102.192 E0.01393
G1 X105.498 Y102.079 E0.01393
G1 X105.308 Y101.941 E0.01394
G1 X105.137 Y101.781 E0.01393
G1 X104.987 Y101.600 E0.01393
G1 X104.861 Y101.401 E0.01394
G1 X104.761 Y101.189 E0.01393
G1 X104.688 Y100.965 E0.01393
G1 X104.644 Y100.734 E0.01394
G1 X104.629 Y100.500 E0.01393
G1 X104.644 Y100.266 E0.01393
G1 X104.688 Y100.035 E0.01394
G1 X104.761 Y99.811 E0.01393
G1 X104.861 Y99.599 E0.01394
G1 X104.987 Y99.400 E0.01394
G1 X105.136 Y99.220 E0.01393
G1 X105.308 Y99.059 E0.01393
G1 X105.498 Y98.921 E0.01394
G1 X105.704 Y98.807 E0.01393
G1 X105.922 Y98.721 E0.01393
G1 X106.149 Y98.663 E0.01393
G1 X106.383 Y98.633 E0.01393
G1 X106.617 Y98.633 E0.01394
G1 X106.850 Y98.663 E0.01393
G1 X107.078 Y98.721 E0.01393
G1 X107.296 Y98.807 E0.01393
G1 X107.502 Y98.921 E0.01393
G1 X107.692 Y99.059 E0.01394
G1 X107.864 Y99.220 E0.01393
G1 X108.013 Y99.400 E0.01393
G1 X108.139 Y99.599 E0.01394
G1 X108.239 Y99.811 E0.01394
G1 X108.312 Y100.035 E0.01393
G1 X108.356 Y100.266 E0.01394
G1 X108.371 Y100.500 E0.01393
G1 X108.356 Y100.734 E0.01393
G1 X108.312 Y100.965 E0.01394
G1 X108.239 Y101.189 E0.01393
G1 X108.139 Y101.401 E0.01393
G1 X108.013 Y101.600 E0.01394
G1 X107.863 Y101.781 E0.01393
G1 X107.692 Y101.941 E0.01393
G1 X107.502 Y102.079 E0.01394
G1 X107.296 Y102.192 E0.01393
G1 X107.078 Y102.279 E0.01393
G1 X106.850 Y102.337 E0.01394
G1 X106.617 Y102.367 E0.01393
G1 X106.383 Y102.367 E0.01393
G1 X106.209 Y102.345 E0.01037
G1 X106.150 Y102.337 F7800.000
G1 F6240.000
G1 X106.150 Y102.337 E-0.03288
G1 F6240.000
G1 X105.922 Y102.279 E-0.12878
G1 F6240.000
G1 X105.704 Y102.192 E-0.12873
G1 F6240.000
G1 X105.498 Y102.079 E-0.12873
G1 F6240.000
G1 X105.308 Y101.941 E-0.12878
G1 F6240.000
G1 X105.137 Y101.781 E-0.12869
G1 F6240.000
G1 X104.987 Y101.600 E-0.12874
G1 F6240.000
G1 X104.861 Y101.401 E-0.12881
G1 F6240.000
G1 X104.761 Y101.189 E-0.12873
G1 F6240.000
G1 X104.688 Y100.965 E-0.12872
G1 F6240.000
G1 X104.673 Y100.887 E-0.04341
G1 E-0.06500 F3600.00000
G1 X90.773 Y109.079 F7800.000
G1 E1.30000 F3600.00000
G1 F1080.000
G1 X90.773 Y112.927 E0.22828
G1 X89.201 Y112.927 E0.09324
G1 X88.997 Y112.981 E0.01250
G1 X88.733 Y112.996 E0.01568
G1 X88.359 Y112.953 E0.02234
G1 X88.131 Y112.858 E0.01465
G1 X87.865 Y112.951 E0.01674
G1 X87.493 Y112.996 E0.02220
G1 X87.180 Y112.976 E0.01860
G1 X86.898 Y112.911 E0.01719
G1 X86.898 Y113.885 E0.05780
G1 X84.802 Y113.885 E0.12434
G1 X84.802 Y112.891 E0.05899
G1 X84.306 Y112.960 E0.02969
G1 X83.939 Y112.976 E0.02179
G1 X83.344 Y112.914 E0.03549
G1 X83.344 Y113.870 E0.05671
G1 X81.240 Y113.870 E0.12481
G1 X81.240 Y112.975 E0.05312
G1 X81.024 Y112.955 E0.01289
G1 X80.664 Y112.844 E0.02234
G1 X80.260 Y112.563 E0.02923
G1 X80.026 Y112.259 E0.02275
G1 X79.878 Y111.937 E0.02100
G1 X79.790 Y111.589 E0.02132
G1 X79.748 Y111.056 E0.03172
G1 X79.807 Y110.475 E0.03460
G1 X79.934 Y110.083 E0.02448
G1 X80.125 Y109.754 E0.02253
G1 X80.282 Y109.569 E0.01442
G1 X80.581 Y109.316 E0.02327
G1 X81.076 Y109.095 E0.03211
G1 X81.481 Y109.027 E0.02438
G1 X82.017 Y109.036 E0.03181
G1 X82.292 Y109.074 E0.01646
G1 X84.053 Y109.074 E0.10448
G1 X84.168 Y109.046 E0.00700
G1 X84.636 Y109.056 E0.02782
G1 X84.802 Y109.099 E0.01015
G1 X84.802 Y109.029 E0.00417
G1 X86.898 Y109.029 E0.12434
G1 X86.898 Y109.079 E0.00298
G1 X90.713 Y109.079 E0.22630
G1 X90.297 Y109.555 F7800.000
G1 F1080.000
G1 X90.297 Y112.451 E0.17185
G1 X89.335 Y112.451 E0.05707
G1 X89.324 Y112.403 E0.00295
G1 X88.923 Y112.509 E0.02463
G1 X88.747 Y112.518 E0.01045
G1 X88.480 Y112.488 E0.01592
G1 X88.246 Y112.390 E0.01507
