; generated by Slic3r 1.3.1-dev (Build 2d100c4) on 2020-05-15 at 06:24:12

; external perimeters extrusion width = 0.44mm (3.91mm^3/s)
; perimeters extrusion width = 0.56mm (5.65mm^3/s)
; infill extrusion width = 0.50mm (5.02mm^3/s)
; solid infill extrusion width = 0.56mm (5.65mm^3/s)
; top infill extrusion width = 0.56mm (5.65mm^3/s)

M107
M190 S60 ; set bed temperature and wait for it to be reached
M104 S215 ; set temperature
G28 ; home all axes
G92 E0.0 ; reset extruder
; Filament gcode

M109 S215 ; set temperature and wait for it to be reached
G21 ; set units to millimeters
G90 ; use absolute coordinates
M83 ; use relative distances for extrusion
G1 E-1.30000 F3600.00000
G1 Z0.300 F7800.000
G1 X73.116 Y55.707 F7800.000
G1 E1.30000 F3600.00000
M201 X500 Y500
M204 P500 T500
G1 F2160.000
G1 X74.924 Y53.372 E0.17519
G1 X77.290 Y51.605 E0.17519
G1 X80.042 Y50.534 E0.17519
G1 X82.600 Y50.232 E0.15279
G1 X97.400 Y50.232 E0.87796
G1 X100.326 Y50.630 E0.17519
G1 X103.040 Y51.795 E0.17519
G1 X105.343 Y53.644 E0.17519
G1 X106.884 Y55.707 E0.15279
G1 X114.284 Y68.524 E0.87797
G1 X115.402 Y71.258 E0.17519
G1 X115.751 Y74.000 E0.16400
G1 X115.751 Y106.000 E1.89830
G1 X115.353 Y108.926 E0.17519
G1 X114.284 Y111.476 E0.16400
G1 X106.884 Y124.293 E0.87797
G1 X105.076 Y126.628 E0.17519
G1 X102.710 Y128.395 E0.17519
G1 X99.958 Y129.466 E0.17519
G1 X97.400 Y129.768 E0.15279
G1 X82.600 Y129.768 E0.87796
G1 X79.674 Y129.370 E0.17519
G1 X76.960 Y128.205 E0.17519
G1 X74.657 Y126.356 E0.17519
G1 X73.116 Y124.293 E0.15279
G1 X65.716 Y111.476 E0.87797
G1 X64.598 Y108.742 E0.17519
G1 X64.249 Y106.000 E0.16400
G1 X64.249 Y74.000 E1.89830
G1 X64.647 Y71.074 E0.17519
G1 X65.716 Y68.524 E0.16400
G1 X73.086 Y55.759 E0.87441
G1 X73.528 Y55.945 F7800.000
G1 F2160.000
G1 X75.303 Y53.667 E0.17132
G1 X77.632 Y51.960 E0.17132
G1 X80.340 Y50.954 E0.17132
G1 X82.600 Y50.707 E0.13489
G1 X97.400 Y50.707 E0.87796
G1 X100.260 Y51.105 E0.17132
G1 X102.903 Y52.269 E0.17132
G1 X105.128 Y54.111 E0.17132
G1 X106.472 Y55.945 E0.13489
G1 X113.872 Y68.762 E0.87797
G1 X114.958 Y71.438 E0.17132
G1 X115.276 Y74.000 E0.15312
G1 X115.276 Y106.000 E1.89830
G1 X114.878 Y108.860 E0.17132
G1 X113.872 Y111.238 E0.15312
G1 X106.472 Y124.055 E0.87797
G1 X104.697 Y126.333 E0.17132
G1 X102.368 Y128.040 E0.17132
G1 X99.660 Y129.046 E0.17132
G1 X97.400 Y129.293 E0.13489
G1 X82.600 Y129.293 E0.87796
G1 X79.740 Y128.895 E0.17132
G1 X77.097 Y127.731 E0.17132
G1 X74.872 Y125.889 E0.17132
G1 X73.528 Y124.055 E0.13489
G1 X66.128 Y111.238 E0.87797
G1 X65.042 Y108.562 E0.17132
G1 X64.724 Y106.000 E0.15312
G1 X64.724 Y74.000 E1.89830
G1 X65.122 Y71.140 E0.17132
G1 X66.128 Y68.762 E0.15312
G1 X73.498 Y55.997 E0.87441
G1 F6240.000
G1 X74.878 Y54.216 E-1.23500
G1 E-0.06500 F3600.00000
G1 X103.939 Y106.000 F7800.000
G1 E1.30000 F3600.00000
G1 F1620.000
G1 X96.970 Y118.072 E0.82689
G1 X92.745 Y118.072 E0.25058
G1 X92.742 Y105.827 E0.72635
G1 X92.698 Y105.485 E0.02046
G1 X92.613 Y105.151 E0.02046
G1 X92.486 Y104.830 E0.02047
G1 X92.319 Y104.528 E0.02047
G1 X92.117 Y104.249 E0.02046
G1 X91.881 Y103.997 E0.02046
G1 X91.615 Y103.778 E0.02046
G1 X91.324 Y103.593 E0.02046
G1 X91.011 Y103.446 E0.02047
G1 X90.672 Y103.336 E0.02117
G1 X90.184 Y103.258 E0.02929
G1 X89.827 Y103.258 E0.02117
G1 X89.485 Y103.302 E0.02047
G1 X89.151 Y103.387 E0.02046
G1 X88.830 Y103.514 E0.02046
G1 X88.528 Y103.681 E0.02047
G1 X88.249 Y103.883 E0.02047
G1 X87.997 Y104.119 E0.02046
G1 X87.770 Y104.394 E0.02116
G1 X87.519 Y104.819 E0.02930
G1 X87.387 Y105.151 E0.02117
G1 X87.299 Y105.497 E0.02116
G1 X87.254 Y105.965 E0.02790
G1 X87.254 Y118.072 E0.71819
G1 X83.030 Y118.072 E0.25057
G1 X76.061 Y106.000 E0.82689
G1 X83.030 Y93.928 E0.82689
G1 X96.970 Y93.928 E0.82689
G1 X103.909 Y105.948 E0.82333
G1 X104.488 Y106.000 F7800.000
G1 F1458.000
G1 X97.244 Y118.547 E0.85947
G1 X92.270 Y118.547 E0.29508
G1 X92.266 Y105.857 E0.75278
G1 X92.230 Y105.574 E0.01691
G1 X92.159 Y105.298 E0.01691
G1 X92.054 Y105.033 E0.01692
G1 X91.917 Y104.783 E0.01692
G1 X91.749 Y104.553 E0.01691
G1 X91.554 Y104.345 E0.01691
G1 X91.335 Y104.163 E0.01691
G1 X91.094 Y104.010 E0.01691
G1 X90.836 Y103.889 E0.01692
G1 X90.561 Y103.799 E0.01717
G1 X90.147 Y103.734 E0.02485
G1 X89.857 Y103.734 E0.01717
G1 X89.575 Y103.770 E0.01692
G1 X89.298 Y103.841 E0.01691
G1 X89.033 Y103.945 E0.01691
G1 X88.783 Y104.083 E0.01692
G1 X88.553 Y104.251 E0.01692
G1 X88.345 Y104.446 E0.01691
G1 X88.160 Y104.669 E0.01717
G1 X87.947 Y105.029 E0.02485
G1 X87.841 Y105.298 E0.01717
G1 X87.769 Y105.579 E0.01716
G1 X87.730 Y105.987 E0.02435
G1 X87.730 Y118.547 E0.74508
G1 X82.756 Y118.547 E0.29507
G1 X75.512 Y106.000 E0.85947
G1 X82.756 Y93.453 E0.85947
G1 X97.244 Y93.453 E0.85947
G1 X104.458 Y105.948 E0.85591
G1 X104.142 Y106.200 F7800.000
G1 F6240.000
G1 X103.339 Y107.904 E-1.23500
G1 E-0.06500 F3600.00000
G1 X96.644 Y117.646 F7800.000
G1 E1.30000 F3600.00000
G1 F1620.000
G1 X96.746 Y117.545 E0.00855
G1 X97.671 Y115.942 E0.11058
G1 X95.967 Y117.646 E0.14398
G1 X95.289 Y117.646 E0.04047
G1 X98.596 Y114.340 E0.27941
G1 X99.522 Y112.737 E0.11058
G1 X94.612 Y117.646 E0.41484
G1 X93.935 Y117.646 E0.04047
G1 X100.447 Y111.134 E0.55027
G1 X101.373 Y109.531 E0.11058
G1 X93.257 Y117.646 E0.68569
G1 X93.170 Y117.646 E0.00518
G1 X93.170 Y117.056 E0.03528
G1 X102.298 Y107.928 E0.77123
G1 X103.223 Y106.325 E0.11058
G1 X93.170 Y116.379 E0.84944
G1 X93.170 Y115.701 E0.04046
G1 X103.250 Y105.621 E0.85175
G1 X103.003 Y105.191 E0.02963
G1 X93.170 Y115.024 E0.83082
G1 X93.169 Y114.347 E0.04046
G1 X102.755 Y104.762 E0.80989
G1 X102.507 Y104.332 E0.02963
G1 X93.169 Y113.670 E0.78895
G1 X93.169 Y112.993 E0.04046
G1 X102.259 Y103.903 E0.76802
G1 X102.011 Y103.473 E0.02963
G1 X93.169 Y112.315 E0.74709
G1 X93.169 Y111.638 E0.04046
G1 X101.763 Y103.044 E0.72615
G1 X101.515 Y102.614 E0.02963
G1 X93.168 Y110.961 E0.70522
G1 X93.168 Y110.284 E0.04046
G1 X101.267 Y102.185 E0.68429
G1 X101.019 Y101.756 E0.02963
G1 X93.168 Y109.606 E0.66335
G1 X93.168 Y108.929 E0.04046
G1 X100.771 Y101.326 E0.64242
G1 X100.523 Y100.897 E0.02963
G1 X93.168 Y108.252 E0.62149
G1 X93.167 Y107.575 E0.04046
G1 X100.275 Y100.467 E0.60055
G1 X100.027 Y100.038 E0.02963
G1 X93.167 Y106.898 E0.57962
G1 X93.167 Y106.220 E0.04046
G1 X99.779 Y99.608 E0.55869
G1 X99.531 Y99.179 E0.02963
G1 X93.133 Y105.577 E0.54063
G1 X93.116 Y105.446 E0.00788
G1 X93.005 Y105.028 E0.02589
G1 X99.283 Y98.749 E0.53048
G1 X99.035 Y98.320 E0.02963
G1 X92.799 Y104.556 E0.52690
G1 X92.671 Y104.323 E0.01586
G1 X92.538 Y104.140 E0.01355
G1 X98.787 Y97.890 E0.52803
G1 X98.539 Y97.461 E0.02963
G1 X92.226 Y103.774 E0.53346
G1 X91.864 Y103.459 E0.02869
G1 X98.291 Y97.031 E0.54308
G1 X98.043 Y96.602 E0.02963
G1 X91.446 Y103.199 E0.55742
G1 X91.136 Y103.053 E0.02046
G1 X90.969 Y102.999 E0.01052
G1 X97.795 Y96.172 E0.57679
G1 X97.547 Y95.743 E0.02963
G1 X90.418 Y102.872 E0.60239
G1 X90.171 Y102.833 E0.01493
G1 X89.780 Y102.833 E0.02339
G1 X97.299 Y95.313 E0.63537
G1 X97.052 Y94.884 E0.02963
G1 X88.949 Y102.986 E0.68460
G1 X88.577 Y103.134 E0.02390
G1 X88.222 Y103.329 E0.02420
G1 X87.895 Y103.567 E0.02419
G1 X87.600 Y103.844 E0.02418
G1 X87.329 Y104.170 E0.02534
G1 X87.040 Y104.660 E0.03398
G1 X86.885 Y105.050 E0.02506
G1 X79.973 Y111.962 E0.58406
G1 X79.725 Y111.533 E0.02963
G1 X96.804 Y94.454 E1.44303
G1 X96.745 Y94.354 E0.00696
G1 X96.227 Y94.354 E0.03097
G1 X79.477 Y111.103 E1.41526
G1 X79.229 Y110.674 E0.02963
G1 X95.550 Y94.354 E1.37897
G1 X94.872 Y94.354 E0.04047
G1 X78.981 Y110.245 E1.34268
G1 X78.733 Y109.815 E0.02963
G1 X94.195 Y94.354 E1.30639
G1 X93.517 Y94.354 E0.04047
G1 X78.485 Y109.386 E1.27011
G1 X78.237 Y108.956 E0.02963
G1 X92.840 Y94.354 E1.23382
G1 X92.162 Y94.354 E0.04047
G1 X77.989 Y108.527 E1.19753
G1 X77.741 Y108.097 E0.02963
G1 X91.485 Y94.354 E1.16124
G1 X90.807 Y94.354 E0.04047
G1 X77.493 Y107.668 E1.12495
G1 X77.245 Y107.238 E0.02963
G1 X90.130 Y94.354 E1.08867
G1 X89.453 Y94.354 E0.04047
G1 X76.997 Y106.809 E1.05238
G1 X76.750 Y106.379 E0.02963
G1 X88.775 Y94.354 E1.01609
G1 X88.098 Y94.354 E0.04047
G1 X76.777 Y105.675 E0.95656
G1 X77.702 Y104.072 E0.11058
G1 X87.420 Y94.354 E0.82113
G1 X86.743 Y94.354 E0.04047
G1 X78.627 Y102.469 E0.68570
G1 X79.553 Y100.866 E0.11058
G1 X86.065 Y94.354 E0.55027
G1 X85.388 Y94.354 E0.04047
G1 X80.478 Y99.263 E0.41485
G1 X81.404 Y97.661 E0.11058
G1 X84.711 Y94.354 E0.27942
G1 X84.033 Y94.354 E0.04047
G1 X82.329 Y96.058 E0.14399
G1 X83.254 Y94.455 E0.11058
G1 X83.356 Y94.354 E0.00856
G1 F6240.000
G1 X83.254 Y94.455 E-0.07854
G1 F6240.000
G1 X82.329 Y96.058 E-1.01437
G1 F6240.000
G1 X82.512 Y95.874 E-0.14209
G1 E-0.06500 F3600.00000
G1 X79.973 Y111.962 F7800.000
G1 E1.30000 F3600.00000
G1 F1620.000
G1 X80.221 Y112.392 E0.02963
G1 X86.841 Y105.772 E0.55931
G1 X86.829 Y106.461 E0.04116
G1 X80.469 Y112.821 E0.53741
G1 X80.717 Y113.251 E0.02963
G1 X86.829 Y107.138 E0.51646
G1 X86.829 Y107.816 E0.04047
G1 X80.965 Y113.680 E0.49551
G1 X81.213 Y114.110 E0.02963
G1 X86.829 Y108.493 E0.47455
G1 X86.829 Y109.171 E0.04047
G1 X81.461 Y114.539 E0.45360
G1 X81.709 Y114.969 E0.02963
G1 X86.829 Y109.848 E0.43265
G1 X86.829 Y110.526 E0.04047
G1 X81.957 Y115.398 E0.41170
G1 X82.205 Y115.828 E0.02963
G1 X86.829 Y111.203 E0.39075
G1 X86.829 Y111.881 E0.04047
G1 X82.453 Y116.257 E0.36980
G1 X82.701 Y116.687 E0.02963
G1 X86.829 Y112.558 E0.34885
G1 X86.829 Y113.235 E0.04047
G1 X82.948 Y117.116 E0.32790
G1 X83.196 Y117.546 E0.02963
G1 X86.829 Y113.913 E0.30695
G1 X86.829 Y114.590 E0.04047
G1 X83.773 Y117.646 E0.25823
G1 X84.451 Y117.646 E0.04047
G1 X86.829 Y115.268 E0.20099
G1 X86.829 Y115.945 E0.04047
G1 X85.128 Y117.646 E0.14375
G1 X85.805 Y117.646 E0.04047
G1 X86.829 Y116.623 E0.08651
G1 X86.829 Y117.300 E0.04047
G1 X86.483 Y117.646 E0.02927
G1 F6240.000
G1 X86.829 Y117.300 E-0.26851
G1 F6240.000
G1 X86.829 Y116.623 E-0.37129
G1 F6240.000
G1 X86.061 Y117.390 E-0.59520
G1 E-0.06500 F3600.00000
G1 X96.970 Y86.072 F7800.000
G1 E1.30000 F3600.00000
G1 F1620.000
G1 X92.745 Y86.072 E0.25058
G1 X92.742 Y73.827 E0.72635
G1 X92.698 Y73.485 E0.02046
G1 X92.613 Y73.151 E0.02046
G1 X92.486 Y72.830 E0.02047
G1 X92.319 Y72.528 E0.02046
G1 X92.117 Y72.249 E0.02046
G1 X91.881 Y71.997 E0.02047
G1 X91.615 Y71.778 E0.02046
G1 X91.323 Y71.593 E0.02046
G1 X91.011 Y71.446 E0.02046
G1 X90.683 Y71.339 E0.02047
G1 X90.344 Y71.275 E0.02047
G1 X90.000 Y71.253 E0.02046
G1 X89.656 Y71.275 E0.02046
G1 X89.305 Y71.341 E0.02116
G1 X88.841 Y71.509 E0.02929
G1 X88.528 Y71.681 E0.02116
G1 X88.239 Y71.890 E0.02116
G1 X87.890 Y72.239 E0.02930
G1 X87.681 Y72.528 E0.02116
G1 X87.514 Y72.830 E0.02046
G1 X87.387 Y73.151 E0.02047
G1 X87.299 Y73.497 E0.02116
G1 X87.254 Y73.965 E0.02790
G1 X87.254 Y86.072 E0.71820
G1 X83.030 Y86.072 E0.25057
G1 X76.061 Y74.000 E0.82689
G1 X83.030 Y61.928 E0.82689
G1 X96.970 Y61.928 E0.82689
G1 X103.939 Y74.000 E0.82689
G1 X97.000 Y86.020 E0.82333
G1 X97.244 Y86.547 F7800.000
G1 F1458.000
G1 X92.270 Y86.547 E0.29508
G1 X92.266 Y73.857 E0.75278
G1 X92.230 Y73.575 E0.01691
G1 X92.159 Y73.298 E0.01691
G1 X92.054 Y73.033 E0.01692
G1 X91.917 Y72.783 E0.01691
G1 X91.749 Y72.553 E0.01691
G1 X91.554 Y72.345 E0.01692
G1 X91.335 Y72.163 E0.01691
G1 X91.094 Y72.010 E0.01691
G1 X90.836 Y71.889 E0.01691
G1 X90.565 Y71.801 E0.01692
G1 X90.285 Y71.747 E0.01692
G1 X90.000 Y71.729 E0.01691
G1 X89.715 Y71.747 E0.01691
G1 X89.431 Y71.802 E0.01717
G1 X89.037 Y71.944 E0.02485
G1 X88.783 Y72.083 E0.01717
G1 X88.549 Y72.253 E0.01717
G1 X88.253 Y72.549 E0.02485
G1 X88.083 Y72.783 E0.01717
G1 X87.946 Y73.033 E0.01691
G1 X87.841 Y73.298 E0.01691
G1 X87.769 Y73.579 E0.01717
G1 X87.730 Y73.987 E0.02435
G1 X87.730 Y86.547 E0.74508
G1 X82.756 Y86.547 E0.29507
G1 X75.512 Y74.000 E0.85947
G1 X82.756 Y61.453 E0.85947
G1 X97.244 Y61.453 E0.85947
G1 X104.488 Y74.000 E0.85947
G1 X97.274 Y86.495 E0.85591
G1 X96.898 Y86.347 F7800.000
G1 X96.644 Y85.646 F7800.000
G1 F1620.000
G1 X96.746 Y85.545 E0.00855
G1 X97.671 Y83.942 E0.11058
G1 X95.967 Y85.646 E0.14398
G1 X95.289 Y85.646 E0.04047
G1 X98.596 Y82.340 E0.27941
G1 X99.522 Y80.737 E0.11058
G1 X94.612 Y85.646 E0.41484
G1 X93.935 Y85.646 E0.04047
G1 X100.447 Y79.134 E0.55027
G1 X101.373 Y77.531 E0.11058
G1 X93.257 Y85.646 E0.68569
G1 X93.170 Y85.646 E0.00518
G1 X93.170 Y85.056 E0.03528
G1 X102.298 Y75.928 E0.77123
G1 X103.223 Y74.325 E0.11058
G1 X93.170 Y84.379 E0.84944
G1 X93.170 Y83.701 E0.04046
G1 X103.250 Y73.621 E0.85175
G1 X103.003 Y73.191 E0.02963
G1 X93.170 Y83.024 E0.83082
G1 X93.169 Y82.347 E0.04046
G1 X102.755 Y72.762 E0.80989
G1 X102.507 Y72.332 E0.02963
G1 X93.169 Y81.670 E0.78895
G1 X93.169 Y80.993 E0.04046
G1 X102.259 Y71.903 E0.76802
G1 X102.011 Y71.473 E0.02963
G1 X93.169 Y80.315 E0.74709
G1 X93.169 Y79.638 E0.04046
G1 X101.763 Y71.044 E0.72615
G1 X101.515 Y70.614 E0.02963
G1 X93.168 Y78.961 E0.70522
G1 X93.168 Y78.284 E0.04046
G1 X101.267 Y70.185 E0.68429
G1 X101.019 Y69.756 E0.02963
G1 X93.168 Y77.606 E0.66335
G1 X93.168 Y76.929 E0.04046
G1 X100.771 Y69.326 E0.64242
G1 X100.523 Y68.897 E0.02963
G1 X93.168 Y76.252 E0.62149
G1 X93.167 Y75.575 E0.04046
G1 X100.275 Y68.467 E0.60055
G1 X100.027 Y68.038 E0.02963
G1 X93.167 Y74.898 E0.57962
G1 X93.167 Y74.220 E0.04046
G1 X99.779 Y67.608 E0.55869
G1 X99.531 Y67.179 E0.02963
G1 X93.133 Y73.577 E0.54063
G1 X93.116 Y73.446 E0.00787
G1 X93.005 Y73.028 E0.02589
G1 X99.283 Y66.749 E0.53048
G1 X99.035 Y66.320 E0.02963
G1 X92.799 Y72.556 E0.52690
G1 X92.671 Y72.323 E0.01585
G1 X92.538 Y72.140 E0.01356
G1 X98.787 Y65.890 E0.52803
G1 X98.539 Y65.461 E0.02963
G1 X92.226 Y71.774 E0.53346
G1 X91.864 Y71.459 E0.02869
G1 X98.291 Y65.031 E0.54307
G1 X98.043 Y64.602 E0.02963
G1 X91.446 Y71.199 E0.55742
G1 X91.136 Y71.053 E0.02046
G1 X90.969 Y70.999 E0.01051
G1 X97.795 Y64.172 E0.57680
G1 X97.547 Y63.743 E0.02963
G1 X90.425 Y70.866 E0.60184
G1 X89.950 Y70.827 E0.02847
G1 X89.775 Y70.838 E0.01045
G1 X97.299 Y63.313 E0.63577
G1 X97.052 Y62.884 E0.02963
G1 X88.933 Y71.002 E0.68594
G1 X88.594 Y71.124 E0.02155
G1 X88.222 Y71.329 E0.02534
G1 X87.879 Y71.578 E0.02534
G1 X87.477 Y71.980 E0.03398
G1 X87.228 Y72.323 E0.02534
G1 X87.033 Y72.678 E0.02418
G1 X86.885 Y73.050 E0.02391
G1 X79.973 Y79.962 E0.58405
G1 X79.725 Y79.533 E0.02963
G1 X96.804 Y62.454 E1.44303
G1 X96.745 Y62.354 E0.00696
G1 X96.227 Y62.354 E0.03097
G1 X79.477 Y79.103 E1.41526
G1 X79.229 Y78.674 E0.02963
G1 X95.550 Y62.354 E1.37897
G1 X94.872 Y62.354 E0.04047
G1 X78.981 Y78.245 E1.34268
G1 X78.733 Y77.815 E0.02963
G1 X94.195 Y62.354 E1.30639
G1 X93.517 Y62.354 E0.04047
G1 X78.485 Y77.386 E1.27011
G1 X78.237 Y76.956 E0.02963
G1 X92.840 Y62.354 E1.23382
G1 X92.162 Y62.354 E0.04047
G1 X77.989 Y76.527 E1.19753
G1 X77.741 Y76.097 E0.02963
G1 X91.485 Y62.354 E1.16124
G1 X90.807 Y62.354 E0.04047
G1 X77.493 Y75.668 E1.12495
G1 X77.245 Y75.238 E0.02963
G1 X90.130 Y62.354 E1.08867
G1 X89.453 Y62.354 E0.04047
G1 X76.997 Y74.809 E1.05238
G1 X76.750 Y74.379 E0.02963
G1 X88.775 Y62.354 E1.01609
G1 X88.098 Y62.354 E0.04047
G1 X76.777 Y73.675 E0.95656
G1 X77.702 Y72.072 E0.11058
G1 X87.420 Y62.354 E0.82113
G1 X86.743 Y62.354 E0.04047
G1 X78.627 Y70.469 E0.68570
G1 X79.553 Y68.866 E0.11058
G1 X86.065 Y62.354 E0.55027
G1 X85.388 Y62.354 E0.04047
G1 X80.478 Y67.263 E0.41485
G1 X81.404 Y65.661 E0.11058
G1 X84.711 Y62.354 E0.27942
G1 X84.033 Y62.354 E0.04047
G1 X82.329 Y64.058 E0.14399
G1 X83.254 Y62.455 E0.11058
G1 X83.356 Y62.354 E0.00856
G1 F6240.000
G1 X83.254 Y62.455 E-0.07854
G1 F6240.000
G1 X82.329 Y64.058 E-1.01437
G1 F6240.000
G1 X82.512 Y63.874 E-0.14209
G1 E-0.06500 F3600.00000
G1 X79.973 Y79.962 F7800.000
G1 E1.30000 F3600.00000
G1 F1620.000
G1 X80.221 Y80.392 E0.02963
G1 X86.841 Y73.772 E0.55931
G1 X86.829 Y74.461 E0.04116
G1 X80.469 Y80.821 E0.53741
G1 X80.717 Y81.251 E0.02963
G1 X86.829 Y75.138 E0.51646
G1 X86.829 Y75.816 E0.04047
G1 X80.965 Y81.680 E0.49551
G1 X81.213 Y82.110 E0.02963
G1 X86.829 Y76.493 E0.47455
G1 X86.829 Y77.171 E0.04047
G1 X81.461 Y82.539 E0.45360
G1 X81.709 Y82.969 E0.02963
G1 X86.829 Y77.848 E0.43265
G1 X86.829 Y78.526 E0.04047
G1 X81.957 Y83.398 E0.41170
G1 X82.205 Y83.828 E0.02963
