; generated by Slic3r 1.2.9 on 2020-05-14 at 22:32:08

; external perimeters extrusion width = 0.40mm
; perimeters extrusion width = 0.56mm
; infill extrusion width = 0.56mm
; solid infill extrusion width = 0.56mm
; top infill extrusion width = 0.56mm

M107
M190 S60 ; set bed temperature
M104 S215 ; set temperature
G28 ; home all axes
G92 E0.0 ; reset extruder
M109 S215 ; wait for temperature to be reached
G21 ; set units to millimeters
G90 ; use absolute coordinates
M83 ; use relative distances for extrusion
G1 E-1.30000 F3600.00000
G1 Z0.300 F7800.000
G1 X83.772 Y64.860 F7800.000
G1 E1.30000 F3600.00000
M204 S500
G1 X84.924 Y63.372 E0.11165 F2160.000
G1 X87.290 Y61.605 E0.17519
G1 X90.042 Y60.534 E0.17519
G1 X92.600 Y60.232 E0.15279
G1 X107.400 Y60.232 E0.87796
G1 X110.326 Y60.630 E0.17519
G1 X113.040 Y61.795 E0.17519 F2160.000
G1 X115.343 Y63.644 E0.17519
G1 X116.884 Y65.707 E0.15279
G1 X124.284 Y78.524 E0.87797
G1 X125.402 Y81.258 E0.17519
G1 X125.751 Y84.000 E0.16400
G1 X125.751 Y116.000 E1.89830
G1 X125.353 Y118.926 E0.17519
G1 X124.284 Y121.476 E0.16400
G1 X116.884 Y134.293 E0.87796
G1 X115.076 Y136.628 E0.17519
G1 X112.710 Y138.395 E0.17519
G1 X109.958 Y139.466 E0.17519
G1 X107.400 Y139.768 E0.15279
G1 X92.600 Y139.768 E0.87796
G1 X89.674 Y139.370 E0.17519
G1 X86.960 Y138.205 E0.17519
G1 X84.657 Y136.356 E0.17519
G1 X83.116 Y134.293 E0.15279
G1 X75.716 Y121.476 E0.87797
G1 X74.598 Y118.742 E0.17519
G1 X74.249 Y116.000 E0.16400
G1 X74.249 Y84.000 E1.89830
G1 X74.647 Y81.074 E0.17519
G1 X75.716 Y78.524 E0.16400
G1 X83.116 Y65.707 E0.87797
G1 X83.735 Y64.908 E0.05998
G1 X84.146 Y65.152 F7800.000
G1 X85.303 Y63.667 E0.11167 F2160.000
G1 X87.632 Y61.960 E0.17132
G1 X90.340 Y60.954 E0.17132
G1 X92.600 Y60.707 E0.13489
G1 X107.400 Y60.707 E0.87796
G1 X110.260 Y61.105 E0.17132
G1 X112.903 Y62.269 E0.17132 F2160.000
G1 X115.128 Y64.111 E0.17132
G1 X116.472 Y65.945 E0.13489
G1 X123.872 Y78.762 E0.87797
G1 X124.958 Y81.438 E0.17132
G1 X125.276 Y84.000 E0.15312
G1 X125.276 Y116.000 E1.89830
G1 X124.878 Y118.860 E0.17132
G1 X123.872 Y121.238 E0.15312
G1 X116.472 Y134.055 E0.87796
G1 X114.697 Y136.333 E0.17132
G1 X112.368 Y138.040 E0.17132
G1 X109.660 Y139.046 E0.17132
G1 X107.400 Y139.293 E0.13489
G1 X92.600 Y139.293 E0.87796
G1 X89.740 Y138.895 E0.17132
G1 X87.097 Y137.731 E0.17132
G1 X84.872 Y135.889 E0.17132
G1 X83.528 Y134.055 E0.13489
G1 X76.128 Y121.238 E0.87797
G1 X75.042 Y118.562 E0.17132
G1 X74.724 Y116.000 E0.15312
G1 X74.724 Y84.000 E1.89830
G1 X75.122 Y81.140 E0.17132
G1 X76.128 Y78.762 E0.15312
G1 X83.528 Y65.945 E0.87797
G1 X84.109 Y65.199 E0.05609
G1 F6240
G1 X85.303 Y63.667 E-1.06465
G1 F6240
G1 X85.554 Y63.483 E-0.17035
G1 E-0.06500 F3600.00000
G1 X102.745 Y128.072 F7800.000
G1 E1.30000 F3600.00000
G1 X102.742 Y115.827 E0.72635 F1620.000
G1 X102.698 Y115.485 E0.02046
G1 X102.613 Y115.151 E0.02046
G1 X102.486 Y114.830 E0.02047
G1 X102.319 Y114.528 E0.02047
G1 X102.117 Y114.249 E0.02046
G1 X101.881 Y113.998 E0.02046
G1 X101.615 Y113.778 E0.02046
G1 X101.324 Y113.593 E0.02046
G1 X101.011 Y113.446 E0.02047
G1 X100.672 Y113.336 E0.02117
G1 X100.184 Y113.258 E0.02929
G1 X99.827 Y113.258 E0.02117
G1 X99.485 Y113.302 E0.02047
G1 X99.151 Y113.387 E0.02046
G1 X98.830 Y113.514 E0.02046
G1 X98.528 Y113.681 E0.02047
G1 X98.249 Y113.883 E0.02047
G1 X97.997 Y114.119 E0.02046
G1 X97.770 Y114.394 E0.02116
G1 X97.519 Y114.819 E0.02930
G1 X97.387 Y115.151 E0.02117
G1 X97.299 Y115.497 E0.02116
G1 X97.254 Y115.965 E0.02790
G1 X97.254 Y128.072 E0.71819
G1 X93.030 Y128.072 E0.25057
G1 X86.061 Y116.000 E0.82689
G1 X93.030 Y103.928 E0.82689
G1 X106.970 Y103.928 E0.82689
G1 X113.939 Y116.000 E0.82689
G1 X106.970 Y128.072 E0.82689
G1 X102.805 Y128.072 E0.24702
G1 X102.270 Y128.547 F7800.000
G1 X102.266 Y115.857 E0.75278 F1458.000
G1 X102.230 Y115.574 E0.01691
G1 X102.159 Y115.298 E0.01691
G1 X102.054 Y115.033 E0.01692
G1 X101.917 Y114.783 E0.01692
G1 X101.749 Y114.553 E0.01691
G1 X101.554 Y114.345 E0.01691
G1 X101.335 Y114.163 E0.01691
G1 X101.094 Y114.010 E0.01691
G1 X100.836 Y113.889 E0.01692
G1 X100.561 Y113.799 E0.01717
G1 X100.147 Y113.734 E0.02485
G1 X99.857 Y113.734 E0.01717
G1 X99.575 Y113.770 E0.01692
G1 X99.298 Y113.841 E0.01691
G1 X99.033 Y113.945 E0.01691
G1 X98.783 Y114.083 E0.01692
G1 X98.553 Y114.251 E0.01692
G1 X98.345 Y114.446 E0.01691
G1 X98.160 Y114.669 E0.01717
G1 X97.947 Y115.029 E0.02485
G1 X97.841 Y115.298 E0.01717
G1 X97.769 Y115.579 E0.01716
G1 X97.730 Y115.987 E0.02435
G1 X97.730 Y128.547 E0.74508
G1 X92.756 Y128.547 E0.29507
G1 X85.512 Y116.000 E0.85947
G1 X92.756 Y103.453 E0.85947
G1 X107.244 Y103.453 E0.85947
G1 X114.488 Y116.000 E0.85947
G1 X107.244 Y128.547 E0.85947
G1 X102.330 Y128.547 E0.29152
G1 X102.470 Y128.201 F7800.000
G1 X103.029 Y127.208 F7800.000
G1 X103.609 Y127.788 E0.04934 F1620.000
G1 X104.290 Y127.788 E0.04097
G1 X103.028 Y126.526 E0.10730
G1 X103.028 Y125.844 E0.04099
G1 X104.972 Y127.788 E0.16527
G1 X105.654 Y127.788 E0.04097
G1 X103.028 Y125.162 E0.22323
G1 X103.028 Y124.481 E0.04099
G1 X106.335 Y127.788 E0.28120
G1 X106.910 Y127.681 E0.03515
G1 X103.027 Y123.799 E0.33008
G1 X103.027 Y123.117 E0.04099
G1 X107.160 Y127.249 E0.35131
G1 X107.409 Y126.817 E0.03000
G1 X103.027 Y122.435 E0.37254
G1 X103.027 Y121.753 E0.04099
G1 X107.659 Y126.385 E0.39377
G1 X107.908 Y125.953 E0.03000
G1 X103.027 Y121.071 E0.41499
G1 X103.026 Y120.390 E0.04099
G1 X108.158 Y125.521 E0.43622
G1 X108.407 Y125.089 E0.03000
G1 X103.026 Y119.708 E0.45745
G1 X103.026 Y119.026 E0.04099
G1 X108.657 Y124.657 E0.47868
G1 X108.906 Y124.224 E0.03000
G1 X103.026 Y118.344 E0.49990
G1 X103.026 Y117.662 E0.04099
G1 X109.156 Y123.792 E0.52113
G1 X109.405 Y123.360 E0.03000
G1 X103.025 Y116.981 E0.54236
G1 X103.025 Y116.299 E0.04099
G1 X109.655 Y122.928 E0.56359
G1 X109.904 Y122.496 E0.03000
G1 X103.013 Y115.605 E0.58586
G1 X102.784 Y114.695 E0.05640
G1 X110.154 Y122.064 E0.62649
G1 X112.478 Y114.164 F7800.000
G1 X102.526 Y104.212 E0.84611 F1620.000
G1 X101.844 Y104.212 E0.04097
G1 X113.409 Y115.777 E0.98322
G1 X113.397 Y116.446 E0.04023
G1 X101.162 Y104.212 E1.04010
G1 X100.481 Y104.212 E0.04097
G1 X113.147 Y116.878 E1.07684
G1 X112.898 Y117.311 E0.03000
G1 X99.799 Y104.212 E1.11358
G1 X99.118 Y104.212 E0.04097
G1 X112.648 Y117.743 E1.15031
G1 X112.399 Y118.175 E0.03000
G1 X98.436 Y104.212 E1.18705
G1 X97.754 Y104.212 E0.04097
G1 X112.149 Y118.607 E1.22379
G1 X111.900 Y119.039 E0.03000
G1 X97.073 Y104.212 E1.26052
G1 X96.391 Y104.212 E0.04097
G1 X111.650 Y119.471 E1.29726
G1 X111.401 Y119.903 E0.03000
G1 X95.709 Y104.212 E1.33400
G1 X95.028 Y104.212 E0.04097
G1 X111.151 Y120.335 E1.37073
G1 X110.902 Y120.767 E0.03000
G1 X94.346 Y104.212 E1.40747
G1 X93.665 Y104.212 E0.04097
G1 X110.652 Y121.200 E1.44421
G1 X110.403 Y121.632 E0.03000
G1 X93.090 Y104.319 E1.47187
G1 X92.840 Y104.751 E0.03000
G1 X101.300 Y113.210 E0.71919
G1 X100.396 Y112.988 E0.05599
G1 X92.591 Y105.183 E0.66352
G1 X92.341 Y105.615 E0.03000
G1 X99.724 Y112.998 E0.62764
G1 X99.160 Y113.115 E0.03464
G1 X92.092 Y106.047 E0.60089
G1 X91.842 Y106.479 E0.03000
G1 X98.679 Y113.316 E0.58119
G1 X98.258 Y113.576 E0.02976
G1 X91.593 Y106.911 E0.56661
G1 X91.343 Y107.343 E0.03000
G1 X97.889 Y113.889 E0.55650
G1 X97.572 Y114.254 E0.02904
G1 X91.094 Y107.776 E0.55073
G1 X90.844 Y108.208 E0.03000
G1 X97.316 Y114.679 E0.55016
G1 X97.115 Y115.160 E0.03133
G1 X90.595 Y108.640 E0.55431
G1 X90.345 Y109.072 E0.03000
G1 X97.001 Y115.728 E0.56584
G1 X96.971 Y116.379 E0.03920
G1 X90.096 Y109.504 E0.58448
G1 X89.846 Y109.936 E0.03000
G1 X96.971 Y117.061 E0.60569
G1 X96.971 Y117.742 E0.04097
G1 X89.597 Y110.368 E0.62690
G1 X89.348 Y110.800 E0.03000
G1 X96.971 Y118.424 E0.64811
G1 X96.971 Y119.106 E0.04097
G1 X89.098 Y111.233 E0.66932
G1 X88.849 Y111.665 E0.03000
G1 X96.971 Y119.787 E0.69053
G1 X96.971 Y120.469 E0.04097
G1 X88.599 Y112.097 E0.71174
G1 X88.350 Y112.529 E0.03000
G1 X96.971 Y121.150 E0.73295
G1 X96.971 Y121.832 E0.04097
G1 X88.100 Y112.961 E0.75416
G1 X87.851 Y113.393 E0.03000
G1 X96.971 Y122.514 E0.77537
G1 X96.971 Y123.195 E0.04097
G1 X87.601 Y113.825 E0.79657
G1 X87.352 Y114.257 E0.03000
G1 X96.971 Y123.877 E0.81778
G1 X96.971 Y124.558 E0.04097
G1 X87.102 Y114.690 E0.83899
G1 X86.853 Y115.122 E0.03000
G1 X96.971 Y125.240 E0.86020
G1 X96.971 Y125.922 E0.04097
G1 X86.603 Y115.554 E0.88141
G1 X86.591 Y116.223 E0.04024
G1 X96.971 Y126.603 E0.88247
G1 X96.971 Y127.285 E0.04097
G1 X87.522 Y117.836 E0.80331
G1 X88.453 Y119.448 F7800.000
G1 X96.793 Y127.788 E0.70901 F1620.000
G1 X96.111 Y127.788 E0.04097
G1 X89.384 Y121.061 E0.57190
G1 X90.315 Y122.674 F7800.000
G1 X95.430 Y127.788 E0.43480 F1620.000
G1 X94.748 Y127.788 E0.04097
G1 X91.246 Y124.286 E0.29770
G1 X92.177 Y125.899 F7800.000
G1 X94.066 Y127.788 E0.16060 F1620.000
G1 X93.385 Y127.788 E0.04097
G1 X93.108 Y127.512 E0.02349
G1 F6240
G1 X93.385 Y127.788 E-0.21419
G1 F6240
G1 X94.066 Y127.788 E-0.37358
G1 F6240
G1 X93.231 Y126.953 E-0.64723
G1 E-0.06500 F3600.00000
G1 X111.547 Y112.552 F7800.000
G1 E1.30000 F3600.00000
G1 X103.207 Y104.212 E0.70901 F1620.000
G1 X103.889 Y104.212 E0.04097
G1 X110.616 Y110.939 E0.57191
G1 X109.685 Y109.326 F7800.000
G1 X104.570 Y104.212 E0.43481 F1620.000
G1 X105.252 Y104.212 E0.04097
G1 X108.754 Y107.714 E0.29771
G1 X107.823 Y106.101 F7800.000
G1 X105.934 Y104.212 E0.16060 F1620.000
G1 X106.615 Y104.212 E0.04097
G1 X106.892 Y104.488 E0.02350
G1 F6240
G1 X106.615 Y104.212 E-0.21426
G1 F6240
G1 X105.934 Y104.212 E-0.37357
G1 F6240
G1 X106.769 Y105.047 E-0.64716
G1 E-0.06500 F3600.00000
G1 X102.745 Y96.072 F7800.000
G1 E1.30000 F3600.00000
G1 X102.742 Y83.827 E0.72635 F1620.000
G1 X102.698 Y83.485 E0.02046
G1 X102.613 Y83.151 E0.02046
G1 X102.486 Y82.830 E0.02047
G1 X102.319 Y82.528 E0.02046
G1 X102.117 Y82.249 E0.02046
G1 X101.881 Y81.997 E0.02047
G1 X101.615 Y81.778 E0.02046
G1 X101.323 Y81.593 E0.02047
G1 X101.011 Y81.446 E0.02046
G1 X100.683 Y81.339 E0.02047
G1 X100.344 Y81.275 E0.02047
G1 X100.000 Y81.253 E0.02046
G1 X99.656 Y81.275 E0.02046
G1 X99.305 Y81.341 E0.02116
G1 X98.841 Y81.509 E0.02929
G1 X98.528 Y81.681 E0.02116
G1 X98.239 Y81.890 E0.02116
G1 X97.890 Y82.239 E0.02930
G1 X97.681 Y82.528 E0.02116
G1 X97.514 Y82.830 E0.02046
G1 X97.387 Y83.151 E0.02047
G1 X97.299 Y83.497 E0.02116
G1 X97.254 Y83.965 E0.02790
G1 X97.254 Y96.072 E0.71820
G1 X93.030 Y96.072 E0.25057
G1 X86.061 Y84.000 E0.82689
G1 X93.030 Y71.928 E0.82689
G1 X106.970 Y71.928 E0.82689
G1 X113.939 Y84.000 E0.82689
G1 X106.970 Y96.072 E0.82689
G1 X102.805 Y96.072 E0.24702
G1 X102.270 Y96.547 F7800.000
G1 X102.266 Y83.857 E0.75278 F1458.000
G1 X102.230 Y83.575 E0.01691
G1 X102.159 Y83.298 E0.01691
G1 X102.054 Y83.033 E0.01691
G1 X101.917 Y82.783 E0.01691
G1 X101.749 Y82.553 E0.01691
G1 X101.554 Y82.345 E0.01692
G1 X101.335 Y82.163 E0.01691
G1 X101.094 Y82.010 E0.01691
G1 X100.836 Y81.889 E0.01691
G1 X100.565 Y81.801 E0.01692
G1 X100.285 Y81.747 E0.01691
G1 X100.000 Y81.729 E0.01691
G1 X99.715 Y81.747 E0.01691
G1 X99.431 Y81.802 E0.01717
G1 X99.037 Y81.944 E0.02485
G1 X98.783 Y82.083 E0.01717
G1 X98.549 Y82.253 E0.01717
G1 X98.253 Y82.549 E0.02485
G1 X98.083 Y82.783 E0.01717
G1 X97.946 Y83.033 E0.01691
G1 X97.841 Y83.298 E0.01692
G1 X97.769 Y83.579 E0.01717
G1 X97.730 Y83.987 E0.02435
G1 X97.730 Y96.547 E0.74508
G1 X92.756 Y96.547 E0.29507
G1 X85.512 Y84.000 E0.85947
G1 X92.756 Y71.453 E0.85947
G1 X107.244 Y71.453 E0.85947
G1 X114.488 Y84.000 E0.85947
G1 X107.244 Y96.547 E0.85947
G1 X102.330 Y96.547 E0.29152
G1 X102.470 Y96.201 F7800.000
G1 X103.029 Y95.208 F7800.000
G1 X103.609 Y95.788 E0.04934 F1620.000
G1 X104.290 Y95.788 E0.04097
G1 X103.028 Y94.526 E0.10730
G1 X103.028 Y93.844 E0.04099
G1 X104.972 Y95.788 E0.16527
G1 X105.654 Y95.788 E0.04097
G1 X103.028 Y93.162 E0.22323
G1 X103.028 Y92.481 E0.04099
G1 X106.335 Y95.788 E0.28120
G1 X106.910 Y95.681 E0.03515
G1 X103.027 Y91.799 E0.33008
G1 X103.027 Y91.117 E0.04099
G1 X107.160 Y95.249 E0.35131
G1 X107.409 Y94.817 E0.03000
G1 X103.027 Y90.435 E0.37254
G1 X103.027 Y89.753 E0.04099
G1 X107.659 Y94.385 E0.39377
G1 X107.908 Y93.953 E0.03000
G1 X103.027 Y89.071 E0.41499
G1 X103.026 Y88.390 E0.04099
G1 X108.158 Y93.521 E0.43622
G1 X108.407 Y93.089 E0.03000
G1 X103.026 Y87.708 E0.45745
G1 X103.026 Y87.026 E0.04099
G1 X108.657 Y92.657 E0.47868
G1 X108.906 Y92.224 E0.03000
G1 X103.026 Y86.344 E0.49990
G1 X103.026 Y85.662 E0.04099
G1 X109.156 Y91.792 E0.52113
G1 X109.405 Y91.360 E0.03000
G1 X103.025 Y84.981 E0.54236
G1 X103.025 Y84.299 E0.04099
G1 X109.655 Y90.928 E0.56359
G1 X109.904 Y90.496 E0.03000
G1 X103.013 Y83.605 E0.58586
G1 X102.784 Y82.695 E0.05641
G1 X110.154 Y90.064 E0.62649
G1 X112.478 Y82.164 F7800.000
G1 X102.526 Y72.212 E0.84611 F1620.000
G1 X101.844 Y72.212 E0.04097
G1 X113.409 Y83.777 E0.98322
G1 X113.397 Y84.446 E0.04023
G1 X101.162 Y72.212 E1.04010
G1 X100.481 Y72.212 E0.04097
G1 X113.147 Y84.878 E1.07684
G1 X112.898 Y85.311 E0.03000
G1 X99.799 Y72.212 E1.11358
G1 X99.118 Y72.212 E0.04097
G1 X112.648 Y85.743 E1.15031
G1 X112.399 Y86.175 E0.03000
G1 X98.436 Y72.212 E1.18705
G1 X97.754 Y72.212 E0.04097
G1 X112.149 Y86.607 E1.22379
G1 X111.900 Y87.039 E0.03000
G1 X97.073 Y72.212 E1.26052
G1 X96.391 Y72.212 E0.04097
G1 X111.650 Y87.471 E1.29726
G1 X111.401 Y87.903 E0.03000
G1 X95.709 Y72.212 E1.33400
G1 X95.028 Y72.212 E0.04097
G1 X111.151 Y88.335 E1.37073
G1 X110.902 Y88.767 E0.03000
G1 X94.346 Y72.212 E1.40747
G1 X93.665 Y72.212 E0.04097
G1 X110.652 Y89.200 E1.44421
G1 X110.403 Y89.632 E0.03000
G1 X93.090 Y72.319 E1.47187
G1 X92.840 Y72.751 E0.03000
G1 X101.300 Y81.210 E0.71920
G1 X100.395 Y80.987 E0.05602
G1 X92.591 Y73.183 E0.66349
G1 X92.341 Y73.615 E0.03000
G1 X99.719 Y80.993 E0.62722
G1 X99.165 Y81.121 E0.03417
G1 X92.092 Y74.047 E0.60135
G1 X91.842 Y74.479 E0.03000
G1 X98.679 Y81.316 E0.58119
G1 X98.258 Y81.576 E0.02976
G1 X91.593 Y74.911 E0.56661
G1 X91.343 Y75.343 E0.03000
G1 X97.894 Y81.894 E0.55689
G1 X97.576 Y82.258 E0.02904
G1 X91.094 Y75.776 E0.55108
G1 X90.844 Y76.208 E0.03000
G1 X97.316 Y82.679 E0.55014
G1 X97.115 Y83.160 E0.03134
G1 X90.595 Y76.640 E0.55431
G1 X90.345 Y77.072 E0.03000
G1 X97.001 Y83.728 E0.56584
G1 X96.971 Y84.379 E0.03920
G1 X90.096 Y77.504 E0.58448
G1 X89.846 Y77.936 E0.03000
G1 X96.971 Y85.061 E0.60569
G1 X96.971 Y85.742 E0.04097
G1 X89.597 Y78.368 E0.62690
G1 X89.348 Y78.800 E0.03000
G1 X96.971 Y86.424 E0.64811
G1 X96.971 Y87.106 E0.04097
G1 X89.098 Y79.233 E0.66932
G1 X88.849 Y79.665 E0.03000
G1 X96.971 Y87.787 E0.69053
G1 X96.971 Y88.469 E0.04097
G1 X88.599 Y80.097 E0.71174
G1 X88.350 Y80.529 E0.03000
G1 X96.971 Y89.150 E0.73295
G1 X96.971 Y89.832 E0.04097
G1 X88.100 Y80.961 E0.75416
G1 X87.851 Y81.393 E0.03000
G1 X96.971 Y90.514 E0.77537
G1 X96.971 Y91.195 E0.04097
G1 X87.601 Y81.825 E0.79657
G1 X87.352 Y82.257 E0.03000
G1 X96.971 Y91.877 E0.81778
G1 X96.971 Y92.558 E0.04097
G1 X87.102 Y82.690 E0.83899
G1 X86.853 Y83.122 E0.03000
G1 X96.971 Y93.240 E0.86020
G1 X96.971 Y93.922 E0.04097
G1 X86.603 Y83.554 E0.88141
G1 X86.591 Y84.223 E0.04024
G1 X96.971 Y94.603 E0.88247
G1 X96.971 Y95.285 E0.04097
G1 X87.522 Y85.836 E0.80331
G1 X88.453 Y87.448 F7800.000
G1 X96.793 Y95.788 E0.70900 F1620.000
G1 X96.111 Y95.788 E0.04097
G1 X89.384 Y89.061 E0.57190
G1 X90.315 Y90.674 F7800.000
G1 X95.430 Y95.788 E0.43480 F1620.000
G1 X94.748 Y95.788 E0.04097
G1 X91.246 Y92.286 E0.29770
G1 X92.177 Y93.899 F7800.000
G1 X94.066 Y95.788 E0.16060 F1620.000
G1 X93.385 Y95.788 E0.04097
G1 X93.108 Y95.512 E0.02349
G1 F6240
G1 X93.385 Y95.788 E-0.21419
G1 F6240
G1 X94.066 Y95.788 E-0.37357
G1 F6240
G1 X93.231 Y94.953 E-0.64723
G1 E-0.06500 F3600.00000
G1 X111.547 Y80.552 F7800.000
G1 E1.30000 F3600.00000
G1 X103.207 Y72.212 E0.70901 F1620.000
G1 X103.889 Y72.212 E0.04097
G1 X110.616 Y78.939 E0.57191
G1 X109.685 Y77.326 F7800.000
G1 X104.570 Y72.212 E0.43481 F1620.000
G1 X105.252 Y72.212 E0.04097
G1 X108.754 Y75.714 E0.29771
G1 X107.823 Y74.101 F7800.000
G1 X105.934 Y72.212 E0.16060 F1620.000
G1 X106.615 Y72.212 E0.04097
G1 X106.892 Y72.488 E0.02350
M106 S255
M140 S50 ; wait for bed temperature to be reached
G1 F6240
