; generated by Slic3r 1.2.9 on 2020-05-14 at 22:32:49

; external perimeters extrusion width = 0.40mm
; perimeters extrusion width = 0.56mm
; infill extrusion width = 0.56mm
; solid infill extrusion width = 0.56mm
; top infill extrusion width = 0.56mm

M107
M190 S60 ; set bed temperature
M104 S215 ; set temperature
G28 ; home all axes
G92 E0.0 ; reset extruder
M109 S215 ; wait for temperature to be reached
G21 ; set units to millimeters
G90 ; use absolute coordinates
M83 ; use relative distances for extrusion
G1 E-1.30000 F3600.00000
G1 Z0.300 F7800.000
G1 X41.464 Y57.580 F7800.000
G1 E1.30000 F3600.00000
M204 S500
G1 X42.157 Y57.081 E0.05065 F2160.000
G1 X44.928 Y56.059 E0.17519
G1 X47.300 Y55.799 E0.14158
G1 X152.700 Y55.799 E6.25253
G1 X155.626 Y56.197 E0.17519
G1 X158.340 Y57.362 E0.17519 F2160.000
G1 X160.643 Y59.211 E0.17519
G1 X162.369 Y61.607 E0.17519
G1 X163.391 Y64.378 E0.17519
G1 X163.651 Y66.750 E0.14158
G1 X163.651 Y103.750 E2.19491
G1 X163.595 Y104.858 E0.06581
G1 X160.595 Y134.358 E1.75902
G1 X159.903 Y137.229 E0.17519
G1 X158.469 Y139.810 E0.17519
G1 X156.397 Y141.915 E0.17519
G1 X153.838 Y143.389 E0.17519
G1 X149.700 Y144.201 E0.25017
G1 X50.300 Y144.201 E5.89660
G1 X47.374 Y143.803 E0.17519
G1 X44.660 Y142.637 E0.17519
G1 X42.357 Y140.789 E0.17519
G1 X40.631 Y138.393 E0.17519
G1 X39.405 Y134.358 E0.25017
G1 X36.405 Y104.858 E1.75902
G1 X36.349 Y103.750 E0.06581
G1 X36.349 Y66.750 E2.19491
G1 X36.747 Y63.824 E0.17519
G1 X37.912 Y61.110 E0.17519
G1 X39.761 Y58.807 E0.17519
G1 X41.416 Y57.615 E0.12098
G1 X41.740 Y57.981 F7800.000
G1 X42.607 Y57.384 E0.06243 F2160.000
G1 X45.343 Y56.459 E0.17132
G1 X47.300 Y56.274 E0.11663
G1 X152.700 Y56.274 E6.25253
G1 X155.560 Y56.672 E0.17132
G1 X158.203 Y57.836 E0.17132 F2160.000
G1 X160.428 Y59.678 E0.17132
G1 X162.066 Y62.057 E0.17132
G1 X162.991 Y64.793 E0.17132
G1 X163.176 Y66.750 E0.11663
G1 X163.176 Y103.750 E2.19491
G1 X163.122 Y104.810 E0.06295
G1 X160.122 Y134.310 E1.75902
G1 X159.436 Y137.115 E0.17132
G1 X158.011 Y139.627 E0.17132
G1 X155.954 Y141.654 E0.17132
G1 X153.421 Y143.042 E0.17132
G1 X149.700 Y143.726 E0.22445
G1 X50.300 Y143.726 E5.89660
G1 X47.440 Y143.328 E0.17132
G1 X44.797 Y142.164 E0.17132
G1 X42.572 Y140.322 E0.17132
G1 X40.934 Y137.943 E0.17132
G1 X39.878 Y134.310 E0.22445
G1 X36.878 Y104.810 E1.75902
G1 X36.824 Y103.750 E0.06295
G1 X36.824 Y66.750 E2.19491
G1 X37.222 Y63.890 E0.17132
G1 X38.386 Y61.247 E0.17132
G1 X40.228 Y59.022 E0.17132
G1 X41.691 Y58.015 E0.10533
G1 F6240
G1 X42.607 Y57.384 E-0.60965
G1 F6240
G1 X43.688 Y57.019 E-0.62535
G1 E-0.06500 F3600.00000
G1 X108.654 Y130.896 F7800.000
G1 E1.30000 F3600.00000
G1 X108.654 Y116.441 E0.85747 F1620.000
G1 X115.491 Y109.604 E0.57356
G1 X131.109 Y109.604 E0.92647
G1 X137.946 Y116.441 E0.57356
G1 X137.946 Y130.896 E0.85747
G1 X108.714 Y130.896 E1.73405
G1 X109.130 Y130.420 F7800.000
G1 X109.130 Y116.638 E0.81756 F1458.000
G1 X115.688 Y110.080 E0.55019
G1 X130.912 Y110.080 E0.90310
G1 X137.470 Y116.638 E0.55019
G1 X137.470 Y130.420 E0.81756
G1 X109.190 Y130.420 E1.67762
G1 X108.730 Y130.420 F7800.000
G1 X104.050 Y122.061 F7800.000
G1 X103.300 Y122.210 E0.04537 F1080.000
G1 X102.550 Y122.061 E0.04537
G1 X101.914 Y121.636 E0.04537
G1 X101.489 Y121.000 E0.04537
G1 X101.340 Y120.250 E0.04537
G1 X101.489 Y119.500 E0.04537
G1 X101.914 Y118.864 E0.04537
G1 X102.550 Y118.439 E0.04537
G1 X103.287 Y118.292 E0.04458 F1080.000
G1 X104.048 Y118.437 E0.04593
G1 X104.686 Y118.864 E0.04556
G1 X105.111 Y119.500 E0.04537
G1 X105.260 Y120.250 E0.04537
G1 X105.111 Y121.000 E0.04537
G1 X104.686 Y121.636 E0.04537
G1 X104.100 Y122.028 E0.04181
G1 X103.865 Y121.613 F7800.000
G1 X103.300 Y121.725 E0.03415 F1080.000
G1 X102.735 Y121.613 E0.03415
G1 X102.257 Y121.293 E0.03415
G1 X101.937 Y120.815 E0.03415
G1 X101.825 Y120.250 E0.03415
G1 X101.937 Y119.685 E0.03415
G1 X102.257 Y119.207 E0.03415
G1 X102.735 Y118.887 E0.03415
G1 X103.289 Y118.777 E0.03347 F1080.000
G1 X103.864 Y118.886 E0.03471
G1 X104.343 Y119.207 E0.03422
G1 X104.663 Y119.685 E0.03415
G1 X104.775 Y120.250 E0.03415
G1 X104.663 Y120.815 E0.03415
G1 X104.343 Y121.293 E0.03415
G1 X103.914 Y121.580 E0.03059
G1 X103.787 Y122.005 F7800.000
G1 F6240
G1 X103.300 Y121.725 E-0.34609
G1 F6240
G1 X102.735 Y121.613 E-0.31548
G1 F6240
G1 X102.257 Y121.293 E-0.31550
G1 F6240
G1 X101.995 Y120.902 E-0.25793
G1 E-0.06500 F3600.00000
G1 X103.388 Y107.197 F7800.000
G1 E1.30000 F3600.00000
G1 X99.446 Y107.197 E0.23384 F1620.000
G1 X99.446 Y96.278 E0.64771
G1 X102.693 Y96.278 E0.19261
G1 X102.822 Y96.847 E0.03456
G1 X103.139 Y96.592 E0.02413
G1 X103.610 Y96.332 E0.03195
G1 X104.131 Y96.151 E0.03271
G1 X104.689 Y96.046 E0.03369
G1 X105.282 Y96.013 E0.03519
G1 X105.800 Y96.041 E0.03081
G1 X106.288 Y96.128 E0.02940
G1 X106.746 Y96.278 E0.02856
G1 X107.171 Y96.499 E0.02842
G1 X107.554 Y96.802 E0.02897
G1 X107.765 Y97.047 E0.01918
G1 X107.973 Y96.854 E0.01688
G1 X108.375 Y96.562 E0.02945
G1 X108.827 Y96.321 E0.03043
G1 X109.326 Y96.147 E0.03134
G1 X109.856 Y96.046 E0.03199
G1 X110.323 Y96.018 E0.02774
G1 X111.248 Y96.066 E0.05496
G1 X111.993 Y96.238 E0.04537
G1 X112.368 Y96.397 E0.02415
G1 X112.702 Y96.601 E0.02321
G1 X113.001 Y96.853 E0.02321
G1 X113.260 Y97.149 E0.02331
G1 X113.477 Y97.482 E0.02361
G1 X113.663 Y97.864 E0.02519
G1 X113.914 Y98.667 E0.04993
G1 X114.055 Y99.643 E0.05847
G1 X114.102 Y100.782 E0.06765
G1 X114.102 Y107.197 E0.38055
G1 X110.155 Y107.197 E0.23411
G1 X110.155 Y101.175 E0.35725
G1 X110.101 Y100.274 E0.05353
G1 X110.045 Y99.983 E0.01759
G1 X109.988 Y99.804 E0.01115
G1 X109.945 Y99.737 E0.00470
G1 X109.829 Y99.696 E0.00731
G1 X109.611 Y99.676 E0.01296
G1 X109.423 Y99.690 E0.01117
G1 X109.276 Y99.726 E0.00902
G1 X109.075 Y99.844 E0.01382
G1 X108.881 Y100.092 E0.01867
G1 X108.744 Y100.400 E0.02000
G1 X108.744 Y107.197 E0.40324
G1 X104.802 Y107.197 E0.23384
G1 X104.802 Y101.334 E0.34784
G1 X104.787 Y100.764 E0.03383
G1 X104.747 Y100.313 E0.02684
G1 X104.686 Y99.984 E0.01985
G1 X104.625 Y99.803 E0.01134
G1 X104.579 Y99.733 E0.00492
G1 X104.473 Y99.695 E0.00672
G1 X104.274 Y99.676 E0.01182
G1 X104.093 Y99.689 E0.01079
G1 X103.945 Y99.724 E0.00900
G1 X103.751 Y99.834 E0.01324
G1 X103.520 Y100.098 E0.02085
G1 X103.388 Y100.354 E0.01706
G1 X103.388 Y107.137 E0.40238
G1 X102.912 Y106.721 F7800.000
G1 X99.922 Y106.721 E0.17741 F1458.000
G1 X99.922 Y96.754 E0.59128
G1 X102.313 Y96.754 E0.14186
G1 X102.537 Y97.741 E0.06001
G1 X102.763 Y97.504 E0.01943
G1 X103.405 Y96.989 E0.04881
G1 X103.805 Y96.768 E0.02713
G1 X104.254 Y96.612 E0.02819
G1 X104.747 Y96.519 E0.02975
G1 X105.282 Y96.489 E0.03183
G1 X105.746 Y96.514 E0.02753
G1 X106.172 Y96.590 E0.02566
G1 X106.560 Y96.718 E0.02427
G1 X106.911 Y96.900 E0.02346
G1 X107.223 Y97.147 E0.02359
G1 X107.493 Y97.461 E0.02455
G1 X107.708 Y97.812 E0.02444
G1 X107.958 Y97.517 E0.02299
G1 X108.276 Y97.222 E0.02570
G1 X108.628 Y96.966 E0.02580
G1 X109.019 Y96.758 E0.02629
G1 X109.450 Y96.608 E0.02708
G1 X109.915 Y96.519 E0.02810
G1 X110.324 Y96.494 E0.02434
G1 X111.182 Y96.539 E0.05092
G1 X111.846 Y96.692 E0.04043
G1 X112.150 Y96.821 E0.01958
G1 X112.423 Y96.988 E0.01897
G1 X112.667 Y97.194 E0.01894
G1 X112.880 Y97.437 E0.01919
G1 X113.063 Y97.717 E0.01985
G1 X113.220 Y98.040 E0.02128
G1 X113.448 Y98.773 E0.04555
G1 X113.581 Y99.687 E0.05478
G1 X113.626 Y100.792 E0.06561
G1 X113.626 Y106.721 E0.35176
G1 X110.631 Y106.721 E0.17768
G1 X110.631 Y101.160 E0.32989
G1 X110.574 Y100.215 E0.05619
G1 X110.507 Y99.865 E0.02113
G1 X110.422 Y99.600 E0.01654
G1 X110.311 Y99.426 E0.01225
G1 X110.157 Y99.307 E0.01153
G1 X109.931 Y99.228 E0.01417
G1 X109.616 Y99.199 E0.01876
G1 X109.349 Y99.218 E0.01588
G1 X109.118 Y99.275 E0.01410
G1 X108.923 Y99.364 E0.01273
G1 X108.756 Y99.489 E0.01238
G1 X108.605 Y99.652 E0.01316
G1 X108.470 Y99.849 E0.01419
G1 X108.354 Y100.080 E0.01536
G1 X108.268 Y100.316 E0.01486
G1 X108.268 Y106.721 E0.37999
G1 X105.277 Y106.721 E0.17741
G1 X105.277 Y101.328 E0.31998
G1 X105.262 Y100.736 E0.03510
G1 X105.218 Y100.248 E0.02907
G1 X105.147 Y99.864 E0.02316
G1 X105.056 Y99.594 E0.01693
G1 X104.944 Y99.421 E0.01220
G1 X104.792 Y99.304 E0.01134
G1 X104.577 Y99.227 E0.01355
G1 X104.280 Y99.199 E0.01771
G1 X104.020 Y99.217 E0.01549
G1 X103.791 Y99.272 E0.01395
G1 X103.595 Y99.360 E0.01277
G1 X103.429 Y99.479 E0.01212
G1 X103.123 Y99.829 E0.02756
G1 X102.912 Y100.239 E0.02733
G1 X102.912 Y106.661 E0.38101
G1 X102.912 Y107.121 F7800.000
G1 X114.945 Y107.398 F7800.000
G1 X114.945 Y92.446 E0.88697 F1080.000
G1 X118.855 Y92.446 E0.23196
G1 X118.855 Y107.398 E0.88697
G1 X115.005 Y107.398 E0.22840
G1 X115.421 Y106.922 F7800.000
G1 X115.421 Y92.922 E0.83054 F1080.000
G1 X118.380 Y92.922 E0.17553
G1 X118.380 Y106.922 E0.83054
G1 X115.481 Y106.922 E0.17197
G1 X115.020 Y106.922 F7800.000
G1 F6240
G1 X115.471 Y104.669 E-1.23500
G1 E-0.06500 F3600.00000
G1 X120.607 Y100.372 F7800.000
G1 E1.30000 F3600.00000
G1 X119.567 Y97.118 E0.20264 F1620.000
G1 X121.101 Y96.552 E0.09706
G1 X122.145 Y96.299 E0.06371
G1 X123.279 Y96.142 E0.06789
G1 X124.463 Y96.089 E0.07030
G1 X125.450 Y96.154 E0.05867
G1 X125.922 Y96.244 E0.02850
G1 X126.345 Y96.370 E0.02622
G1 X126.734 Y96.531 E0.02496
G1 X127.091 Y96.729 E0.02422
G1 X127.413 Y96.966 E0.02374
G1 X127.696 Y97.240 E0.02336
G1 X127.934 Y97.544 E0.02289
G1 X128.131 Y97.868 E0.02253
G1 X128.290 Y98.217 E0.02274
G1 X128.412 Y98.594 E0.02350
G1 X128.550 Y99.330 E0.04443
G1 X128.595 Y100.129 E0.04748
G1 X128.472 Y103.466 E0.19809
G1 X128.478 Y104.232 E0.04543
G1 X128.517 Y104.960 E0.04323
G1 X128.605 Y105.625 E0.03982
G1 X129.023 Y107.217 E0.09763
G1 X125.505 Y107.217 E0.20871
G1 X125.300 Y106.544 E0.04173
G1 X124.907 Y106.822 E0.02858
G1 X124.448 Y107.056 E0.03055
G1 X123.935 Y107.222 E0.03200
G1 X123.384 Y107.318 E0.03319
G1 X122.786 Y107.350 E0.03553
G1 X122.044 Y107.291 E0.04415
G1 X121.347 Y107.108 E0.04275
G1 X120.719 Y106.800 E0.04147
G1 X120.179 Y106.379 E0.04063
G1 X119.747 Y105.856 E0.04024
G1 X119.425 Y105.255 E0.04045
G1 X119.226 Y104.582 E0.04164
G1 X119.163 Y103.862 E0.04284
G1 X119.193 Y103.344 E0.03081
G1 X119.283 Y102.860 E0.02919
G1 X119.441 Y102.403 E0.02869
G1 X119.667 Y101.985 E0.02816
G1 X119.949 Y101.615 E0.02764
G1 X120.278 Y101.288 E0.02748
G1 X120.652 Y101.004 E0.02790
G1 X121.067 Y100.763 E0.02844
G1 X121.516 Y100.562 E0.02917
G1 X121.994 Y100.400 E0.02996
G1 X122.501 Y100.273 E0.03100
G1 X123.047 Y100.177 E0.03286
G1 X124.182 Y100.080 E0.06758
G1 X124.697 Y100.083 E0.03056
G1 X124.645 Y99.805 E0.01678
G1 X124.606 Y99.715 E0.00586
G1 X124.523 Y99.670 E0.00558
G1 X124.318 Y99.621 E0.01246
G1 X123.977 Y99.599 E0.02029
G1 X123.298 Y99.633 E0.04034
G1 X122.565 Y99.738 E0.04392
G1 X121.897 Y99.895 E0.04073
G1 X120.663 Y100.351 E0.07803
G1 X120.908 Y99.753 F7800.000
G1 X120.158 Y97.407 E0.14613 F1458.000
G1 X121.240 Y97.007 E0.06842
G1 X122.234 Y96.767 E0.06066
G1 X123.322 Y96.616 E0.06517
G1 X124.458 Y96.566 E0.06743
G1 X125.389 Y96.627 E0.05539
G1 X125.809 Y96.707 E0.02536
G1 X126.186 Y96.819 E0.02333
G1 X126.527 Y96.959 E0.02186
G1 X126.833 Y97.130 E0.02080
G1 X127.105 Y97.330 E0.02004
G1 X127.342 Y97.559 E0.01952
G1 X127.542 Y97.815 E0.01928
G1 X127.710 Y98.091 E0.01917
G1 X127.846 Y98.389 E0.01944
G1 X127.950 Y98.711 E0.02008
G1 X128.076 Y99.388 E0.04081
G1 X128.118 Y100.134 E0.04435
G1 X127.996 Y103.459 E0.19740
G1 X128.002 Y104.247 E0.04671
G1 X128.043 Y105.004 E0.04499
G1 X128.137 Y105.717 E0.04269
G1 X128.406 Y106.741 E0.06281
G1 X125.858 Y106.741 E0.15120
G1 X125.530 Y105.664 E0.06677
G1 X125.304 Y105.909 E0.01977
G1 X125.004 Y106.171 E0.02364
G1 X124.660 Y106.414 E0.02494
G1 X124.266 Y106.615 E0.02628
G1 X123.820 Y106.759 E0.02777
G1 X123.330 Y106.845 E0.02951
G1 X122.792 Y106.873 E0.03198
G1 X122.124 Y106.821 E0.03977
G1 X121.514 Y106.660 E0.03741
G1 X120.973 Y106.395 E0.03573
G1 X120.513 Y106.035 E0.03464
G1 X120.143 Y105.590 E0.03433
G1 X119.868 Y105.073 E0.03474
G1 X119.695 Y104.493 E0.03592
G1 X119.640 Y103.855 E0.03796
G1 X119.666 Y103.401 E0.02696
G1 X119.744 Y102.982 E0.02530
G1 X119.878 Y102.595 E0.02432
G1 X120.067 Y102.244 E0.02365
G1 X120.307 Y101.929 E0.02348
G1 X120.591 Y101.648 E0.02366
G1 X120.917 Y101.400 E0.02430
G1 X121.284 Y101.187 E0.02520
G1 X121.690 Y101.006 E0.02635
G1 X122.129 Y100.857 E0.02750
G1 X122.601 Y100.739 E0.02886
G1 X123.109 Y100.649 E0.03060
G1 X124.201 Y100.556 E0.06502
G1 X125.149 Y100.561 E0.05626
G1 X125.167 Y100.334 E0.01351
G1 X125.157 Y99.954 E0.02256
G1 X125.103 Y99.664 E0.01750
G1 X125.016 Y99.466 E0.01283
G1 X124.893 Y99.329 E0.01097
G1 X124.693 Y99.222 E0.01343
G1 X124.390 Y99.149 E0.01851
G1 X123.980 Y99.123 E0.02432
G1 X123.252 Y99.159 E0.04323
G1 X122.477 Y99.270 E0.04647
G1 X121.759 Y99.438 E0.04374
G1 X120.965 Y99.732 E0.05026
G1 X120.529 Y99.881 F7800.000
G1 F6240
G1 X120.226 Y97.603 E-1.23500
G1 E-0.06500 F3600.00000
G1 X129.160 Y106.554 F7800.000
G1 E1.30000 F3600.00000
G1 X129.160 Y92.506 E0.83332 F1620.000
G1 X133.102 Y92.506 E0.23384
G1 X133.102 Y96.394 E0.23061
G1 X133.552 Y96.231 E0.02840
G1 X133.963 Y96.131 E0.02510
G1 X134.387 Y96.072 E0.02538
G1 X134.823 Y96.053 E0.02587
G1 X135.303 Y96.074 E0.02852
G1 X135.764 Y96.138 E0.02762
G1 X136.206 Y96.248 E0.02699
G1 X136.625 Y96.406 E0.02658
G1 X137.019 Y96.611 E0.02634
G1 X137.383 Y96.863 E0.02627
G1 X137.713 Y97.160 E0.02635
G1 X138.010 Y97.500 E0.02676
G1 X138.269 Y97.882 E0.02735
G1 X138.488 Y98.300 E0.02801
G1 X138.669 Y98.752 E0.02887
G1 X138.813 Y99.236 E0.02996
G1 X138.922 Y99.751 E0.03127
G1 X139.000 Y100.309 E0.03341
G1 X139.060 Y101.485 E0.06986
G1 X139.038 Y102.159 E0.04000
G1 X138.974 Y102.793 E0.03780
G1 X138.865 Y103.395 E0.03628
G1 X138.709 Y103.964 E0.03499
G1 X138.506 Y104.499 E0.03394
G1 X138.254 Y104.997 E0.03315
G1 X137.951 Y105.457 E0.03263
G1 X137.601 Y105.872 E0.03219
G1 X137.212 Y106.238 E0.03172
G1 X136.788 Y106.557 E0.03147
G1 X136.329 Y106.826 E0.03153
G1 X135.840 Y107.044 E0.03180
G1 X135.322 Y107.212 E0.03228
G1 X134.779 Y107.330 E0.03298
G1 X134.211 Y107.399 E0.03392
G1 X133.619 Y107.422 E0.03519
G1 X132.395 Y107.371 E0.07263
G1 X131.275 Y107.215 E0.06708
G1 X130.317 Y106.986 E0.05846
G1 X129.216 Y106.575 E0.06972
G1 X129.635 Y106.224 F7800.000
G1 X129.635 Y92.982 E0.78553 F1458.000
G1 X132.626 Y92.982 E0.17741
G1 X132.626 Y97.216 E0.25118
G1 X133.021 Y96.969 E0.02762
G1 X133.343 Y96.812 E0.02125
G1 X133.690 Y96.687 E0.02187
G1 X134.052 Y96.598 E0.02215
G1 X134.430 Y96.546 E0.02262
G1 X134.823 Y96.529 E0.02331
G1 X135.259 Y96.548 E0.02594
G1 X135.673 Y96.606 E0.02479
G1 X136.064 Y96.703 E0.02389
G1 X136.431 Y96.841 E0.02324
G1 X136.772 Y97.019 E0.02284
G1 X137.087 Y97.237 E0.02272
G1 X137.374 Y97.495 E0.02286
G1 X137.632 Y97.791 E0.02334
G1 X137.860 Y98.126 E0.02404
G1 X138.055 Y98.499 E0.02496
G1 X138.219 Y98.908 E0.02614
G1 X138.351 Y99.353 E0.02755
G1 X138.453 Y99.834 E0.02915
G1 X138.526 Y100.354 E0.03117
G1 X138.584 Y101.490 E0.06744
G1 X138.563 Y102.128 E0.03787
G1 X138.502 Y102.727 E0.03572
G1 X138.400 Y103.290 E0.03395
G1 X138.257 Y103.817 E0.03239
G1 X138.071 Y104.306 E0.03108
G1 X137.841 Y104.758 E0.03006
G1 X137.569 Y105.172 E0.02935
G1 X137.255 Y105.544 E0.02891
G1 X136.905 Y105.874 E0.02853
G1 X136.524 Y106.160 E0.02828
G1 X136.112 Y106.402 E0.02836
G1 X135.669 Y106.599 E0.02873
G1 X135.198 Y106.752 E0.02937
G1 X134.699 Y106.860 E0.03028
G1 X134.173 Y106.925 E0.03145
G1 X133.620 Y106.946 E0.03287
G1 X132.438 Y106.897 E0.07014
G1 X131.363 Y106.747 E0.06437
G1 X130.456 Y106.531 E0.05535
G1 X129.692 Y106.245 E0.04840
G1 X129.238 Y106.176 F7800.000
G1 X141.914 Y118.864 F7800.000
G1 X142.550 Y118.439 E0.04537 F1080.000
G1 X143.287 Y118.292 E0.04458 F1080.000
G1 X144.048 Y118.437 E0.04593
G1 X144.686 Y118.864 E0.04556
G1 X145.111 Y119.500 E0.04537
G1 X145.260 Y120.250 E0.04537
G1 X145.111 Y121.000 E0.04537
G1 X144.686 Y121.636 E0.04537
G1 X144.050 Y122.061 E0.04537
G1 X143.300 Y122.210 E0.04537
G1 X142.550 Y122.061 E0.04537
G1 X141.914 Y121.636 E0.04537
G1 X141.489 Y121.000 E0.04537
G1 X141.340 Y120.250 E0.04537
G1 X141.489 Y119.500 E0.04537
G1 X141.881 Y118.914 E0.04181
G1 X142.257 Y119.207 F7800.000
