; generated by Slic3r 1.3.1-dev (Build 2d100c4) on 2020-05-07 at 12:47:02

; external perimeters extrusion width = 0.44mm (3.91mm^3/s)
; perimeters extrusion width = 0.56mm (5.65mm^3/s)
; infill extrusion width = 0.50mm (5.02mm^3/s)
; solid infill extrusion width = 0.56mm (5.65mm^3/s)
; top infill extrusion width = 0.56mm (5.65mm^3/s)

M107
M190 S60 ; set bed temperature and wait for it to be reached
M104 S215 ; set temperature
G28 ; home all axes
G92 E0.0 ; reset extruder
; Filament gcode

M109 S215 ; set temperature and wait for it to be reached
G21 ; set units to millimeters
G90 ; use absolute coordinates
M83 ; use relative distances for extrusion
G1 E-1.30000 F3600.00000
G1 Z0.300 F7800.000
G1 X32.157 Y47.081 F7800.000
G1 E1.30000 F3600.00000
M201 X500 Y500
M204 P500 T500
G1 F2160.000
G1 X34.928 Y46.059 E0.17519
G1 X37.300 Y45.799 E0.14158
G1 X142.700 Y45.799 E6.25253
G1 X145.626 Y46.197 E0.17519
G1 X148.340 Y47.363 E0.17519
G1 X150.643 Y49.211 E0.17519
G1 X152.369 Y51.607 E0.17519
G1 X153.391 Y54.378 E0.17519
G1 X153.651 Y56.750 E0.14158
G1 X153.651 Y93.750 E2.19491
G1 X153.595 Y94.858 E0.06581
G1 X150.595 Y124.358 E1.75902
G1 X149.903 Y127.229 E0.17519
G1 X148.469 Y129.810 E0.17519
G1 X146.397 Y131.915 E0.17519
G1 X143.838 Y133.389 E0.17519
G1 X139.700 Y134.201 E0.25017
G1 X40.300 Y134.201 E5.89660
G1 X37.374 Y133.803 E0.17519
G1 X34.660 Y132.637 E0.17519
G1 X32.357 Y130.789 E0.17519
G1 X30.631 Y128.393 E0.17519
G1 X29.405 Y124.358 E0.25017
G1 X26.405 Y94.858 E1.75902
G1 X26.349 Y93.750 E0.06581
G1 X26.349 Y56.750 E2.19491
G1 X26.747 Y53.824 E0.17519
G1 X27.913 Y51.110 E0.17519
G1 X29.761 Y48.807 E0.17519
G1 X32.108 Y47.117 E0.17163
G1 X32.607 Y47.384 F7800.000
G1 F2160.000
G1 X35.343 Y46.459 E0.17132
G1 X37.300 Y46.274 E0.11663
G1 X142.700 Y46.274 E6.25253
G1 X145.560 Y46.672 E0.17132
G1 X148.203 Y47.836 E0.17132
G1 X150.428 Y49.678 E0.17132
G1 X152.066 Y52.057 E0.17132
G1 X152.991 Y54.793 E0.17132
G1 X153.176 Y56.750 E0.11663
G1 X153.176 Y93.750 E2.19491
G1 X153.122 Y94.810 E0.06295
G1 X150.122 Y124.310 E1.75902
G1 X149.436 Y127.115 E0.17132
G1 X148.011 Y129.627 E0.17132
G1 X145.954 Y131.654 E0.17132
G1 X143.421 Y133.042 E0.17132
G1 X139.700 Y133.726 E0.22445
G1 X40.300 Y133.726 E5.89660
G1 X37.440 Y133.328 E0.17132
G1 X34.797 Y132.164 E0.17132
G1 X32.572 Y130.322 E0.17132
G1 X30.934 Y127.943 E0.17132
G1 X29.878 Y124.310 E0.22445
G1 X26.878 Y94.810 E1.75902
G1 X26.824 Y93.750 E0.06295
G1 X26.824 Y56.750 E2.19491
G1 X27.222 Y53.890 E0.17132
G1 X28.386 Y51.247 E0.17132
G1 X30.228 Y49.022 E0.17132
G1 X32.558 Y47.418 E0.16776
G1 F6240.000
G1 X34.688 Y46.684 E-1.23500
G1 E-0.06500 F3600.00000
G1 X98.654 Y120.896 F7800.000
G1 E1.30000 F3600.00000
G1 F1620.000
G1 X98.654 Y106.441 E0.85747
G1 X105.491 Y99.604 E0.57356
G1 X121.109 Y99.604 E0.92647
G1 X127.946 Y106.441 E0.57356
G1 X127.946 Y120.896 E0.85747
G1 X98.714 Y120.896 E1.73405
G1 X99.130 Y120.420 F7800.000
G1 F1458.000
G1 X99.130 Y106.638 E0.81756
G1 X105.688 Y100.080 E0.55019
G1 X120.912 Y100.080 E0.90310
G1 X127.470 Y106.638 E0.55019
G1 X127.470 Y120.420 E0.81756
G1 X99.190 Y120.420 E1.67762
G1 X98.735 Y120.480 F7800.000
G1 F6240.000
G1 X99.180 Y118.167 E-1.23500
G1 E-0.06500 F3600.00000
G1 X98.744 Y97.197 F7800.000
G1 E1.30000 F3600.00000
G1 F1620.000
G1 X94.802 Y97.197 E0.23384
G1 X94.802 Y91.334 E0.34784
G1 X94.787 Y90.764 E0.03383
G1 X94.747 Y90.313 E0.02684
G1 X94.686 Y89.984 E0.01985
G1 X94.625 Y89.803 E0.01134
G1 X94.579 Y89.733 E0.00492
G1 X94.473 Y89.695 E0.00672
G1 X94.274 Y89.676 E0.01182
G1 X94.093 Y89.689 E0.01079
G1 X93.945 Y89.724 E0.00900
G1 X93.751 Y89.834 E0.01324
G1 X93.520 Y90.098 E0.02085
G1 X93.388 Y90.354 E0.01706
G1 X93.388 Y97.197 E0.40594
G1 X89.446 Y97.197 E0.23384
G1 X89.446 Y86.278 E0.64771
G1 X92.693 Y86.278 E0.19261
G1 X92.822 Y86.847 E0.03456
G1 X93.139 Y86.592 E0.02413
G1 X93.610 Y86.332 E0.03195
G1 X94.131 Y86.151 E0.03271
G1 X94.689 Y86.046 E0.03369
G1 X95.282 Y86.013 E0.03519
G1 X95.800 Y86.041 E0.03081
G1 X96.288 Y86.128 E0.02940
G1 X96.746 Y86.278 E0.02856
G1 X97.171 Y86.499 E0.02842
G1 X97.554 Y86.802 E0.02897
G1 X97.765 Y87.047 E0.01918
G1 X97.973 Y86.854 E0.01688
G1 X98.375 Y86.562 E0.02945
G1 X98.827 Y86.321 E0.03043
G1 X99.326 Y86.147 E0.03134
G1 X99.856 Y86.046 E0.03199
G1 X100.415 Y86.013 E0.03320
G1 X101.253 Y86.067 E0.04983
G1 X101.993 Y86.238 E0.04508
G1 X102.368 Y86.397 E0.02415
G1 X102.702 Y86.601 E0.02321
G1 X103.001 Y86.853 E0.02321
G1 X103.260 Y87.149 E0.02331
G1 X103.477 Y87.482 E0.02361
G1 X103.663 Y87.864 E0.02519
G1 X103.914 Y88.667 E0.04993
G1 X104.055 Y89.643 E0.05847
G1 X104.102 Y90.782 E0.06765
G1 X104.102 Y97.197 E0.38055
G1 X100.155 Y97.197 E0.23411
G1 X100.155 Y91.175 E0.35725
G1 X100.101 Y90.274 E0.05353
G1 X100.045 Y89.983 E0.01759
G1 X99.988 Y89.804 E0.01115
G1 X99.945 Y89.737 E0.00470
G1 X99.829 Y89.696 E0.00731
G1 X99.611 Y89.676 E0.01296
G1 X99.423 Y89.690 E0.01117
G1 X99.276 Y89.726 E0.00902
G1 X99.075 Y89.844 E0.01382
G1 X98.881 Y90.092 E0.01867
G1 X98.744 Y90.400 E0.02000
G1 X98.744 Y97.137 E0.39968
G1 X98.268 Y96.721 F7800.000
G1 F1458.000
G1 X95.277 Y96.721 E0.17741
G1 X95.277 Y91.328 E0.31998
G1 X95.262 Y90.736 E0.03510
G1 X95.218 Y90.248 E0.02907
G1 X95.147 Y89.864 E0.02316
G1 X95.056 Y89.594 E0.01693
G1 X94.944 Y89.421 E0.01220
G1 X94.792 Y89.304 E0.01134
G1 X94.577 Y89.227 E0.01355
G1 X94.280 Y89.199 E0.01771
G1 X94.020 Y89.217 E0.01549
G1 X93.791 Y89.272 E0.01395
G1 X93.595 Y89.360 E0.01277
G1 X93.429 Y89.479 E0.01212
G1 X93.123 Y89.829 E0.02756
G1 X92.912 Y90.239 E0.02733
G1 X92.912 Y96.721 E0.38457
G1 X89.922 Y96.721 E0.17741
G1 X89.922 Y86.754 E0.59128
G1 X92.313 Y86.754 E0.14186
G1 X92.537 Y87.741 E0.06001
G1 X92.763 Y87.504 E0.01943
G1 X93.405 Y86.989 E0.04881
G1 X93.805 Y86.768 E0.02713
G1 X94.254 Y86.612 E0.02819
G1 X94.747 Y86.519 E0.02975
G1 X95.282 Y86.489 E0.03183
G1 X95.746 Y86.514 E0.02753
G1 X96.172 Y86.590 E0.02566
G1 X96.560 Y86.718 E0.02427
G1 X96.911 Y86.900 E0.02346
G1 X97.223 Y87.147 E0.02359
G1 X97.493 Y87.461 E0.02455
G1 X97.708 Y87.812 E0.02444
G1 X97.958 Y87.517 E0.02299
G1 X98.276 Y87.222 E0.02570
G1 X98.628 Y86.966 E0.02580
G1 X99.019 Y86.758 E0.02629
G1 X99.450 Y86.608 E0.02708
G1 X99.915 Y86.519 E0.02810
G1 X100.413 Y86.489 E0.02961
G1 X101.184 Y86.539 E0.04579
G1 X101.846 Y86.692 E0.04032
G1 X102.150 Y86.821 E0.01958
G1 X102.423 Y86.988 E0.01897
G1 X102.667 Y87.194 E0.01894
G1 X102.880 Y87.437 E0.01919
G1 X103.063 Y87.717 E0.01985
G1 X103.220 Y88.040 E0.02128
G1 X103.448 Y88.773 E0.04555
G1 X103.581 Y89.687 E0.05478
G1 X103.626 Y90.792 E0.06561
G1 X103.626 Y96.721 E0.35176
G1 X100.631 Y96.721 E0.17768
G1 X100.631 Y91.160 E0.32989
G1 X100.574 Y90.215 E0.05619
G1 X100.507 Y89.865 E0.02113
G1 X100.422 Y89.600 E0.01654
G1 X100.311 Y89.426 E0.01225
G1 X100.157 Y89.307 E0.01153
G1 X99.931 Y89.228 E0.01417
G1 X99.616 Y89.199 E0.01876
G1 X99.349 Y89.218 E0.01588
G1 X99.118 Y89.275 E0.01410
G1 X98.923 Y89.364 E0.01273
G1 X98.756 Y89.489 E0.01238
G1 X98.605 Y89.652 E0.01316
G1 X98.470 Y89.849 E0.01419
G1 X98.354 Y90.080 E0.01536
G1 X98.268 Y90.316 E0.01486
G1 X98.268 Y96.661 E0.37644
G1 X98.266 Y97.121 F7800.000
G1 F6240.000
G1 X96.015 Y96.707 E-1.23500
G1 E-0.06500 F3600.00000
G1 X104.945 Y97.398 F7800.000
G1 E1.30000 F3600.00000
G1 F1080.000
G1 X104.945 Y82.446 E0.88697
G1 X108.855 Y82.446 E0.23196
G1 X108.855 Y97.398 E0.88697
G1 X105.005 Y97.398 E0.22840
G1 X105.421 Y96.922 F7800.000
G1 F1080.000
G1 X105.421 Y82.922 E0.83054
G1 X108.380 Y82.922 E0.17553
G1 X108.380 Y96.922 E0.83054
G1 X105.481 Y96.922 E0.17197
G1 X105.061 Y97.098 F7800.000
G1 F6240.000
G1 X105.471 Y94.669 E-1.23500
G1 E-0.06500 F3600.00000
G1 X110.607 Y90.372 F7800.000
G1 E1.30000 F3600.00000
G1 F1620.000
G1 X109.567 Y87.118 E0.20264
G1 X111.101 Y86.552 E0.09706
G1 X112.145 Y86.299 E0.06371
G1 X113.279 Y86.142 E0.06789
G1 X114.463 Y86.089 E0.07030
G1 X115.450 Y86.154 E0.05867
G1 X115.922 Y86.244 E0.02850
G1 X116.345 Y86.370 E0.02622
G1 X116.734 Y86.531 E0.02496
G1 X117.091 Y86.729 E0.02421
G1 X117.413 Y86.966 E0.02374
G1 X117.696 Y87.240 E0.02336
G1 X117.934 Y87.544 E0.02289
G1 X118.131 Y87.868 E0.02253
G1 X118.290 Y88.217 E0.02273
G1 X118.412 Y88.594 E0.02350
G1 X118.550 Y89.330 E0.04443
G1 X118.595 Y90.129 E0.04748
G1 X118.472 Y93.466 E0.19809
G1 X118.478 Y94.232 E0.04543
G1 X118.517 Y94.960 E0.04323
G1 X118.605 Y95.625 E0.03982
G1 X119.023 Y97.217 E0.09763
G1 X115.505 Y97.217 E0.20871
G1 X115.300 Y96.544 E0.04172
G1 X114.907 Y96.822 E0.02858
G1 X114.448 Y97.056 E0.03055
G1 X113.935 Y97.222 E0.03200
G1 X113.384 Y97.318 E0.03319
G1 X112.786 Y97.350 E0.03553
G1 X112.044 Y97.291 E0.04415
G1 X111.347 Y97.108 E0.04275
G1 X110.719 Y96.800 E0.04147
G1 X110.179 Y96.379 E0.04063
G1 X109.747 Y95.856 E0.04024
G1 X109.425 Y95.255 E0.04045
G1 X109.226 Y94.582 E0.04164
G1 X109.163 Y93.862 E0.04284
G1 X109.193 Y93.344 E0.03081
G1 X109.283 Y92.860 E0.02919
G1 X109.441 Y92.403 E0.02869
G1 X109.667 Y91.985 E0.02816
G1 X109.949 Y91.615 E0.02765
G1 X110.278 Y91.288 E0.02748
G1 X110.652 Y91.004 E0.02790
G1 X111.067 Y90.763 E0.02844
G1 X111.516 Y90.562 E0.02917
G1 X111.994 Y90.400 E0.02996
G1 X112.501 Y90.273 E0.03100
G1 X113.047 Y90.177 E0.03286
G1 X114.182 Y90.080 E0.06758
G1 X114.697 Y90.083 E0.03056
G1 X114.645 Y89.805 E0.01678
G1 X114.606 Y89.715 E0.00586
G1 X114.523 Y89.670 E0.00558
G1 X114.318 Y89.621 E0.01246
G1 X113.977 Y89.599 E0.02029
G1 X113.298 Y89.633 E0.04034
G1 X112.565 Y89.738 E0.04392
G1 X111.897 Y89.895 E0.04073
G1 X110.663 Y90.351 E0.07803
G1 X110.908 Y89.753 F7800.000
G1 F1458.000
G1 X110.158 Y87.407 E0.14613
G1 X111.240 Y87.007 E0.06842
G1 X112.234 Y86.767 E0.06066
G1 X113.322 Y86.616 E0.06517
G1 X114.458 Y86.566 E0.06743
G1 X115.389 Y86.627 E0.05539
G1 X115.809 Y86.707 E0.02536
G1 X116.186 Y86.819 E0.02333
G1 X116.527 Y86.960 E0.02186
G1 X116.833 Y87.130 E0.02080
G1 X117.105 Y87.330 E0.02004
G1 X117.342 Y87.559 E0.01952
G1 X117.542 Y87.815 E0.01928
G1 X117.710 Y88.091 E0.01917
G1 X117.846 Y88.389 E0.01944
G1 X117.950 Y88.711 E0.02008
G1 X118.076 Y89.388 E0.04081
G1 X118.118 Y90.134 E0.04435
G1 X117.996 Y93.459 E0.19740
G1 X118.002 Y94.247 E0.04671
G1 X118.043 Y95.004 E0.04499
G1 X118.137 Y95.717 E0.04269
G1 X118.406 Y96.741 E0.06281
G1 X115.858 Y96.741 E0.15120
G1 X115.530 Y95.664 E0.06677
G1 X115.304 Y95.909 E0.01977
G1 X115.004 Y96.171 E0.02364
G1 X114.660 Y96.414 E0.02494
G1 X114.266 Y96.615 E0.02628
G1 X113.820 Y96.759 E0.02777
G1 X113.330 Y96.845 E0.02951
G1 X112.792 Y96.873 E0.03198
G1 X112.124 Y96.821 E0.03977
G1 X111.514 Y96.660 E0.03741
G1 X110.973 Y96.395 E0.03573
G1 X110.513 Y96.035 E0.03464
G1 X110.143 Y95.590 E0.03433
G1 X109.868 Y95.073 E0.03474
G1 X109.695 Y94.493 E0.03592
G1 X109.640 Y93.855 E0.03796
G1 X109.666 Y93.401 E0.02696
G1 X109.744 Y92.982 E0.02530
G1 X109.878 Y92.595 E0.02432
G1 X110.067 Y92.244 E0.02365
G1 X110.307 Y91.929 E0.02348
G1 X110.591 Y91.648 E0.02366
G1 X110.917 Y91.400 E0.02430
G1 X111.284 Y91.187 E0.02520
G1 X111.690 Y91.006 E0.02635
G1 X112.129 Y90.857 E0.02750
G1 X112.601 Y90.739 E0.02886
G1 X113.109 Y90.649 E0.03060
G1 X114.201 Y90.556 E0.06502
G1 X115.149 Y90.561 E0.05626
G1 X115.167 Y90.334 E0.01351
G1 X115.157 Y89.954 E0.02256
G1 X115.103 Y89.664 E0.01750
G1 X115.016 Y89.466 E0.01283
G1 X114.893 Y89.329 E0.01097
G1 X114.693 Y89.222 E0.01343
G1 X114.390 Y89.149 E0.01851
G1 X113.980 Y89.123 E0.02432
G1 X113.252 Y89.159 E0.04323
G1 X112.477 Y89.270 E0.04647
G1 X111.759 Y89.438 E0.04374
G1 X110.965 Y89.732 E0.05026
G1 X110.527 Y89.874 F7800.000
G1 F6240.000
G1 X110.226 Y87.603 E-1.23500
G1 E-0.06500 F3600.00000
G1 X119.160 Y96.554 F7800.000
G1 E1.30000 F3600.00000
G1 F1620.000
G1 X119.160 Y82.506 E0.83332
G1 X123.102 Y82.506 E0.23384
G1 X123.102 Y86.394 E0.23060
G1 X123.552 Y86.231 E0.02840
G1 X123.963 Y86.131 E0.02510
G1 X124.387 Y86.072 E0.02538
G1 X124.823 Y86.053 E0.02587
G1 X125.303 Y86.074 E0.02852
G1 X125.764 Y86.138 E0.02762
G1 X126.206 Y86.248 E0.02699
G1 X126.625 Y86.406 E0.02658
G1 X127.019 Y86.611 E0.02634
G1 X127.383 Y86.863 E0.02627
G1 X127.713 Y87.160 E0.02635
G1 X128.010 Y87.500 E0.02676
G1 X128.269 Y87.882 E0.02735
G1 X128.488 Y88.300 E0.02801
G1 X128.669 Y88.752 E0.02887
G1 X128.813 Y89.236 E0.02996
G1 X128.922 Y89.751 E0.03127
G1 X129.000 Y90.309 E0.03341
G1 X129.060 Y91.485 E0.06986
G1 X129.038 Y92.159 E0.04000
G1 X128.974 Y92.793 E0.03780
G1 X128.865 Y93.395 E0.03628
G1 X128.709 Y93.964 E0.03499
G1 X128.506 Y94.499 E0.03394
G1 X128.254 Y94.998 E0.03315
G1 X127.951 Y95.457 E0.03263
G1 X127.601 Y95.872 E0.03219
G1 X127.212 Y96.238 E0.03172
G1 X126.788 Y96.557 E0.03147
G1 X126.329 Y96.826 E0.03153
G1 X125.840 Y97.044 E0.03180
G1 X125.322 Y97.212 E0.03228
G1 X124.779 Y97.330 E0.03298
G1 X124.211 Y97.399 E0.03392
G1 X123.619 Y97.422 E0.03519
G1 X122.395 Y97.371 E0.07263
G1 X121.275 Y97.215 E0.06708
G1 X120.317 Y96.986 E0.05846
G1 X119.216 Y96.575 E0.06972
G1 X119.635 Y96.224 F7800.000
G1 F1458.000
G1 X119.635 Y82.982 E0.78553
G1 X122.626 Y82.982 E0.17741
G1 X122.626 Y87.216 E0.25118
G1 X123.021 Y86.969 E0.02762
G1 X123.343 Y86.812 E0.02125
G1 X123.690 Y86.687 E0.02187
G1 X124.052 Y86.598 E0.02215
G1 X124.430 Y86.546 E0.02262
G1 X124.823 Y86.529 E0.02331
G1 X125.259 Y86.548 E0.02594
G1 X125.673 Y86.606 E0.02479
G1 X126.064 Y86.703 E0.02389
G1 X126.431 Y86.841 E0.02324
G1 X126.772 Y87.019 E0.02284
G1 X127.087 Y87.237 E0.02272
G1 X127.374 Y87.495 E0.02287
G1 X127.632 Y87.791 E0.02334
G1 X127.860 Y88.126 E0.02404
G1 X128.055 Y88.499 E0.02496
G1 X128.219 Y88.908 E0.02614
G1 X128.351 Y89.353 E0.02755
G1 X128.453 Y89.834 E0.02915
G1 X128.526 Y90.354 E0.03117
G1 X128.584 Y91.490 E0.06744
G1 X128.563 Y92.128 E0.03787
G1 X128.502 Y92.727 E0.03572
G1 X128.400 Y93.290 E0.03395
G1 X128.257 Y93.817 E0.03239
G1 X128.071 Y94.306 E0.03108
G1 X127.841 Y94.758 E0.03006
G1 X127.569 Y95.172 E0.02935
G1 X127.255 Y95.544 E0.02890
G1 X126.905 Y95.874 E0.02853
G1 X126.524 Y96.160 E0.02828
G1 X126.112 Y96.402 E0.02836
G1 X125.669 Y96.599 E0.02873
G1 X125.198 Y96.752 E0.02937
G1 X124.699 Y96.860 E0.03028
G1 X124.173 Y96.925 E0.03145
G1 X123.620 Y96.946 E0.03287
G1 X122.438 Y96.897 E0.07014
G1 X121.363 Y96.747 E0.06437
G1 X120.456 Y96.531 E0.05535
G1 X119.692 Y96.245 E0.04840
G1 X119.237 Y96.185 F7800.000
G1 F6240.000
G1 X119.682 Y93.991 E-1.23500
G1 E-0.06500 F3600.00000
G1 X131.914 Y108.864 F7800.000
G1 E1.30000 F3600.00000
G1 F1080.000
G1 X132.550 Y108.439 E0.04537
G1 X133.300 Y108.290 E0.04537
G1 X134.050 Y108.439 E0.04537
G1 X134.686 Y108.864 E0.04537
G1 X135.111 Y109.500 E0.04537
G1 X135.260 Y110.250 E0.04537
G1 X135.111 Y111.000 E0.04537
G1 X134.686 Y111.636 E0.04537
G1 X134.050 Y112.061 E0.04537
G1 X133.300 Y112.210 E0.04537
G1 X132.550 Y112.061 E0.04537
G1 X131.914 Y111.636 E0.04537
G1 X131.489 Y111.000 E0.04537
G1 X131.340 Y110.250 E0.04537
G1 X131.489 Y109.500 E0.04537
G1 X131.881 Y108.914 E0.04181
G1 X132.257 Y109.207 F7800.000
G1 F1080.000
G1 X132.735 Y108.887 E0.03415
G1 X133.300 Y108.775 E0.03415
G1 X133.865 Y108.887 E0.03415
G1 X134.343 Y109.207 E0.03415
G1 X134.663 Y109.685 E0.03415
G1 X134.775 Y110.250 E0.03415
G1 X134.663 Y110.815 E0.03415
G1 X134.343 Y111.293 E0.03415
G1 X133.865 Y111.613 E0.03415
G1 X133.300 Y111.725 E0.03415
G1 X132.735 Y111.613 E0.03415
G1 X132.257 Y111.293 E0.03415
G1 X131.937 Y110.815 E0.03415
G1 X131.825 Y110.250 E0.03415
G1 X131.937 Y109.685 E0.03415
G1 X132.223 Y109.257 E0.03059
G1 X132.257 Y109.207 F7800.000
G1 F6240.000
G1 X132.257 Y109.207 E-0.03288
G1 F6240.000
G1 X132.735 Y108.887 E-0.31550
G1 F6240.000
G1 X133.300 Y108.775 E-0.31548
G1 F6240.000
G1 X133.865 Y108.887 E-0.31548
G1 F6240.000
G1 X134.252 Y109.146 E-0.25565
G1 E-0.06500 F3600.00000
G1 X95.260 Y110.250 F7800.000
G1 E1.30000 F3600.00000
G1 F1080.000
G1 X95.111 Y111.000 E0.04537
G1 X94.686 Y111.636 E0.04537
G1 X94.050 Y112.061 E0.04537
G1 X93.300 Y112.210 E0.04537
G1 X92.550 Y112.061 E0.04537
G1 X91.914 Y111.636 E0.04537
G1 X91.489 Y111.000 E0.04537
G1 X91.340 Y110.250 E0.04537
G1 X91.489 Y109.500 E0.04537
G1 X91.914 Y108.864 E0.04537
G1 X92.550 Y108.439 E0.04537
G1 X93.300 Y108.290 E0.04537
G1 X94.050 Y108.439 E0.04537
