; generated by Slic3r 1.3.1-dev (Build 2d100c4) on 2020-05-15 at 06:24:08

; external perimeters extrusion width = 0.44mm (3.91mm^3/s)
; perimeters extrusion width = 0.56mm (5.65mm^3/s)
; infill extrusion width = 0.50mm (5.02mm^3/s)
; solid infill extrusion width = 0.56mm (5.65mm^3/s)
; top infill extrusion width = 0.56mm (5.65mm^3/s)

M107
M190 S60 ; set bed temperature and wait for it to be reached
M104 S215 ; set temperature
G28 ; home all axes
G92 E0.0 ; reset extruder
; Filament gcode

M109 S215 ; set temperature and wait for it to be reached
G21 ; set units to millimeters
G90 ; use absolute coordinates
M83 ; use relative distances for extrusion
G1 E-1.30000 F3600.00000
G1 Z0.300 F7800.000
G1 X36.424 Y40.166 F7800.000
G1 E1.30000 F3600.00000
M201 X500 Y500
M204 P500 T500
G1 F2160.000
G1 X36.788 Y39.836 E0.02910
G1 X37.619 Y39.154 E0.06380
G1 X38.013 Y38.862 E0.02911
G1 X38.907 Y38.264 E0.06379
G1 X39.328 Y38.012 E0.02911
G1 X40.276 Y37.505 E0.06375
G1 X40.720 Y37.296 E0.02911
G1 X41.712 Y36.884 E0.06375
G1 X42.174 Y36.719 E0.02911
G1 X43.202 Y36.407 E0.06371
G1 X43.678 Y36.288 E0.02910
G1 X44.733 Y36.078 E0.06380
G1 X45.218 Y36.006 E0.02911
G1 X46.288 Y35.901 E0.06374
G1 X46.778 Y35.877 E0.02911
G1 X47.315 Y35.864 E0.03189
G1 X113.315 Y35.864 E3.91524
G1 X113.852 Y35.877 E0.03189
G1 X114.342 Y35.901 E0.02911
G1 X115.412 Y36.006 E0.06373
G1 X115.897 Y36.078 E0.02911
G1 X116.952 Y36.288 E0.06380
G1 X117.428 Y36.407 E0.02910
G1 X118.456 Y36.719 E0.06371
G1 X118.918 Y36.884 E0.02911
G1 X119.910 Y37.296 E0.06375
G1 X120.354 Y37.505 E0.02911
G1 X121.302 Y38.012 E0.06374
G1 X121.723 Y38.264 E0.02911
G1 X122.617 Y38.862 E0.06380
G1 X123.011 Y39.154 E0.02911
G1 X123.842 Y39.836 E0.06380
G1 X124.206 Y40.166 E0.02910
G1 X124.964 Y40.924 E0.06360
G1 X125.293 Y41.288 E0.02911
G1 X125.977 Y42.121 E0.06394
G1 X126.269 Y42.515 E0.02910
G1 X126.865 Y43.406 E0.06362
G1 X127.117 Y43.827 E0.02911
G1 X127.624 Y44.776 E0.06378
G1 X127.962 Y45.500 E0.04739
G1 X147.414 Y89.811 E2.87078
G1 X148.203 Y92.500 E0.16622
G1 X148.501 Y94.382 E0.11303
G1 X148.501 Y97.808 E0.20328
G1 X148.203 Y99.690 E0.11303
G1 X147.145 Y102.949 E0.20323
G1 X146.280 Y104.646 E0.11303
G1 X144.266 Y107.418 E0.20326
G1 X111.918 Y139.766 E2.71374
G1 X109.146 Y141.780 E0.20326
G1 X107.449 Y142.645 E0.11303
G1 X104.190 Y143.703 E0.20323
G1 X102.308 Y144.001 E0.11303
G1 X98.882 Y144.001 E0.20328
G1 X97.000 Y143.703 E0.11303
G1 X93.741 Y142.645 E0.20323
G1 X92.044 Y141.780 E0.11303
G1 X90.799 Y141.038 E0.08595
G1 X66.099 Y124.008 E1.77979
G1 X63.916 Y122.019 E0.17519
G1 X62.816 Y120.441 E0.11410
G1 X44.816 Y89.064 E2.14587
G1 X44.108 Y87.583 E0.09738
G1 X32.489 Y57.697 E1.90221
G1 X32.219 Y56.956 E0.04678
G1 X31.907 Y55.927 E0.06378
G1 X31.788 Y55.451 E0.02911
G1 X31.578 Y54.397 E0.06372
G1 X31.506 Y53.912 E0.02911
G1 X31.401 Y52.843 E0.06373
G1 X31.377 Y52.353 E0.02911
G1 X31.377 Y51.277 E0.06381
G1 X31.401 Y50.787 E0.02911
G1 X31.506 Y49.718 E0.06373
G1 X31.578 Y49.233 E0.02911
G1 X31.788 Y48.179 E0.06372
G1 X31.907 Y47.703 E0.02911
G1 X32.219 Y46.674 E0.06378
G1 X32.384 Y46.212 E0.02911
G1 X32.796 Y45.219 E0.06378
G1 X33.006 Y44.776 E0.02911
G1 X33.513 Y43.827 E0.06378
G1 X33.765 Y43.406 E0.02911
G1 X34.361 Y42.515 E0.06360
G1 X34.653 Y42.121 E0.02910
G1 X35.337 Y41.288 E0.06395
G1 X35.666 Y40.924 E0.02911
G1 X36.382 Y40.208 E0.06004
G1 X36.744 Y40.518 F7800.000
G1 F2160.000
G1 X37.107 Y40.189 E0.02910
G1 X37.902 Y39.536 E0.06103
G1 X38.297 Y39.244 E0.02911
G1 X39.152 Y38.672 E0.06102
G1 X39.573 Y38.420 E0.02911
G1 X40.479 Y37.935 E0.06098
G1 X40.923 Y37.726 E0.02911
G1 X41.873 Y37.332 E0.06098
G1 X42.335 Y37.167 E0.02911
G1 X43.318 Y36.869 E0.06095
G1 X43.794 Y36.750 E0.02910
G1 X44.803 Y36.549 E0.06103
G1 X45.288 Y36.477 E0.02911
G1 X46.311 Y36.376 E0.06097
G1 X46.801 Y36.352 E0.02911
G1 X47.315 Y36.339 E0.03050
G1 X113.315 Y36.339 E3.91524
G1 X113.829 Y36.352 E0.03050
G1 X114.319 Y36.376 E0.02911
G1 X115.342 Y36.477 E0.06097
G1 X115.827 Y36.549 E0.02911
G1 X116.836 Y36.750 E0.06103
G1 X117.312 Y36.869 E0.02910
G1 X118.295 Y37.167 E0.06095
G1 X118.757 Y37.332 E0.02911
G1 X119.707 Y37.726 E0.06098
G1 X120.151 Y37.935 E0.02911
G1 X121.057 Y38.420 E0.06097
G1 X121.478 Y38.672 E0.02911
G1 X122.333 Y39.244 E0.06103
G1 X122.728 Y39.536 E0.02911
G1 X123.523 Y40.189 E0.06103
G1 X123.886 Y40.518 E0.02910
G1 X124.611 Y41.243 E0.06084
G1 X124.941 Y41.607 E0.02911
G1 X125.595 Y42.404 E0.06116
G1 X125.887 Y42.798 E0.02910
G1 X126.457 Y43.651 E0.06085
G1 X126.709 Y44.072 E0.02911
G1 X127.194 Y44.979 E0.06101
G1 X127.526 Y45.691 E0.04660
G1 X146.979 Y90.002 E2.87078
G1 X147.734 Y92.574 E0.15900
G1 X148.032 Y94.456 E0.11303
G1 X148.032 Y97.734 E0.19445
G1 X147.734 Y99.616 E0.11303
G1 X146.721 Y102.733 E0.19441
G1 X145.856 Y104.430 E0.11303
G1 X143.929 Y107.082 E0.19444
G1 X111.582 Y139.429 E2.71374
G1 X108.930 Y141.356 E0.19444
G1 X107.233 Y142.221 E0.11303
G1 X104.116 Y143.234 E0.19441
G1 X102.234 Y143.532 E0.11303
G1 X98.956 Y143.532 E0.19445
G1 X97.074 Y143.234 E0.11303
G1 X93.957 Y142.221 E0.19441
G1 X92.260 Y141.356 E0.11303
G1 X91.069 Y140.646 E0.08221
G1 X66.369 Y123.616 E1.77979
G1 X64.240 Y121.665 E0.17132
G1 X63.228 Y120.205 E0.10538
G1 X45.228 Y88.828 E2.14587
G1 X44.551 Y87.411 E0.09315
G1 X32.932 Y57.524 E1.90221
G1 X32.667 Y56.795 E0.04601
G1 X32.368 Y55.811 E0.06101
G1 X32.249 Y55.335 E0.02911
G1 X32.049 Y54.328 E0.06095
G1 X31.977 Y53.842 E0.02911
G1 X31.876 Y52.820 E0.06096
G1 X31.852 Y52.329 E0.02911
G1 X31.852 Y51.301 E0.06104
G1 X31.876 Y50.810 E0.02911
G1 X31.977 Y49.788 E0.06096
G1 X32.049 Y49.302 E0.02911
G1 X32.249 Y48.295 E0.06095
G1 X32.368 Y47.819 E0.02911
G1 X32.667 Y46.835 E0.06101
G1 X32.832 Y46.373 E0.02911
G1 X33.226 Y45.422 E0.06101
G1 X33.436 Y44.979 E0.02911
G1 X33.921 Y44.072 E0.06101
G1 X34.173 Y43.651 E0.02911
G1 X34.743 Y42.798 E0.06084
G1 X35.035 Y42.404 E0.02910
G1 X35.689 Y41.607 E0.06117
G1 X36.019 Y41.243 E0.02911
G1 X36.701 Y40.561 E0.05728
G1 F6240.000
G1 X37.107 Y40.189 E-0.30175
G1 F6240.000
G1 X37.902 Y39.536 E-0.56385
G1 F6240.000
G1 X38.297 Y39.244 E-0.26892
G1 F6240.000
G1 X38.449 Y39.142 E-0.10048
G1 E-0.06500 F3600.00000
G1 X98.363 Y123.031 F7800.000
G1 E1.30000 F3600.00000
G1 F1080.000
G1 X99.858 Y122.801 E0.08970
G1 X101.300 Y123.154 E0.08809
G1 X103.161 Y124.021 E0.12180
G1 X104.358 Y124.900 E0.08809
G1 X105.143 Y126.192 E0.08970
G1 X105.373 Y127.687 E0.08970
G1 X105.013 Y129.155 E0.08970
G1 X104.119 Y130.375 E0.08970
G1 X102.827 Y131.159 E0.08970
G1 X101.332 Y131.389 E0.08970
G1 X99.890 Y131.036 E0.08809
G1 X98.029 Y130.169 E0.12180
G1 X96.832 Y129.290 E0.08809
G1 X96.047 Y127.998 E0.08970
G1 X95.817 Y126.503 E0.08970
G1 X96.177 Y125.035 E0.08970
G1 X97.071 Y123.815 E0.08970
G1 X98.312 Y123.062 E0.08614
G1 X98.433 Y122.637 F7800.000
G1 F6240.000
G1 X99.858 Y122.801 E-0.85920
G1 F6240.000
G1 X100.524 Y122.964 E-0.37580
G1 E-0.06500 F3600.00000
G1 X95.687 Y128.322 F7800.000
G1 E1.30000 F3600.00000
G1 F1080.000
G1 X96.474 Y129.618 E0.08994
G1 X97.786 Y130.580 E0.09648
G1 X99.731 Y131.487 E0.12735
G1 X101.311 Y131.874 E0.09648
G1 X102.720 Y131.657 E0.08454
G1 X102.794 Y131.888 E0.01443
G1 X102.244 Y132.169 E0.03666
G1 X100.595 Y132.430 E0.09902
G1 X98.946 Y132.169 E0.09902
G1 X97.459 Y131.411 E0.09902
G1 X96.279 Y130.231 E0.09902
G1 X95.521 Y128.744 E0.09902
G1 X95.467 Y128.403 E0.02048
G1 X95.631 Y128.343 E0.01036
G1 F6240.000
G1 X96.474 Y129.618 E-0.83796
G1 F6240.000
G1 X97.058 Y130.046 E-0.39704
G1 E-0.06500 F3600.00000
G1 X101.332 Y100.389 F7800.000
G1 E1.30000 F3600.00000
G1 F1080.000
G1 X99.890 Y100.036 E0.08809
G1 X98.029 Y99.169 E0.12180
G1 X96.832 Y98.290 E0.08809
G1 X96.047 Y96.998 E0.08970
G1 X95.817 Y95.503 E0.08970
G1 X96.177 Y94.035 E0.08970
G1 X97.071 Y92.815 E0.08970
G1 X98.363 Y92.031 E0.08970
G1 X99.858 Y91.801 E0.08970
G1 X101.300 Y92.154 E0.08809
G1 X103.161 Y93.021 E0.12180
G1 X104.358 Y93.900 E0.08809
G1 X105.143 Y95.192 E0.08970
G1 X105.373 Y96.687 E0.08970
G1 X105.013 Y98.155 E0.08970
G1 X104.119 Y99.375 E0.08970
G1 X102.827 Y100.159 E0.08970
G1 X101.392 Y100.380 E0.08614
G1 X101.332 Y100.389 F7800.000
G1 F6240.000
G1 X101.332 Y100.389 E-0.03288
G1 F6240.000
G1 X99.890 Y100.036 E-0.81387
G1 F6240.000
G1 X99.248 Y99.737 E-0.38824
G1 E-0.06500 F3600.00000
G1 X126.962 Y96.444 F7800.000
G1 E1.30000 F3600.00000
G1 F1080.000
G1 X126.817 Y95.503 E0.05646
G1 X127.177 Y94.035 E0.08970
G1 X128.071 Y92.815 E0.08970
G1 X129.363 Y92.031 E0.08970
G1 X130.858 Y91.801 E0.08970
G1 X132.300 Y92.154 E0.08809
G1 X134.161 Y93.021 E0.12180
G1 X135.358 Y93.900 E0.08809
G1 X136.143 Y95.192 E0.08970
G1 X136.373 Y96.687 E0.08970
G1 X136.013 Y98.155 E0.08970
G1 X135.119 Y99.375 E0.08970
G1 X133.827 Y100.159 E0.08970
G1 X132.332 Y100.389 E0.08970
G1 X130.890 Y100.036 E0.08809
G1 X129.029 Y99.169 E0.12180
G1 X127.832 Y98.290 E0.08809
G1 X127.047 Y96.998 E0.08970
G1 X126.971 Y96.503 E0.02968
G1 X126.577 Y96.335 F7800.000
G1 F6240.000
G1 X126.817 Y95.503 E-0.55449
G1 F6240.000
G1 X127.112 Y94.297 E-0.68051
G1 E-0.06500 F3600.00000
G1 X124.652 Y90.627 F7800.000
G1 E1.30000 F3600.00000
G1 F1458.000
G1 X116.095 Y91.000 E0.50808
G1 X102.127 Y90.390 E0.82942
G1 X101.410 Y90.296 E0.04289
G1 X101.399 Y90.406 E0.00655
G1 X100.595 Y90.278 E0.04832
G1 X98.798 Y90.563 E0.10796
G1 X98.045 Y90.946 E0.05010
G1 X98.045 Y56.676 E2.03297
G1 X98.660 Y56.579 E0.03691
G1 X99.308 Y56.545 E0.03852
G1 X110.667 Y56.545 E0.67384
G1 X113.387 Y60.814 E0.30027
G1 X117.426 Y68.573 E0.51892
G1 X120.773 Y76.655 E0.51891
G1 X123.404 Y84.997 E0.51891
G1 X124.639 Y90.568 E0.33849
G1 X124.699 Y91.024 F7800.000
G1 F6240.000
G1 X122.388 Y90.682 E-1.23500
G1 E-0.06500 F3600.00000
G1 X95.004 Y54.327 F7800.000
G1 E1.30000 F3600.00000
G1 F1080.000
G1 X93.966 Y54.856 E0.06911
G1 X92.815 Y55.038 E0.06910
G1 X91.664 Y54.856 E0.06910
G1 X90.626 Y54.327 E0.06911
G1 X89.803 Y53.504 E0.06910
G1 X89.274 Y52.466 E0.06910
G1 X89.092 Y51.315 E0.06911
G1 X89.274 Y50.164 E0.06911
G1 X89.803 Y49.126 E0.06910
G1 X90.626 Y48.303 E0.06910
G1 X91.664 Y47.774 E0.06911
G1 X92.815 Y47.592 E0.06910
G1 X93.966 Y47.774 E0.06911
G1 X95.004 Y48.303 E0.06911
G1 X95.827 Y49.126 E0.06910
G1 X96.356 Y50.164 E0.06910
G1 X96.538 Y51.315 E0.06911
G1 X96.356 Y52.466 E0.06911
G1 X95.827 Y53.504 E0.06910
G1 X95.046 Y54.285 E0.06554
G1 X95.004 Y54.327 F7800.000
G1 F6240.000
G1 X95.004 Y54.327 E-0.03288
G1 F6240.000
G1 X93.966 Y54.856 E-0.63849
G1 F6240.000
G1 X92.950 Y55.017 E-0.56362
G1 E-0.06500 F3600.00000
G1 X66.538 Y51.315 F7800.000
G1 E1.30000 F3600.00000
G1 F1080.000
G1 X66.356 Y52.466 E0.06911
G1 X65.827 Y53.504 E0.06911
G1 X65.004 Y54.327 E0.06911
G1 X63.966 Y54.856 E0.06911
G1 X62.815 Y55.038 E0.06911
G1 X61.664 Y54.856 E0.06911
G1 X60.626 Y54.327 E0.06911
G1 X59.803 Y53.504 E0.06911
G1 X59.274 Y52.466 E0.06911
G1 X59.092 Y51.315 E0.06911
G1 X59.274 Y50.164 E0.06911
G1 X59.803 Y49.126 E0.06911
G1 X60.626 Y48.303 E0.06911
G1 X61.664 Y47.774 E0.06911
G1 X62.815 Y47.592 E0.06911
G1 X63.966 Y47.774 E0.06911
G1 X65.004 Y48.303 E0.06911
G1 X65.827 Y49.126 E0.06911
G1 X66.356 Y50.164 E0.06911
G1 X66.529 Y51.256 E0.06555
G1 X66.538 Y51.315 F7800.000
G1 F6240.000
G1 X66.538 Y51.315 E-0.03289
G1 F6240.000
G1 X66.356 Y52.466 E-0.63847
G1 F6240.000
G1 X65.889 Y53.382 E-0.56365
G1 E-0.06500 F3600.00000
G1 X73.061 Y74.361 F7800.000
G1 E1.30000 F3600.00000
G1 F1620.000
G1 X73.061 Y62.795 E0.68607
G1 X73.025 Y62.110 E0.04073
G1 X72.914 Y61.412 E0.04189
G1 X72.731 Y60.730 E0.04189
G1 X72.478 Y60.071 E0.04189
G1 X72.158 Y59.442 E0.04189
G1 X71.773 Y58.849 E0.04189
G1 X71.329 Y58.301 E0.04189
G1 X70.829 Y57.801 E0.04189
G1 X70.281 Y57.357 E0.04189
G1 X69.688 Y56.972 E0.04189
G1 X69.059 Y56.652 E0.04189
G1 X68.400 Y56.399 E0.04189
G1 X67.718 Y56.216 E0.04189
G1 X67.020 Y56.105 E0.04189
G1 X66.335 Y56.069 E0.04073
G1 X47.333 Y56.069 E1.12719
G1 X46.898 Y56.048 E0.02585
G1 X46.484 Y55.987 E0.02482
G1 X46.080 Y55.885 E0.02471
G1 X45.687 Y55.745 E0.02476
G1 X45.310 Y55.566 E0.02476
G1 X44.952 Y55.352 E0.02476
G1 X44.617 Y55.103 E0.02476
G1 X44.307 Y54.823 E0.02476
G1 X44.027 Y54.513 E0.02476
G1 X43.778 Y54.178 E0.02476
G1 X43.564 Y53.820 E0.02477
G1 X43.385 Y53.443 E0.02476
G1 X43.245 Y53.050 E0.02476
G1 X43.143 Y52.645 E0.02476
G1 X43.082 Y52.232 E0.02476
G1 X43.062 Y51.815 E0.02476
G1 X43.082 Y51.398 E0.02476
G1 X43.143 Y50.985 E0.02476
G1 X43.245 Y50.580 E0.02476
G1 X43.385 Y50.187 E0.02476
G1 X43.564 Y49.810 E0.02476
G1 X43.778 Y49.452 E0.02477
G1 X44.027 Y49.117 E0.02476
G1 X44.307 Y48.807 E0.02476
G1 X44.617 Y48.527 E0.02476
G1 X44.952 Y48.278 E0.02476
G1 X45.310 Y48.064 E0.02476
G1 X45.687 Y47.885 E0.02476
G1 X46.080 Y47.745 E0.02476
G1 X46.485 Y47.643 E0.02476
G1 X46.898 Y47.582 E0.02476
G1 X47.333 Y47.561 E0.02585
G1 X60.553 Y47.561 E0.78424
G1 X60.606 Y47.779 E0.01335
G1 X60.343 Y47.913 E0.01748
G1 X59.413 Y48.843 E0.07804
G1 X58.816 Y50.016 E0.07804
G1 X58.610 Y51.315 E0.07804
G1 X58.816 Y52.614 E0.07804
G1 X59.413 Y53.787 E0.07804
G1 X60.343 Y54.717 E0.07804
G1 X61.516 Y55.314 E0.07804
G1 X62.815 Y55.520 E0.07804
G1 X64.114 Y55.314 E0.07804
G1 X65.287 Y54.717 E0.07804
G1 X66.217 Y53.787 E0.07804
G1 X66.814 Y52.614 E0.07804
G1 X67.020 Y51.315 E0.07804
G1 X66.814 Y50.016 E0.07804
G1 X66.217 Y48.843 E0.07804
G1 X65.287 Y47.913 E0.07804
G1 X65.024 Y47.779 E0.01748
G1 X65.077 Y47.561 E0.01335
G1 X90.553 Y47.561 E1.51134
G1 X90.606 Y47.779 E0.01335
G1 X90.343 Y47.913 E0.01748
G1 X89.413 Y48.843 E0.07804
G1 X88.816 Y50.016 E0.07804
G1 X88.610 Y51.315 E0.07804
G1 X88.816 Y52.614 E0.07804
G1 X89.413 Y53.787 E0.07804
G1 X90.343 Y54.717 E0.07804
G1 X91.516 Y55.314 E0.07805
G1 X92.815 Y55.520 E0.07804
G1 X94.114 Y55.314 E0.07804
G1 X95.287 Y54.717 E0.07805
G1 X96.217 Y53.787 E0.07804
G1 X96.814 Y52.614 E0.07804
G1 X97.020 Y51.315 E0.07804
G1 X96.814 Y50.016 E0.07804
G1 X96.217 Y48.843 E0.07804
G1 X95.287 Y47.913 E0.07804
G1 X95.024 Y47.779 E0.01748
G1 X95.077 Y47.561 E0.01335
G1 X113.297 Y47.561 E1.08085
G1 X113.732 Y47.582 E0.02585
G1 X114.145 Y47.643 E0.02476
G1 X114.550 Y47.745 E0.02476
G1 X114.943 Y47.885 E0.02476
G1 X115.320 Y48.064 E0.02476
G1 X115.678 Y48.278 E0.02476
G1 X116.013 Y48.527 E0.02476
G1 X116.323 Y48.807 E0.02476
G1 X116.603 Y49.117 E0.02476
G1 X116.852 Y49.452 E0.02476
G1 X117.066 Y49.810 E0.02477
G1 X117.245 Y50.187 E0.02476
G1 X117.385 Y50.580 E0.02476
G1 X117.487 Y50.985 E0.02476
G1 X117.548 Y51.398 E0.02476
G1 X117.597 Y52.395 E0.05923
G1 X117.655 Y52.393 E0.00344
G1 X117.751 Y54.595 E0.13077
G1 X118.443 Y59.850 E0.31437
G1 X119.590 Y65.023 E0.31437
G1 X121.183 Y70.078 E0.31437
G1 X123.211 Y74.974 E0.31437
G1 X125.658 Y79.674 E0.31437
G1 X128.506 Y84.144 E0.31437
G1 X131.732 Y88.348 E0.31440
G1 X134.866 Y91.759 E0.27477
G1 X134.789 Y91.837 E0.00647
G1 X135.911 Y92.959 E0.09417
G1 X136.669 Y94.446 E0.09902
G1 X136.723 Y94.787 E0.02047
G1 X136.503 Y94.868 E0.01392
G1 X135.716 Y93.572 E0.08994
G1 X134.404 Y92.610 E0.09648
G1 X132.459 Y91.703 E0.12735
G1 X130.879 Y91.316 E0.09648
G1 X129.197 Y91.575 E0.10092
G1 X127.743 Y92.458 E0.10092
G1 X126.737 Y93.830 E0.10092
G1 X126.333 Y95.482 E0.10092
G1 X126.591 Y97.164 E0.10092
G1 X127.474 Y98.618 E0.10092
G1 X128.786 Y99.580 E0.09648
G1 X130.731 Y100.487 E0.12735
G1 X132.311 Y100.874 E0.09648
G1 X133.720 Y100.657 E0.08454
G1 X133.794 Y100.888 E0.01443
G1 X133.244 Y101.169 E0.03667
G1 X131.595 Y101.430 E0.09902
G1 X129.946 Y101.169 E0.09902
G1 X128.270 Y100.315 E0.11159
G1 X127.351 Y99.654 E0.06717
G1 X125.560 Y98.620 E0.12269
G1 X123.675 Y97.769 E0.12270
G1 X121.714 Y97.110 E0.12269
G1 X119.698 Y96.650 E0.12269
G1 X117.645 Y96.393 E0.12270
G1 X115.578 Y96.341 E0.12269
G1 X113.515 Y96.496 E0.12270
G1 X111.478 Y96.855 E0.12269
G1 X109.488 Y97.415 E0.12269
G1 X107.562 Y98.171 E0.12270
G1 X105.722 Y99.115 E0.12269
G1 X104.711 Y99.767 E0.07138
G1 X104.548 Y99.595 E0.01409
G1 X105.453 Y98.360 E0.09079
G1 X105.857 Y96.708 E0.10092
G1 X105.599 Y95.026 E0.10092
G1 X104.716 Y93.572 E0.10092
G1 X103.404 Y92.610 E0.09648
G1 X101.459 Y91.703 E0.12735
G1 X99.879 Y91.316 E0.09648
G1 X98.470 Y91.533 E0.08455
G1 X98.396 Y91.302 E0.01443
