; generated by Slic3r 1.2.9 on 2020-05-14 at 22:32:14

; external perimeters extrusion width = 0.40mm
; perimeters extrusion width = 0.56mm
; infill extrusion width = 0.56mm
; solid infill extrusion width = 0.56mm
; top infill extrusion width = 0.56mm

M107
M190 S60 ; set bed temperature
M104 S215 ; set temperature
G28 ; home all axes
G92 E0.0 ; reset extruder
M109 S215 ; wait for temperature to be reached
G21 ; set units to millimeters
G90 ; use absolute coordinates
M83 ; use relative distances for extrusion
G1 E-1.30000 F3600.00000
G1 Z0.300 F7800.000
G1 X46.424 Y50.166 F7800.000
G1 E1.30000 F3600.00000
M204 S500
G1 X46.788 Y49.836 E0.02911 F2160.000
G1 X47.619 Y49.154 E0.06380
G1 X48.016 Y48.860 E0.02933
G1 X48.907 Y48.264 E0.06357
G1 X49.329 Y48.012 E0.02914
G1 X50.276 Y47.505 E0.06373
G1 X50.722 Y47.294 E0.02928
G1 X51.712 Y46.884 E0.06357
G1 X52.177 Y46.718 E0.02930
G1 X53.202 Y46.407 E0.06352
G1 X53.676 Y46.289 E0.02899
G1 X54.733 Y46.078 E0.06391
G1 X55.218 Y46.006 E0.02911
G1 X56.288 Y45.901 E0.06373
G1 X57.315 Y45.864 E0.06099
G1 X123.315 Y45.864 E3.91524
G1 X123.852 Y45.877 E0.03189
G1 X124.343 Y45.901 E0.02911 F2160.000
G1 X125.412 Y46.006 E0.06373
G1 X125.895 Y46.078 E0.02899
G1 X126.952 Y46.288 E0.06391
G1 X127.428 Y46.407 E0.02910
G1 X128.456 Y46.719 E0.06371
G1 X128.916 Y46.884 E0.02899
G1 X129.910 Y47.296 E0.06386
G1 X130.354 Y47.505 E0.02911
G1 X131.302 Y48.012 E0.06374
G1 X131.723 Y48.264 E0.02911
G1 X132.617 Y48.862 E0.06380
G1 X133.021 Y49.161 E0.02982
G1 X133.842 Y49.836 E0.06308
G1 X134.204 Y50.164 E0.02899
G1 X134.964 Y50.924 E0.06374
G1 X135.294 Y51.288 E0.02911
G1 X135.977 Y52.121 E0.06393
G1 X136.268 Y52.513 E0.02899
G1 X136.865 Y53.406 E0.06373
G1 X137.126 Y53.841 E0.03007
G1 X137.624 Y54.776 E0.06283
G1 X137.962 Y55.500 E0.04739
G1 X157.414 Y99.811 E2.87078
G1 X158.203 Y102.500 E0.16622
G1 X158.501 Y104.382 E0.11303
G1 X158.501 Y107.808 E0.20328
G1 X158.203 Y109.690 E0.11304
G1 X157.145 Y112.948 E0.20320
G1 X156.280 Y114.646 E0.11306
G1 X154.266 Y117.418 E0.20326
G1 X121.918 Y149.766 E2.71374
G1 X119.146 Y151.780 E0.20326
G1 X117.449 Y152.645 E0.11303
G1 X114.190 Y153.703 E0.20323
G1 X112.308 Y154.001 E0.11303
G1 X108.882 Y154.001 E0.20328
G1 X107.000 Y153.703 E0.11303
G1 X103.742 Y152.645 E0.20323
G1 X102.044 Y151.780 E0.11304
G1 X100.799 Y151.038 E0.08594
G1 X76.099 Y134.008 E1.77979
G1 X73.916 Y132.019 E0.17519
G1 X72.816 Y130.441 E0.11410
G1 X54.816 Y99.064 E2.14587
G1 X54.108 Y97.583 E0.09738
G1 X42.489 Y67.697 E1.90221
G1 X42.219 Y66.956 E0.04678
G1 X41.907 Y65.927 E0.06378
G1 X41.788 Y65.451 E0.02911
G1 X41.578 Y64.397 E0.06372
G1 X41.506 Y63.912 E0.02911
G1 X41.401 Y62.848 E0.06344
G1 X41.377 Y62.353 E0.02939
G1 X41.377 Y61.277 E0.06381
G1 X41.401 Y60.787 E0.02911
G1 X41.506 Y59.718 E0.06373
G1 X41.578 Y59.233 E0.02911
G1 X41.788 Y58.179 E0.06372
G1 X41.908 Y57.700 E0.02933
G1 X42.219 Y56.674 E0.06355
G1 X42.386 Y56.207 E0.02944
G1 X42.796 Y55.219 E0.06345
G1 X43.005 Y54.777 E0.02899
G1 X43.513 Y53.827 E0.06390
G1 X43.765 Y53.406 E0.02911
G1 X44.360 Y52.515 E0.06360
G1 X44.653 Y52.120 E0.02914
G1 X45.337 Y51.288 E0.06391
G1 X45.667 Y50.924 E0.02914
G1 X46.382 Y50.208 E0.06001
G1 X46.744 Y50.518 F7800.000
G1 X47.107 Y50.189 E0.02911 F2160.000
G1 X47.902 Y49.536 E0.06103
G1 X48.299 Y49.242 E0.02932
G1 X49.152 Y48.672 E0.06081
G1 X49.573 Y48.420 E0.02913
G1 X50.479 Y47.935 E0.06096
G1 X50.925 Y47.724 E0.02927
G1 X51.873 Y47.332 E0.06081
G1 X52.338 Y47.166 E0.02930
G1 X53.318 Y46.869 E0.06076
G1 X53.792 Y46.750 E0.02899
G1 X54.803 Y46.549 E0.06115
G1 X55.288 Y46.477 E0.02911
G1 X56.311 Y46.376 E0.06097
G1 X57.315 Y46.339 E0.05961
G1 X123.315 Y46.339 E3.91524
G1 X123.829 Y46.352 E0.03051
G1 X124.319 Y46.376 E0.02911 F2160.000
G1 X125.342 Y46.477 E0.06097
G1 X125.825 Y46.549 E0.02899
G1 X126.836 Y46.750 E0.06114
G1 X127.312 Y46.869 E0.02910
G1 X128.295 Y47.167 E0.06095
G1 X128.756 Y47.332 E0.02899
G1 X129.707 Y47.726 E0.06109
G1 X130.151 Y47.935 E0.02911
G1 X131.057 Y48.420 E0.06097
G1 X131.478 Y48.672 E0.02911
G1 X132.333 Y49.244 E0.06103
G1 X132.737 Y49.543 E0.02979
G1 X133.523 Y50.189 E0.06034
G1 X133.885 Y50.517 E0.02899
G1 X134.612 Y51.244 E0.06097
G1 X134.941 Y51.607 E0.02911
G1 X135.595 Y52.404 E0.06115
G1 X135.886 Y52.797 E0.02899
G1 X136.457 Y53.651 E0.06096
G1 X136.717 Y54.085 E0.03002
G1 X137.194 Y54.979 E0.06010
G1 X137.526 Y55.691 E0.04660
G1 X156.979 Y100.002 E2.87078
G1 X157.734 Y102.574 E0.15900
G1 X158.032 Y104.456 E0.11303
G1 X158.032 Y107.734 E0.19445
G1 X157.734 Y109.616 E0.11303
G1 X156.721 Y112.732 E0.19438
G1 X155.856 Y114.430 E0.11306
G1 X153.929 Y117.082 E0.19444
G1 X121.582 Y149.429 E2.71374
G1 X118.930 Y151.356 E0.19444
G1 X117.233 Y152.221 E0.11303
G1 X114.116 Y153.234 E0.19441
G1 X112.234 Y153.532 E0.11303
G1 X108.956 Y153.532 E0.19445
G1 X107.074 Y153.234 E0.11303
G1 X103.958 Y152.221 E0.19440
G1 X102.260 Y151.356 E0.11304
G1 X101.069 Y150.646 E0.08221
G1 X76.369 Y133.616 E1.77979
G1 X74.240 Y131.665 E0.17132
G1 X73.228 Y130.205 E0.10538
G1 X55.228 Y98.828 E2.14587
G1 X54.551 Y97.411 E0.09315
G1 X42.932 Y67.524 E1.90221
G1 X42.667 Y66.795 E0.04601
G1 X42.368 Y65.811 E0.06101
G1 X42.249 Y65.335 E0.02911
G1 X42.049 Y64.328 E0.06095
G1 X41.977 Y63.842 E0.02911
G1 X41.876 Y62.824 E0.06069
G1 X41.852 Y62.329 E0.02938
G1 X41.852 Y61.300 E0.06104
G1 X41.876 Y60.810 E0.02911
G1 X41.977 Y59.788 E0.06096
G1 X42.049 Y59.302 E0.02911
G1 X42.249 Y58.295 E0.06095
G1 X42.369 Y57.815 E0.02932
G1 X42.667 Y56.835 E0.06079
G1 X42.834 Y56.368 E0.02942
G1 X43.226 Y55.422 E0.06070
G1 X43.435 Y54.981 E0.02899
G1 X43.921 Y54.072 E0.06113
G1 X44.173 Y53.651 E0.02911
G1 X44.743 Y52.798 E0.06084
G1 X45.035 Y52.404 E0.02914
G1 X45.689 Y51.607 E0.06114
G1 X46.019 Y51.243 E0.02914
G1 X46.701 Y50.561 E0.05725
G1 F6240
G1 X47.107 Y50.189 E-0.30175
G1 F6240
G1 X47.902 Y49.536 E-0.56388
G1 F6240
G1 X48.299 Y49.242 E-0.27085
G1 F6240
G1 X48.449 Y49.142 E-0.09852
G1 E-0.06500 F3600.00000
G1 X108.363 Y133.031 F7800.000
G1 E1.30000 F3600.00000
G1 X109.735 Y132.820 E0.08235 F1080.000
G1 X109.858 Y132.801 E0.00735 F1080.000
G1 X111.300 Y133.154 E0.08809
G1 X113.161 Y134.021 E0.12180
G1 X114.358 Y134.900 E0.08809
G1 X115.143 Y136.192 E0.08970
G1 X115.373 Y137.687 E0.08970
G1 X115.013 Y139.155 E0.08970
G1 X114.119 Y140.375 E0.08970
G1 X112.827 Y141.159 E0.08970
G1 X111.332 Y141.389 E0.08970
G1 X109.890 Y141.036 E0.08809
G1 X108.029 Y140.169 E0.12180
G1 X106.832 Y139.290 E0.08809
G1 X106.047 Y137.998 E0.08970
G1 X105.817 Y136.503 E0.08970
G1 X106.177 Y135.035 E0.08970
G1 X107.071 Y133.815 E0.08970
G1 X108.312 Y133.062 E0.08614
G1 X108.458 Y132.642 F7800.000
G1 F6240
G1 X109.735 Y132.820 E-0.79128
G1 E-0.50872 F3600.00000
G1 X105.687 Y138.322 F7800.000
G1 E1.30000 F3600.00000
G1 X106.474 Y139.618 E0.08994 F1080.000
G1 X107.786 Y140.580 E0.09648
G1 X109.731 Y141.487 E0.12735
G1 X111.311 Y141.874 E0.09648
G1 X112.720 Y141.657 E0.08454
G1 X112.794 Y141.888 E0.01443
G1 X112.244 Y142.169 E0.03666
G1 X110.595 Y142.430 E0.09902
G1 X108.946 Y142.169 E0.09902
G1 X107.459 Y141.411 E0.09902
G1 X106.279 Y140.231 E0.09902
G1 X105.521 Y138.744 E0.09902
G1 X105.467 Y138.403 E0.02048
G1 X105.631 Y138.343 E0.01036
G1 X111.332 Y110.389 F7800.000
G1 X109.890 Y110.036 E0.08809 F1080.000
G1 X108.029 Y109.169 E0.12180
G1 X106.832 Y108.290 E0.08809
G1 X106.047 Y106.998 E0.08970
G1 X105.817 Y105.503 E0.08970
G1 X106.177 Y104.035 E0.08970
G1 X107.071 Y102.815 E0.08970
G1 X108.363 Y102.031 E0.08970
G1 X109.735 Y101.820 E0.08235
G1 X109.858 Y101.801 E0.00735 F1080.000
G1 X111.300 Y102.154 E0.08809
G1 X113.161 Y103.021 E0.12180
G1 X114.358 Y103.900 E0.08809
G1 X115.143 Y105.192 E0.08970
G1 X115.373 Y106.687 E0.08970
G1 X115.013 Y108.155 E0.08970
G1 X114.119 Y109.375 E0.08970
G1 X112.827 Y110.159 E0.08970
G1 X111.392 Y110.380 E0.08614
G1 X111.096 Y110.712 F7800.000
G1 F6240
G1 X109.890 Y110.036 E-0.84435
G1 F6240
G1 X109.244 Y109.735 E-0.39065
G1 E-0.06500 F3600.00000
G1 X136.962 Y106.444 F7800.000
G1 E1.30000 F3600.00000
G1 X136.817 Y105.503 E0.05646 F1080.000
G1 X137.177 Y104.035 E0.08970
G1 X138.071 Y102.815 E0.08970
G1 X139.363 Y102.031 E0.08970
G1 X140.735 Y101.820 E0.08235
G1 X140.858 Y101.801 E0.00735 F1080.000
G1 X142.300 Y102.154 E0.08809
G1 X144.161 Y103.021 E0.12180
G1 X145.358 Y103.900 E0.08809
G1 X146.143 Y105.192 E0.08970
G1 X146.373 Y106.687 E0.08970
G1 X146.013 Y108.155 E0.08970
G1 X145.119 Y109.375 E0.08970
G1 X143.827 Y110.159 E0.08970
G1 X142.332 Y110.389 E0.08970
G1 X140.890 Y110.036 E0.08809
G1 X139.029 Y109.169 E0.12180
G1 X137.832 Y108.290 E0.08809
G1 X137.047 Y106.998 E0.08970
G1 X136.971 Y106.503 E0.02968
G1 X136.589 Y106.299 F7800.000
G1 X134.652 Y100.627 F7800.000
G1 X126.095 Y101.000 E0.50808 F1458.000
G1 X112.127 Y100.390 E0.82942
G1 X111.410 Y100.296 E0.04289
G1 X111.399 Y100.406 E0.00655
G1 X110.595 Y100.278 E0.04832
G1 X108.798 Y100.563 E0.10796
G1 X108.045 Y100.946 E0.05010
G1 X108.045 Y66.676 E2.03297
G1 X108.660 Y66.579 E0.03691
G1 X109.308 Y66.545 E0.03852
G1 X120.667 Y66.545 E0.67384
G1 X123.387 Y70.814 E0.30027
G1 X127.426 Y78.573 E0.51892
G1 X130.773 Y86.655 E0.51891
G1 X133.404 Y94.997 E0.51891
G1 X134.639 Y100.568 E0.33849
G1 X134.692 Y101.024 F7800.000
G1 F6240
G1 X132.388 Y100.682 E-1.23500
G1 E-0.06500 F3600.00000
G1 X105.004 Y64.327 F7800.000
G1 E1.30000 F3600.00000
G1 X103.966 Y64.856 E0.06911 F1080.000
G1 X102.815 Y65.038 E0.06910
G1 X101.664 Y64.856 E0.06910
G1 X100.626 Y64.327 E0.06911
G1 X99.803 Y63.504 E0.06910
G1 X99.274 Y62.466 E0.06910
G1 X99.092 Y61.315 E0.06911
G1 X99.274 Y60.164 E0.06911
G1 X99.803 Y59.126 E0.06910
G1 X100.626 Y58.303 E0.06910
G1 X101.664 Y57.774 E0.06911
G1 X102.797 Y57.595 E0.06800 F1080.000
G1 X103.965 Y57.774 E0.07012
G1 X105.004 Y58.303 E0.06915
G1 X105.827 Y59.126 E0.06910
G1 X106.356 Y60.164 E0.06910
G1 X106.538 Y61.315 E0.06911
G1 X106.356 Y62.466 E0.06911
G1 X105.827 Y63.504 E0.06910
G1 X105.046 Y64.285 E0.06554
G1 X105.025 Y64.727 F7800.000
G1 F6240
G1 X103.966 Y64.856 E-0.66985
G1 F6240
G1 X102.947 Y65.017 E-0.56515
G1 E-0.06500 F3600.00000
G1 X76.538 Y61.315 F7800.000
G1 E1.30000 F3600.00000
G1 X76.356 Y62.466 E0.06915 F1080.000
G1 X75.814 Y63.517 E0.07012
G1 X75.004 Y64.327 E0.06800
G1 X73.966 Y64.856 E0.06911
G1 X72.815 Y65.038 E0.06911
G1 X71.664 Y64.856 E0.06911
G1 X70.626 Y64.327 E0.06911
G1 X69.803 Y63.504 E0.06911
G1 X69.274 Y62.466 E0.06911
G1 X69.092 Y61.315 E0.06911
G1 X69.274 Y60.164 E0.06911
G1 X69.803 Y59.126 E0.06911
G1 X70.626 Y58.303 E0.06911
G1 X71.664 Y57.774 E0.06911
G1 X72.797 Y57.595 E0.06800 F1080.000
G1 X73.965 Y57.774 E0.07012
G1 X75.004 Y58.303 E0.06915
G1 X75.827 Y59.126 E0.06911
G1 X76.356 Y60.164 E0.06911
G1 X76.529 Y61.256 E0.06555
G1 X76.874 Y61.533 F7800.000
G1 F6240
G1 X76.356 Y62.466 E-0.67020
G1 F6240
G1 X75.884 Y63.382 E-0.56480
G1 E-0.06500 F3600.00000
G1 X83.061 Y84.361 F7800.000
G1 E1.30000 F3600.00000
G1 X83.061 Y72.795 E0.68607 F1620.000
G1 X83.025 Y72.110 E0.04073
G1 X82.914 Y71.412 E0.04189
G1 X82.731 Y70.730 E0.04189
G1 X82.478 Y70.071 E0.04189
G1 X82.158 Y69.442 E0.04189
G1 X81.773 Y68.849 E0.04189
G1 X81.329 Y68.301 E0.04189
G1 X80.829 Y67.801 E0.04189
G1 X80.281 Y67.357 E0.04189
G1 X79.688 Y66.972 E0.04189
G1 X79.059 Y66.652 E0.04189
G1 X78.400 Y66.399 E0.04189
G1 X77.718 Y66.216 E0.04189
G1 X77.020 Y66.105 E0.04189
G1 X76.335 Y66.069 E0.04073
G1 X57.333 Y66.069 E1.12719
G1 X56.898 Y66.048 E0.02585
G1 X56.485 Y65.987 E0.02476
G1 X56.080 Y65.885 E0.02476
G1 X55.687 Y65.745 E0.02476
G1 X55.310 Y65.566 E0.02476
G1 X54.952 Y65.352 E0.02476
G1 X54.617 Y65.103 E0.02476
G1 X54.307 Y64.823 E0.02476
G1 X54.027 Y64.513 E0.02476
G1 X53.778 Y64.178 E0.02476
G1 X53.564 Y63.820 E0.02477
G1 X53.385 Y63.443 E0.02476
G1 X53.245 Y63.050 E0.02476
G1 X53.143 Y62.645 E0.02476
G1 X53.082 Y62.232 E0.02476
G1 X53.062 Y61.815 E0.02476
G1 X53.082 Y61.398 E0.02476
G1 X53.143 Y60.985 E0.02476
G1 X53.245 Y60.580 E0.02476
G1 X53.385 Y60.189 E0.02465
G1 X53.564 Y59.810 E0.02487
G1 X53.778 Y59.452 E0.02476
G1 X54.027 Y59.117 E0.02476
G1 X54.307 Y58.807 E0.02476
G1 X54.615 Y58.528 E0.02466
G1 X54.952 Y58.278 E0.02487
G1 X55.310 Y58.064 E0.02475
G1 X55.687 Y57.885 E0.02476
G1 X56.080 Y57.745 E0.02476
G1 X56.483 Y57.644 E0.02465
G1 X56.898 Y57.582 E0.02488
G1 X57.333 Y57.561 E0.02584
G1 X70.553 Y57.561 E0.78424
G1 X70.606 Y57.779 E0.01335
G1 X70.343 Y57.913 E0.01748
G1 X69.413 Y58.843 E0.07804
G1 X68.816 Y60.016 E0.07804
G1 X68.610 Y61.315 E0.07804
G1 X68.816 Y62.614 E0.07804
G1 X69.413 Y63.787 E0.07804
G1 X70.343 Y64.717 E0.07804
G1 X71.516 Y65.314 E0.07804
G1 X72.815 Y65.520 E0.07804
G1 X74.114 Y65.314 E0.07804
G1 X75.287 Y64.717 E0.07804
G1 X76.203 Y63.801 E0.07687
G1 X76.814 Y62.616 E0.07905
G1 X77.020 Y61.315 E0.07816
G1 X76.814 Y60.016 E0.07804
G1 X76.217 Y58.843 E0.07804
G1 X75.287 Y57.913 E0.07804
G1 X75.024 Y57.779 E0.01748
G1 X75.077 Y57.561 E0.01335
G1 X100.553 Y57.561 E1.51134
G1 X100.606 Y57.779 E0.01335
G1 X100.343 Y57.913 E0.01748
G1 X99.413 Y58.843 E0.07804
G1 X98.816 Y60.016 E0.07804
G1 X98.610 Y61.315 E0.07804
G1 X98.816 Y62.614 E0.07804
G1 X99.413 Y63.787 E0.07804
G1 X100.343 Y64.717 E0.07804
G1 X101.516 Y65.314 E0.07805
G1 X102.815 Y65.520 E0.07804
G1 X104.114 Y65.314 E0.07804
G1 X105.287 Y64.717 E0.07805
G1 X106.217 Y63.787 E0.07804
G1 X106.814 Y62.614 E0.07804
G1 X107.020 Y61.315 E0.07804
G1 X106.814 Y60.016 E0.07804
G1 X106.217 Y58.843 E0.07804
G1 X105.287 Y57.913 E0.07804
G1 X105.024 Y57.779 E0.01748
G1 X105.077 Y57.561 E0.01335
G1 X123.297 Y57.561 E1.08085
G1 X123.730 Y57.582 E0.02574
G1 X124.145 Y57.643 E0.02488
G1 X124.550 Y57.745 E0.02475
G1 X124.943 Y57.885 E0.02476
G1 X125.320 Y58.064 E0.02476
G1 X125.678 Y58.278 E0.02476
G1 X126.013 Y58.527 E0.02476
G1 X126.323 Y58.807 E0.02476
G1 X126.603 Y59.117 E0.02476
G1 X126.852 Y59.452 E0.02476
G1 X127.065 Y59.808 E0.02466
G1 X127.245 Y60.187 E0.02487
G1 X127.385 Y60.580 E0.02475
G1 X127.487 Y60.985 E0.02476
G1 X127.548 Y61.398 E0.02476
G1 X127.597 Y62.395 E0.05923
G1 X127.655 Y62.393 E0.00344
G1 X127.751 Y64.595 E0.13077
G1 X128.443 Y69.850 E0.31437
G1 X129.590 Y75.023 E0.31437
G1 X131.183 Y80.078 E0.31437
G1 X133.211 Y84.974 E0.31437
G1 X135.658 Y89.674 E0.31437
G1 X138.506 Y94.144 E0.31437
G1 X141.732 Y98.348 E0.31440
G1 X144.866 Y101.759 E0.27477
G1 X144.789 Y101.837 E0.00647
G1 X145.911 Y102.959 E0.09417
G1 X146.669 Y104.446 E0.09902
G1 X146.723 Y104.787 E0.02047
G1 X146.503 Y104.868 E0.01392
G1 X145.716 Y103.572 E0.08994
G1 X144.404 Y102.610 E0.09648
G1 X142.459 Y101.703 E0.12736
G1 X140.879 Y101.316 E0.09648
G1 X139.197 Y101.575 E0.10093
G1 X137.743 Y102.458 E0.10092
G1 X136.737 Y103.830 E0.10092
G1 X136.333 Y105.482 E0.10092
G1 X136.591 Y107.164 E0.10092
G1 X137.474 Y108.618 E0.10092
G1 X138.786 Y109.580 E0.09648
G1 X140.731 Y110.487 E0.12735
G1 X142.311 Y110.874 E0.09648
G1 X143.720 Y110.657 E0.08454
G1 X143.794 Y110.888 E0.01443
G1 X143.244 Y111.169 E0.03666
G1 X141.595 Y111.430 E0.09902
G1 X139.946 Y111.169 E0.09902
G1 X138.270 Y110.315 E0.11159
G1 X137.351 Y109.654 E0.06717
G1 X135.560 Y108.620 E0.12269
G1 X133.675 Y107.769 E0.12269
G1 X131.714 Y107.110 E0.12269
G1 X129.698 Y106.650 E0.12269
G1 X127.645 Y106.393 E0.12270
G1 X125.578 Y106.341 E0.12269
G1 X123.515 Y106.496 E0.12270
G1 X121.478 Y106.855 E0.12269
G1 X119.488 Y107.415 E0.12269
G1 X117.562 Y108.171 E0.12270
G1 X115.722 Y109.115 E0.12269
G1 X114.711 Y109.767 E0.07138
G1 X114.548 Y109.595 E0.01409
G1 X115.453 Y108.360 E0.09079
G1 X115.857 Y106.708 E0.10092
G1 X115.599 Y105.026 E0.10092
G1 X114.716 Y103.572 E0.10092
G1 X113.404 Y102.610 E0.09648
G1 X111.459 Y101.703 E0.12735
G1 X109.879 Y101.316 E0.09648
G1 X108.470 Y101.533 E0.08455
G1 X108.396 Y101.302 E0.01443
G1 X108.946 Y101.021 E0.03667
G1 X110.595 Y100.760 E0.09902
G1 X111.826 Y100.955 E0.07392
G1 X111.837 Y100.832 E0.00733
G1 X112.085 Y100.864 E0.01482
G1 X126.095 Y101.476 E0.83189
G1 X135.239 Y101.077 E0.54294
G1 X133.863 Y94.874 E0.37690
G1 X131.221 Y86.492 E0.52138
G1 X127.857 Y78.372 E0.52138
G1 X123.799 Y70.576 E0.52138
G1 X120.928 Y66.069 E0.31698
G1 X109.295 Y66.069 E0.69006
