; generated by Slic3r 1.2.9 on 2020-05-14 at 22:32:23

; external perimeters extrusion width = 0.40mm
; perimeters extrusion width = 0.56mm
; infill extrusion width = 0.56mm
; solid infill extrusion width = 0.56mm
; top infill extrusion width = 0.56mm

M107
M190 S60 ; set bed temperature
M104 S215 ; set temperature
G28 ; home all axes
G92 E0.0 ; reset extruder
M109 S215 ; wait for temperature to be reached
G21 ; set units to millimeters
G90 ; use absolute coordinates
M83 ; use relative distances for extrusion
G1 E-1.30000 F3600.00000
G1 Z0.300 F7800.000
G1 X80.180 Y78.973 F7800.000
G1 E1.30000 F3600.00000
M204 S500
G1 X81.720 Y77.618 E0.12168 F2160.000
G1 X83.610 Y76.244 E0.13863
G1 X84.578 Y75.616 E0.06845
G1 X86.622 Y74.438 E0.13994
G1 X87.637 Y73.921 E0.06756
G1 X89.760 Y72.976 E0.13788
G1 X91.706 Y72.320 E0.12182
G1 X93.999 Y71.781 E0.13972
G1 X95.842 Y71.387 E0.11180
G1 X98.118 Y71.147 E0.13579
G1 X101.882 Y71.147 E0.22323
G1 X104.158 Y71.387 E0.13580
G1 X106.001 Y71.781 E0.11179 F2160.000
G1 X108.294 Y72.320 E0.13972
G1 X110.240 Y72.976 E0.12182
G1 X112.363 Y73.921 E0.13788
G1 X113.378 Y74.438 E0.06756
G1 X115.422 Y75.616 E0.13994
G1 X116.390 Y76.244 E0.06845
G1 X118.280 Y77.618 E0.13863
G1 X119.820 Y78.973 E0.12168
G1 X121.438 Y80.693 E0.14009
G1 X122.701 Y82.092 E0.11181
G1 X124.046 Y83.943 E0.13574
G1 X125.928 Y87.203 E0.22329
G1 X126.859 Y89.295 E0.13580
G1 X127.431 Y91.061 E0.11016
G1 X128.115 Y93.325 E0.14030
G1 X128.523 Y95.348 E0.12240
G1 X128.768 Y97.680 E0.13910
G1 X128.828 Y98.825 E0.06800
G1 X128.828 Y101.175 E0.13946
G1 X128.768 Y102.320 E0.06800
G1 X128.523 Y104.652 E0.13910
G1 X128.115 Y106.675 E0.12240
G1 X127.431 Y108.939 E0.14030
G1 X126.859 Y110.705 E0.11016
G1 X125.928 Y112.797 E0.13580
G1 X124.046 Y116.057 E0.22329
G1 X122.701 Y117.908 E0.13573
G1 X121.600 Y119.130 E0.09760
G1 X119.820 Y121.027 E0.15431
G1 X118.280 Y122.382 E0.12168
G1 X116.390 Y123.756 E0.13862
G1 X115.422 Y124.384 E0.06845
G1 X113.378 Y125.562 E0.13994
G1 X112.363 Y126.079 E0.06756
G1 X110.240 Y127.024 E0.13788
G1 X108.294 Y127.680 E0.12182
G1 X106.001 Y128.219 E0.13972
G1 X104.158 Y128.613 E0.11179
G1 X101.882 Y128.853 E0.13580
G1 X98.118 Y128.853 E0.22323
G1 X95.842 Y128.613 E0.13580
G1 X94.230 Y128.271 E0.09773
G1 X91.706 Y127.680 E0.15378
G1 X89.760 Y127.024 E0.12182
G1 X87.637 Y126.079 E0.13788
G1 X86.622 Y125.562 E0.06756
G1 X84.578 Y124.384 E0.13994
G1 X83.610 Y123.756 E0.06845
G1 X81.720 Y122.382 E0.13862
G1 X80.180 Y121.027 E0.12168
G1 X78.400 Y119.130 E0.15431
G1 X77.299 Y117.908 E0.09758
G1 X75.954 Y116.057 E0.13575
G1 X74.072 Y112.797 E0.22329
G1 X73.141 Y110.705 E0.13580
G1 X72.569 Y108.939 E0.11016
G1 X71.885 Y106.675 E0.14030
G1 X71.477 Y104.652 E0.12239
G1 X71.232 Y102.320 E0.13910
G1 X71.172 Y101.175 E0.06800
G1 X71.172 Y98.825 E0.13946
G1 X71.232 Y97.680 E0.06800
G1 X71.477 Y95.348 E0.13911
G1 X71.885 Y93.325 E0.12239
G1 X72.637 Y90.844 E0.15378
G1 X73.141 Y89.294 E0.09668
G1 X74.072 Y87.203 E0.13580
G1 X75.954 Y83.944 E0.22329
G1 X77.299 Y82.092 E0.13575
G1 X78.562 Y80.693 E0.11181
G1 X80.139 Y79.017 E0.13653
G1 X80.527 Y79.299 F7800.000
G1 X81.999 Y78.002 E0.11639 F2160.000
G1 X83.890 Y76.629 E0.13863
G1 X84.816 Y76.028 E0.06547
G1 X86.860 Y74.850 E0.13994
G1 X87.830 Y74.356 E0.06463
G1 X89.954 Y73.410 E0.13788
G1 X91.815 Y72.783 E0.11653
G1 X94.108 Y72.244 E0.13972
G1 X95.941 Y71.852 E0.11119
G1 X98.118 Y71.623 E0.12989
G1 X101.882 Y71.623 E0.22323
G1 X104.059 Y71.852 E0.12990
G1 X105.892 Y72.244 E0.11118 F2160.000
G1 X108.185 Y72.783 E0.13972
G1 X110.046 Y73.410 E0.11653
G1 X112.170 Y74.356 E0.13788
G1 X113.140 Y74.850 E0.06462
G1 X115.184 Y76.028 E0.13994
G1 X116.110 Y76.629 E0.06548
G1 X118.001 Y78.002 E0.13863
G1 X119.473 Y79.299 E0.11639
G1 X121.091 Y81.019 E0.14009
G1 X122.347 Y82.411 E0.11119
G1 X123.634 Y84.181 E0.12984
G1 X125.516 Y87.441 E0.22329
G1 X126.407 Y89.442 E0.12990
G1 X126.975 Y91.199 E0.10958
G1 X127.659 Y93.463 E0.14030
G1 X128.050 Y95.398 E0.11708
G1 X128.295 Y97.730 E0.13910
G1 X128.352 Y98.825 E0.06505
G1 X128.352 Y101.175 E0.13946
G1 X128.295 Y102.270 E0.06505
G1 X128.050 Y104.602 E0.13910
G1 X127.659 Y106.537 E0.11708
G1 X126.975 Y108.801 E0.14030
G1 X126.407 Y110.558 E0.10958
G1 X125.516 Y112.559 E0.12990
G1 X123.634 Y115.819 E0.22329
G1 X122.347 Y117.589 E0.12984
G1 X121.247 Y118.812 E0.09760
G1 X119.473 Y120.701 E0.15370
G1 X118.001 Y121.998 E0.11639
G1 X116.110 Y123.371 E0.13862
G1 X115.184 Y123.972 E0.06548
G1 X113.140 Y125.150 E0.13994
G1 X112.170 Y125.644 E0.06463
G1 X110.046 Y126.590 E0.13788
G1 X108.185 Y127.217 E0.11653
G1 X105.892 Y127.756 E0.13972
G1 X104.059 Y128.148 E0.11118
G1 X101.882 Y128.377 E0.12990
G1 X98.118 Y128.377 E0.22323
G1 X95.941 Y128.148 E0.12990
G1 X94.329 Y127.806 E0.09773
G1 X91.815 Y127.217 E0.15317
G1 X89.954 Y126.590 E0.11653
G1 X87.830 Y125.644 E0.13788
G1 X86.860 Y125.150 E0.06463
G1 X84.816 Y123.972 E0.13994
G1 X83.890 Y123.371 E0.06548
G1 X81.999 Y121.998 E0.13862
G1 X80.527 Y120.701 E0.11639
G1 X78.753 Y118.812 E0.15370
G1 X77.653 Y117.590 E0.09758
G1 X76.366 Y115.819 E0.12985
G1 X74.484 Y112.559 E0.22329
G1 X73.593 Y110.558 E0.12990
G1 X73.025 Y108.801 E0.10958
G1 X72.341 Y106.537 E0.14030
G1 X71.950 Y104.602 E0.11708
G1 X71.705 Y102.270 E0.13910
G1 X71.648 Y101.175 E0.06505
G1 X71.648 Y98.825 E0.13946
G1 X71.705 Y97.730 E0.06505
G1 X71.950 Y95.398 E0.13911
G1 X72.341 Y93.463 E0.11708
G1 X73.090 Y90.991 E0.15320
G1 X73.593 Y89.441 E0.09668
G1 X74.484 Y87.441 E0.12990
G1 X76.366 Y84.181 E0.22329
G1 X77.653 Y82.410 E0.12985
G1 X78.909 Y81.019 E0.11119
G1 X80.486 Y79.343 E0.13653
G1 F6240
G1 X81.999 Y78.002 E-1.10812
G1 F6240
G1 X82.187 Y77.866 E-0.12688
G1 E-0.06500 F3600.00000
G1 X102.180 Y103.777 F7800.000
G1 E1.30000 F3600.00000
G1 X97.820 Y103.777 E0.25870 F1080.000
G1 X95.639 Y100.000 E0.25870
G1 X97.820 Y96.223 E0.25870
G1 X102.180 Y96.223 E0.25870
G1 X104.361 Y100.000 E0.25870
G1 X102.210 Y103.725 E0.25514
G1 X101.906 Y103.301 F7800.000
G1 X98.094 Y103.301 E0.22612 F1080.000
G1 X96.188 Y100.000 E0.22612
G1 X98.094 Y96.699 E0.22612
G1 X101.906 Y96.699 E0.22612
G1 X103.812 Y100.000 E0.22612
G1 X101.936 Y103.249 E0.22256
G1 X101.836 Y103.695 F7800.000
G1 X114.003 Y110.087 F7800.000
G1 X113.289 Y110.879 E0.06323 F1620.000
G1 X112.728 Y110.768 E0.03397
G1 X111.978 Y110.917 E0.04537
G1 X111.342 Y111.342 E0.04537
G1 X110.917 Y111.978 E0.04537
G1 X110.768 Y112.728 E0.04537
G1 X110.881 Y113.300 E0.03459
G1 X109.997 Y113.942 E0.06485
G1 X109.750 Y113.777 E0.01762
G1 X109.000 Y113.628 E0.04537
G1 X108.250 Y113.777 E0.04537
G1 X107.614 Y114.202 E0.04537
G1 X107.189 Y114.838 E0.04537
G1 X107.027 Y115.651 E0.04913
G1 X106.123 Y116.053 E0.05871
G1 X105.409 Y115.576 E0.05098
G1 X104.659 Y115.426 E0.04537
G1 X103.909 Y115.576 E0.04537
G1 X103.273 Y116.001 E0.04537
G1 X102.848 Y116.636 E0.04537
G1 X102.786 Y116.947 E0.01877
G1 X101.755 Y117.166 E0.06253
G1 X101.386 Y116.614 E0.03939
G1 X100.750 Y116.189 E0.04538
G1 X100.000 Y116.040 E0.04537
G1 X99.250 Y116.189 E0.04537
G1 X98.614 Y116.614 E0.04538
G1 X98.245 Y117.166 E0.03939
G1 X97.214 Y116.947 E0.06253
G1 X97.152 Y116.636 E0.01877
G1 X96.727 Y116.001 E0.04537
G1 X96.091 Y115.576 E0.04537
G1 X95.341 Y115.426 E0.04537
G1 X94.591 Y115.576 E0.04537
G1 X93.877 Y116.053 E0.05098
G1 X93.515 Y115.892 E0.02347
G1 X92.386 Y114.202 E0.12056
G1 X91.750 Y113.777 E0.04537
G1 X91.000 Y113.628 E0.04537
G1 X90.250 Y113.777 E0.04537
G1 X90.003 Y113.942 E0.01762
G1 X89.119 Y113.300 E0.06485
G1 X89.232 Y112.728 E0.03459
G1 X89.083 Y111.978 E0.04537
G1 X88.658 Y111.342 E0.04537
G1 X88.022 Y110.917 E0.04537
G1 X87.272 Y110.768 E0.04537
G1 X86.711 Y110.879 E0.03397
G1 X85.997 Y110.087 E0.06323
G1 X86.223 Y109.750 E0.02406
G1 X86.372 Y109.000 E0.04537
G1 X86.223 Y108.250 E0.04537
G1 X85.798 Y107.614 E0.04537
G1 X85.162 Y107.189 E0.04537
G1 X84.411 Y107.040 E0.04538
G1 X84.259 Y107.070 E0.00925
G1 X83.950 Y106.119 E0.05931
G1 X84.424 Y105.409 E0.05069
G1 X84.574 Y104.659 E0.04537
G1 X84.424 Y103.909 E0.04537
G1 X83.999 Y103.273 E0.04537
G1 X83.364 Y102.848 E0.04537
G1 X83.042 Y102.784 E0.01943
G1 X82.928 Y101.692 E0.06510
G1 X83.386 Y101.386 E0.03271
G1 X83.811 Y100.750 E0.04538
G1 X83.960 Y100.000 E0.04537
G1 X83.811 Y99.250 E0.04537
G1 X83.386 Y98.614 E0.04538
G1 X82.928 Y98.308 E0.03271
G1 X83.042 Y97.216 E0.06510
G1 X83.364 Y97.152 E0.01943
G1 X83.999 Y96.727 E0.04537
G1 X84.424 Y96.091 E0.04537
G1 X84.574 Y95.341 E0.04537
G1 X84.424 Y94.591 E0.04537
G1 X83.950 Y93.881 E0.05069
G1 X84.259 Y92.930 E0.05931
G1 X84.411 Y92.960 E0.00925
G1 X85.162 Y92.811 E0.04538
G1 X85.798 Y92.386 E0.04537
G1 X86.223 Y91.750 E0.04537
G1 X86.372 Y91.000 E0.04537
G1 X86.223 Y90.250 E0.04537
G1 X85.997 Y89.913 E0.02406
G1 X86.711 Y89.121 E0.06323
G1 X87.272 Y89.232 E0.03397
G1 X88.022 Y89.083 E0.04537
G1 X88.658 Y88.658 E0.04537
G1 X89.083 Y88.022 E0.04537
G1 X89.232 Y87.272 E0.04537
G1 X89.119 Y86.700 E0.03459
G1 X90.003 Y86.058 E0.06485
G1 X90.250 Y86.223 E0.01762
G1 X91.000 Y86.372 E0.04537
G1 X91.750 Y86.223 E0.04537
G1 X92.386 Y85.798 E0.04537
G1 X92.811 Y85.162 E0.04537
G1 X92.973 Y84.349 E0.04913
G1 X93.877 Y83.947 E0.05871
G1 X94.591 Y84.424 E0.05098
G1 X95.341 Y84.574 E0.04537
G1 X96.091 Y84.424 E0.04537
G1 X96.727 Y83.999 E0.04537
G1 X97.152 Y83.364 E0.04537
G1 X97.214 Y83.053 E0.01877
G1 X98.253 Y82.832 E0.06300
G1 X98.609 Y83.383 E0.03891
G1 X99.250 Y83.811 E0.04571
G1 X100.000 Y83.960 E0.04537
G1 X100.750 Y83.811 E0.04537
G1 X101.386 Y83.386 E0.04538
G1 X101.755 Y82.834 E0.03939
G1 X102.786 Y83.053 E0.06253
G1 X102.848 Y83.364 E0.01877
G1 X103.273 Y83.999 E0.04537
G1 X103.909 Y84.424 E0.04537
G1 X104.659 Y84.574 E0.04537
G1 X105.409 Y84.424 E0.04537
G1 X106.123 Y83.947 E0.05098
G1 X107.027 Y84.349 E0.05871
G1 X107.189 Y85.162 E0.04913
G1 X107.614 Y85.798 E0.04537
G1 X108.250 Y86.223 E0.04537
G1 X109.000 Y86.372 E0.04537
G1 X109.750 Y86.223 E0.04537
G1 X109.997 Y86.058 E0.01762
G1 X110.881 Y86.700 E0.06485
G1 X110.768 Y87.272 E0.03459
G1 X110.917 Y88.022 E0.04537
G1 X111.342 Y88.658 E0.04537
G1 X111.978 Y89.083 E0.04537
G1 X112.728 Y89.232 E0.04537
G1 X113.289 Y89.121 E0.03397
G1 X114.003 Y89.913 E0.06323
G1 X113.777 Y90.250 E0.02406
G1 X113.628 Y91.000 E0.04537
G1 X113.777 Y91.750 E0.04537
G1 X114.202 Y92.386 E0.04537
G1 X115.943 Y93.549 E0.12416
G1 X116.050 Y93.881 E0.02069
G1 X115.576 Y94.591 E0.05069
G1 X115.426 Y95.341 E0.04537
G1 X115.576 Y96.091 E0.04537
G1 X116.001 Y96.727 E0.04537
G1 X116.636 Y97.152 E0.04537
G1 X116.958 Y97.216 E0.01943
G1 X117.072 Y98.308 E0.06510
G1 X116.614 Y98.614 E0.03271
G1 X116.189 Y99.250 E0.04538
G1 X116.040 Y100.000 E0.04537
G1 X116.189 Y100.750 E0.04537
G1 X116.614 Y101.386 E0.04538
G1 X117.072 Y101.692 E0.03271
G1 X116.958 Y102.784 E0.06510
G1 X116.636 Y102.848 E0.01943
G1 X116.001 Y103.273 E0.04537
G1 X115.576 Y103.909 E0.04537
G1 X115.426 Y104.659 E0.04537
G1 X115.576 Y105.409 E0.04537
G1 X116.050 Y106.119 E0.05069
G1 X115.741 Y107.070 E0.05931
G1 X115.589 Y107.040 E0.00925
G1 X114.838 Y107.189 E0.04538
G1 X114.202 Y107.614 E0.04537
G1 X113.777 Y108.250 E0.04537
G1 X113.628 Y109.000 E0.04537
G1 X113.777 Y109.750 E0.04537
G1 X113.969 Y110.037 E0.02050
G1 X115.457 Y92.653 F7800.000
G1 X115.457 Y92.501 E0.00898 F1458.000
G1 X115.971 Y92.399 E0.03105
G1 X116.196 Y92.789 E0.02671
G1 X116.626 Y94.114 E0.08266
G1 X116.345 Y94.296 E0.01989
G1 X116.024 Y94.777 E0.03428
G1 X115.911 Y95.341 E0.03415
G1 X116.024 Y95.906 E0.03415
G1 X116.343 Y96.384 E0.03415
G1 X116.822 Y96.704 E0.03415
G1 X117.394 Y96.818 E0.03460
G1 X117.582 Y98.608 E0.10676
G1 X117.435 Y98.637 E0.00888
G1 X116.957 Y98.957 E0.03415
G1 X116.637 Y99.435 E0.03415
G1 X116.525 Y100.000 E0.03415
G1 X116.637 Y100.565 E0.03415
G1 X116.957 Y101.043 E0.03415
G1 X117.435 Y101.363 E0.03415
G1 X117.582 Y101.392 E0.00888
G1 X117.394 Y103.182 E0.10676
G1 X116.822 Y103.296 E0.03460
G1 X116.343 Y103.616 E0.03415
G1 X116.024 Y104.094 E0.03415
G1 X115.911 Y104.659 E0.03415
G1 X116.024 Y105.223 E0.03415
G1 X116.345 Y105.704 E0.03428
G1 X116.626 Y105.886 E0.01989
G1 X116.196 Y107.211 E0.08266
G1 X115.971 Y107.601 E0.02671
G1 X115.589 Y107.525 E0.02312
G1 X115.024 Y107.637 E0.03415
G1 X114.545 Y107.957 E0.03415
G1 X114.225 Y108.435 E0.03415
G1 X114.113 Y109.000 E0.03415
G1 X114.225 Y109.565 E0.03415
G1 X114.553 Y110.055 E0.03503
G1 X114.343 Y110.421 E0.02501
G1 X113.417 Y111.448 E0.08204
G1 X113.292 Y111.365 E0.00890
G1 X112.728 Y111.253 E0.03415
G1 X112.163 Y111.365 E0.03415
G1 X111.685 Y111.685 E0.03415
G1 X111.365 Y112.163 E0.03415
G1 X111.253 Y112.728 E0.03415
G1 X111.365 Y113.292 E0.03415
G1 X111.475 Y113.457 E0.01172
G1 X110.008 Y114.522 E0.10751
G1 X109.565 Y114.225 E0.03167
G1 X109.000 Y114.113 E0.03415
G1 X108.435 Y114.225 E0.03415
G1 X107.957 Y114.545 E0.03415
G1 X107.637 Y115.024 E0.03415
G1 X107.524 Y115.592 E0.03436
G1 X107.597 Y115.918 E0.01980
G1 X105.917 Y116.665 E0.10909
G1 X105.702 Y116.343 E0.02298
G1 X105.223 Y116.024 E0.03415
G1 X104.659 Y115.911 E0.03415
G1 X104.094 Y116.024 E0.03415
G1 X103.616 Y116.343 E0.03415
G1 X103.296 Y116.822 E0.03415
G1 X103.191 Y117.347 E0.03175
G1 X101.853 Y117.631 E0.08116
G1 X101.402 Y117.631 E0.02676
G1 X101.363 Y117.435 E0.01185
G1 X101.043 Y116.957 E0.03415
G1 X100.565 Y116.637 E0.03415
G1 X100.000 Y116.525 E0.03415
G1 X99.435 Y116.637 E0.03415
G1 X98.957 Y116.957 E0.03415
G1 X98.637 Y117.435 E0.03415
G1 X98.598 Y117.631 E0.01185
G1 X98.147 Y117.631 E0.02676
G1 X96.809 Y117.347 E0.08116
G1 X96.704 Y116.822 E0.03175
G1 X96.384 Y116.343 E0.03415
G1 X95.906 Y116.024 E0.03415
G1 X95.341 Y115.911 E0.03415
G1 X94.777 Y116.024 E0.03415
G1 X94.298 Y116.343 E0.03415
G1 X94.083 Y116.665 E0.02298
G1 X92.403 Y115.918 E0.10909
G1 X92.506 Y115.457 E0.02798
G1 X92.653 Y115.457 E0.00869
G1 X92.043 Y114.545 E0.06508
G1 X91.565 Y114.225 E0.03415
G1 X91.000 Y114.113 E0.03415
G1 X90.435 Y114.225 E0.03415
G1 X89.992 Y114.522 E0.03167
G1 X88.525 Y113.457 E0.10752
G1 X88.635 Y113.292 E0.01172
G1 X88.747 Y112.728 E0.03415
G1 X88.635 Y112.163 E0.03415
G1 X88.315 Y111.685 E0.03415
G1 X87.837 Y111.365 E0.03415
G1 X87.272 Y111.253 E0.03415
G1 X86.708 Y111.365 E0.03415
G1 X86.583 Y111.448 E0.00890
G1 X85.657 Y110.421 E0.08204
G1 X85.447 Y110.055 E0.02501
G1 X85.775 Y109.565 E0.03503
G1 X85.887 Y109.000 E0.03415
G1 X85.775 Y108.435 E0.03415
G1 X85.455 Y107.957 E0.03415
G1 X84.976 Y107.637 E0.03415
G1 X84.411 Y107.525 E0.03415
G1 X84.029 Y107.601 E0.02312
G1 X83.804 Y107.211 E0.02671
G1 X83.374 Y105.886 E0.08266
G1 X83.655 Y105.704 E0.01989
G1 X83.976 Y105.223 E0.03428
G1 X84.089 Y104.659 E0.03415
G1 X83.976 Y104.094 E0.03415
G1 X83.657 Y103.616 E0.03415
G1 X83.178 Y103.296 E0.03415
G1 X82.606 Y103.182 E0.03460
G1 X82.418 Y101.392 E0.10676
G1 X82.565 Y101.363 E0.00888
G1 X83.043 Y101.043 E0.03415
G1 X83.363 Y100.565 E0.03415
G1 X83.475 Y100.000 E0.03415
G1 X83.363 Y99.435 E0.03415
G1 X83.043 Y98.957 E0.03415
G1 X82.565 Y98.637 E0.03415
G1 X82.418 Y98.608 E0.00888
G1 X82.606 Y96.818 E0.10676
G1 X83.178 Y96.704 E0.03460
G1 X83.657 Y96.384 E0.03415
G1 X83.976 Y95.906 E0.03415
G1 X84.089 Y95.341 E0.03415
G1 X83.976 Y94.777 E0.03415
G1 X83.655 Y94.296 E0.03428
G1 X83.374 Y94.114 E0.01989
G1 X83.804 Y92.789 E0.08266
G1 X84.029 Y92.399 E0.02671
G1 X84.411 Y92.475 E0.02312
G1 X84.976 Y92.363 E0.03415
G1 X85.455 Y92.043 E0.03415
G1 X85.775 Y91.565 E0.03415
G1 X85.887 Y91.000 E0.03415
G1 X85.775 Y90.435 E0.03415
G1 X85.447 Y89.945 E0.03503
G1 X85.657 Y89.579 E0.02501
G1 X86.583 Y88.552 E0.08204
G1 X86.708 Y88.635 E0.00890
G1 X87.272 Y88.747 E0.03415
G1 X87.837 Y88.635 E0.03415
G1 X88.315 Y88.315 E0.03415
G1 X88.635 Y87.837 E0.03415
G1 X88.747 Y87.272 E0.03415
G1 X88.635 Y86.708 E0.03415
G1 X88.525 Y86.543 E0.01172
G1 X89.992 Y85.478 E0.10752
G1 X90.435 Y85.775 E0.03167
G1 X91.000 Y85.887 E0.03415
G1 X91.565 Y85.775 E0.03415
G1 X92.043 Y85.455 E0.03415
G1 X92.363 Y84.976 E0.03415
G1 X92.476 Y84.408 E0.03436
G1 X92.403 Y84.082 E0.01980
G1 X94.083 Y83.335 E0.10909
G1 X94.298 Y83.657 E0.02298
G1 X94.777 Y83.976 E0.03415
G1 X95.341 Y84.089 E0.03415
G1 X95.906 Y83.976 E0.03415
G1 X96.384 Y83.657 E0.03415
