; generated by Slic3r 1.3.1-dev (Build 2d100c4) on 2020-05-15 at 13:15:43

; external perimeters extrusion width = 0.44mm (3.91mm^3/s)
; perimeters extrusion width = 0.56mm (5.65mm^3/s)
; infill extrusion width = 0.50mm (5.02mm^3/s)
; solid infill extrusion width = 0.56mm (5.65mm^3/s)
; top infill extrusion width = 0.56mm (5.65mm^3/s)

M107
M190 S60 ; set bed temperature and wait for it to be reached
M104 S215 ; set temperature
G28 ; home all axes
G92 E0.0 ; reset extruder
; Filament gcode

M109 S215 ; set temperature and wait for it to be reached
G21 ; set units to millimeters
G90 ; use absolute coordinates
M83 ; use relative distances for extrusion
G1 E-1.30000 F3600.00000
G1 Z0.300 F7800.000
G1 X70.180 Y68.973 F7800.000
G1 E1.30000 F3600.00000
M201 X500 Y500
M204 P500 T500
G1 F2160.000
G1 X71.720 Y67.618 E0.12168
G1 X73.610 Y66.244 E0.13862
G1 X74.578 Y65.616 E0.06845
G1 X76.622 Y64.438 E0.13994
G1 X77.637 Y63.921 E0.06756
G1 X79.760 Y62.976 E0.13788
G1 X81.706 Y62.320 E0.12182
G1 X84.230 Y61.729 E0.15378
G1 X85.842 Y61.387 E0.09773
G1 X88.118 Y61.147 E0.13580
G1 X91.882 Y61.147 E0.22323
G1 X94.158 Y61.387 E0.13580
G1 X96.001 Y61.781 E0.11179
G1 X98.294 Y62.320 E0.13972
G1 X100.240 Y62.976 E0.12182
G1 X102.363 Y63.921 E0.13788
G1 X103.378 Y64.438 E0.06756
G1 X105.422 Y65.616 E0.13994
G1 X106.390 Y66.244 E0.06845
G1 X108.280 Y67.618 E0.13862
G1 X109.820 Y68.973 E0.12168
G1 X111.438 Y70.693 E0.14009
G1 X112.701 Y72.092 E0.11181
G1 X114.046 Y73.943 E0.13575
G1 X115.928 Y77.203 E0.22329
G1 X116.859 Y79.295 E0.13580
G1 X117.431 Y81.061 E0.11016
G1 X118.115 Y83.325 E0.14030
G1 X118.523 Y85.348 E0.12240
G1 X118.768 Y87.680 E0.13910
G1 X118.828 Y88.825 E0.06800
G1 X118.828 Y91.175 E0.13946
G1 X118.768 Y92.320 E0.06800
G1 X118.523 Y94.652 E0.13910
G1 X118.115 Y96.675 E0.12240
G1 X117.431 Y98.939 E0.14030
G1 X116.859 Y100.705 E0.11016
G1 X115.928 Y102.797 E0.13580
G1 X114.046 Y106.057 E0.22329
G1 X112.701 Y107.908 E0.13574
G1 X111.438 Y109.307 E0.11181
G1 X109.820 Y111.027 E0.14009
G1 X108.280 Y112.382 E0.12168
G1 X106.390 Y113.756 E0.13862
G1 X105.422 Y114.384 E0.06845
G1 X103.378 Y115.562 E0.13994
G1 X102.363 Y116.079 E0.06756
G1 X100.240 Y117.024 E0.13788
G1 X98.294 Y117.680 E0.12182
G1 X95.770 Y118.271 E0.15378
G1 X94.158 Y118.613 E0.09773
G1 X91.882 Y118.853 E0.13580
G1 X88.118 Y118.853 E0.22323
G1 X85.842 Y118.613 E0.13580
G1 X83.999 Y118.219 E0.11179
G1 X81.706 Y117.680 E0.13972
G1 X79.760 Y117.024 E0.12182
G1 X77.637 Y116.079 E0.13788
G1 X76.622 Y115.562 E0.06756
G1 X74.578 Y114.384 E0.13994
G1 X73.610 Y113.756 E0.06845
G1 X71.720 Y112.382 E0.13862
G1 X70.180 Y111.027 E0.12168
G1 X68.562 Y109.307 E0.14009
G1 X67.299 Y107.908 E0.11181
G1 X65.954 Y106.057 E0.13575
G1 X64.072 Y102.797 E0.22329
G1 X63.141 Y100.705 E0.13580
G1 X62.569 Y98.939 E0.11016
G1 X61.885 Y96.675 E0.14030
G1 X61.477 Y94.652 E0.12240
G1 X61.232 Y92.320 E0.13910
G1 X61.172 Y91.175 E0.06800
G1 X61.172 Y88.825 E0.13946
G1 X61.232 Y87.680 E0.06800
G1 X61.477 Y85.348 E0.13910
G1 X61.885 Y83.325 E0.12240
G1 X62.569 Y81.061 E0.14030
G1 X63.141 Y79.295 E0.11016
G1 X64.072 Y77.203 E0.13580
G1 X65.954 Y73.943 E0.22329
G1 X67.299 Y72.092 E0.13575
G1 X68.562 Y70.693 E0.11181
G1 X70.139 Y69.017 E0.13653
G1 X70.527 Y69.299 F7800.000
G1 F2160.000
G1 X71.999 Y68.002 E0.11639
G1 X73.890 Y66.629 E0.13862
G1 X74.816 Y66.028 E0.06548
G1 X76.860 Y64.850 E0.13994
G1 X77.830 Y64.356 E0.06463
G1 X79.954 Y63.410 E0.13788
G1 X81.815 Y62.783 E0.11653
G1 X84.108 Y62.244 E0.13972
G1 X85.941 Y61.852 E0.11118
G1 X88.118 Y61.623 E0.12990
G1 X91.882 Y61.623 E0.22323
G1 X94.059 Y61.852 E0.12990
G1 X95.892 Y62.244 E0.11118
G1 X98.185 Y62.783 E0.13972
G1 X100.046 Y63.410 E0.11653
G1 X102.170 Y64.356 E0.13788
G1 X103.140 Y64.850 E0.06463
G1 X105.184 Y66.028 E0.13994
G1 X106.110 Y66.629 E0.06548
G1 X108.001 Y68.002 E0.13862
G1 X109.473 Y69.299 E0.11639
G1 X111.091 Y71.019 E0.14009
G1 X112.347 Y72.411 E0.11119
G1 X113.634 Y74.181 E0.12985
G1 X115.516 Y77.441 E0.22329
G1 X116.407 Y79.442 E0.12990
G1 X116.975 Y81.199 E0.10958
G1 X117.659 Y83.463 E0.14030
G1 X118.050 Y85.398 E0.11708
G1 X118.295 Y87.730 E0.13910
G1 X118.352 Y88.825 E0.06505
G1 X118.352 Y91.175 E0.13946
G1 X118.295 Y92.270 E0.06505
G1 X118.050 Y94.602 E0.13910
G1 X117.659 Y96.537 E0.11708
G1 X116.975 Y98.801 E0.14030
G1 X116.407 Y100.558 E0.10958
G1 X115.516 Y102.559 E0.12990
G1 X113.634 Y105.819 E0.22329
G1 X112.347 Y107.589 E0.12985
G1 X111.091 Y108.981 E0.11119
G1 X109.473 Y110.701 E0.14009
G1 X108.001 Y111.998 E0.11639
G1 X106.110 Y113.371 E0.13862
G1 X105.184 Y113.972 E0.06548
G1 X103.140 Y115.150 E0.13994
G1 X102.170 Y115.644 E0.06462
G1 X100.046 Y116.590 E0.13788
G1 X98.185 Y117.217 E0.11653
G1 X95.671 Y117.806 E0.15317
G1 X94.059 Y118.148 E0.09773
G1 X91.882 Y118.377 E0.12990
G1 X88.118 Y118.377 E0.22323
G1 X85.941 Y118.148 E0.12990
G1 X84.108 Y117.756 E0.11118
G1 X81.815 Y117.217 E0.13972
G1 X79.954 Y116.590 E0.11653
G1 X77.830 Y115.644 E0.13788
G1 X76.860 Y115.150 E0.06462
G1 X74.816 Y113.972 E0.13994
G1 X73.890 Y113.371 E0.06548
G1 X71.999 Y111.998 E0.13862
G1 X70.527 Y110.701 E0.11639
G1 X68.909 Y108.981 E0.14009
G1 X67.653 Y107.590 E0.11119
G1 X66.366 Y105.819 E0.12985
G1 X64.484 Y102.559 E0.22329
G1 X63.593 Y100.558 E0.12990
G1 X63.025 Y98.801 E0.10957
G1 X62.341 Y96.537 E0.14030
G1 X61.950 Y94.602 E0.11708
G1 X61.705 Y92.270 E0.13910
G1 X61.648 Y91.175 E0.06505
G1 X61.648 Y88.825 E0.13946
G1 X61.705 Y87.730 E0.06505
G1 X61.950 Y85.398 E0.13910
G1 X62.341 Y83.463 E0.11708
G1 X63.025 Y81.199 E0.14030
G1 X63.593 Y79.442 E0.10957
G1 X64.484 Y77.441 E0.12990
G1 X66.366 Y74.181 E0.22329
G1 X67.653 Y72.410 E0.12985
G1 X68.909 Y71.019 E0.11119
G1 X70.486 Y69.343 E0.13653
G1 F6240.000
G1 X71.999 Y68.002 E-1.10812
G1 F6240.000
G1 X72.187 Y67.866 E-0.12688
G1 E-0.06500 F3600.00000
G1 X92.180 Y93.777 F7800.000
G1 E1.30000 F3600.00000
G1 F1080.000
G1 X87.820 Y93.777 E0.25870
G1 X85.639 Y90.000 E0.25870
G1 X87.820 Y86.223 E0.25870
G1 X92.180 Y86.223 E0.25870
G1 X94.361 Y90.000 E0.25870
G1 X92.210 Y93.725 E0.25514
G1 X91.906 Y93.301 F7800.000
G1 F1080.000
G1 X88.094 Y93.301 E0.22612
G1 X86.188 Y90.000 E0.22612
G1 X88.094 Y86.699 E0.22612
G1 X91.906 Y86.699 E0.22612
G1 X93.812 Y90.000 E0.22612
G1 X91.936 Y93.249 E0.22256
G1 X91.906 Y93.701 F7800.000
G1 F6240.000
G1 X89.683 Y93.280 E-1.23500
G1 E-0.06500 F3600.00000
G1 X104.003 Y100.087 F7800.000
G1 E1.30000 F3600.00000
G1 F1620.000
G1 X103.289 Y100.879 E0.06323
G1 X102.728 Y100.768 E0.03397
G1 X101.978 Y100.917 E0.04537
G1 X101.342 Y101.342 E0.04537
G1 X100.917 Y101.978 E0.04537
G1 X100.768 Y102.728 E0.04537
G1 X100.881 Y103.300 E0.03459
G1 X99.997 Y103.942 E0.06485
G1 X99.750 Y103.777 E0.01762
G1 X99.000 Y103.628 E0.04537
G1 X98.250 Y103.777 E0.04537
G1 X97.614 Y104.202 E0.04537
G1 X97.189 Y104.838 E0.04537
G1 X97.027 Y105.651 E0.04913
G1 X96.123 Y106.053 E0.05871
G1 X95.409 Y105.576 E0.05098
G1 X94.659 Y105.426 E0.04537
G1 X93.909 Y105.576 E0.04537
G1 X93.273 Y106.001 E0.04537
G1 X92.848 Y106.636 E0.04537
G1 X92.786 Y106.947 E0.01877
G1 X91.755 Y107.166 E0.06253
G1 X91.386 Y106.614 E0.03939
G1 X90.750 Y106.189 E0.04538
G1 X90.000 Y106.040 E0.04537
G1 X89.250 Y106.189 E0.04537
G1 X88.614 Y106.614 E0.04538
G1 X88.245 Y107.166 E0.03939
G1 X87.214 Y106.947 E0.06253
G1 X87.152 Y106.636 E0.01877
G1 X86.727 Y106.001 E0.04537
G1 X86.091 Y105.576 E0.04537
G1 X85.341 Y105.426 E0.04537
G1 X84.591 Y105.576 E0.04537
G1 X83.877 Y106.053 E0.05098
G1 X82.973 Y105.651 E0.05871
G1 X82.811 Y104.838 E0.04913
G1 X82.386 Y104.202 E0.04537
G1 X81.750 Y103.777 E0.04537
G1 X81.000 Y103.628 E0.04537
G1 X80.250 Y103.777 E0.04537
G1 X80.003 Y103.942 E0.01762
G1 X79.119 Y103.300 E0.06485
G1 X79.232 Y102.728 E0.03459
G1 X79.083 Y101.978 E0.04537
G1 X78.658 Y101.342 E0.04537
G1 X78.022 Y100.917 E0.04537
G1 X77.272 Y100.768 E0.04537
G1 X76.711 Y100.879 E0.03397
G1 X75.997 Y100.087 E0.06323
G1 X76.223 Y99.750 E0.02406
G1 X76.372 Y99.000 E0.04537
G1 X76.223 Y98.250 E0.04537
G1 X75.798 Y97.614 E0.04537
G1 X75.162 Y97.189 E0.04537
G1 X74.411 Y97.040 E0.04538
G1 X74.259 Y97.070 E0.00925
G1 X73.950 Y96.119 E0.05931
G1 X74.424 Y95.409 E0.05069
G1 X74.574 Y94.659 E0.04537
G1 X74.424 Y93.909 E0.04537
G1 X73.999 Y93.273 E0.04537
G1 X73.364 Y92.848 E0.04537
G1 X73.042 Y92.784 E0.01943
G1 X72.928 Y91.692 E0.06510
G1 X73.386 Y91.386 E0.03271
G1 X73.811 Y90.750 E0.04538
G1 X73.960 Y90.000 E0.04537
G1 X73.811 Y89.250 E0.04537
G1 X73.386 Y88.614 E0.04538
G1 X72.928 Y88.308 E0.03271
G1 X73.042 Y87.216 E0.06510
G1 X73.364 Y87.152 E0.01943
G1 X73.999 Y86.727 E0.04537
G1 X74.424 Y86.091 E0.04537
G1 X74.574 Y85.341 E0.04537
G1 X74.424 Y84.591 E0.04537
G1 X73.950 Y83.881 E0.05069
G1 X74.259 Y82.930 E0.05931
G1 X74.411 Y82.960 E0.00925
G1 X75.162 Y82.811 E0.04538
G1 X75.798 Y82.386 E0.04537
G1 X76.223 Y81.750 E0.04537
G1 X76.372 Y81.000 E0.04537
G1 X76.223 Y80.250 E0.04537
G1 X75.997 Y79.913 E0.02406
G1 X76.711 Y79.121 E0.06323
G1 X77.272 Y79.232 E0.03397
G1 X78.022 Y79.083 E0.04537
G1 X78.658 Y78.658 E0.04537
G1 X79.083 Y78.022 E0.04537
G1 X79.232 Y77.272 E0.04537
G1 X79.119 Y76.700 E0.03459
G1 X80.003 Y76.058 E0.06485
G1 X80.250 Y76.223 E0.01762
G1 X81.000 Y76.372 E0.04537
G1 X81.750 Y76.223 E0.04537
G1 X82.386 Y75.798 E0.04537
G1 X82.811 Y75.162 E0.04537
G1 X82.973 Y74.349 E0.04913
G1 X83.877 Y73.947 E0.05871
G1 X84.591 Y74.424 E0.05098
G1 X85.341 Y74.574 E0.04537
G1 X86.091 Y74.424 E0.04537
G1 X86.727 Y73.999 E0.04537
G1 X87.152 Y73.364 E0.04537
G1 X87.214 Y73.053 E0.01877
G1 X88.245 Y72.834 E0.06253
G1 X88.614 Y73.386 E0.03939
G1 X89.250 Y73.811 E0.04538
G1 X90.000 Y73.960 E0.04537
G1 X90.750 Y73.811 E0.04537
G1 X91.386 Y73.386 E0.04538
G1 X91.755 Y72.834 E0.03939
G1 X92.786 Y73.053 E0.06253
G1 X92.848 Y73.364 E0.01877
G1 X93.273 Y73.999 E0.04537
G1 X93.909 Y74.424 E0.04537
G1 X94.659 Y74.574 E0.04537
G1 X95.409 Y74.424 E0.04537
G1 X96.123 Y73.947 E0.05098
G1 X97.027 Y74.349 E0.05871
G1 X97.189 Y75.162 E0.04913
G1 X97.614 Y75.798 E0.04537
G1 X98.250 Y76.223 E0.04537
G1 X99.000 Y76.372 E0.04537
G1 X99.750 Y76.223 E0.04537
G1 X99.997 Y76.058 E0.01762
G1 X100.881 Y76.700 E0.06485
G1 X100.768 Y77.272 E0.03459
G1 X100.917 Y78.022 E0.04537
G1 X101.342 Y78.658 E0.04537
G1 X101.978 Y79.083 E0.04537
G1 X102.728 Y79.232 E0.04537
G1 X103.289 Y79.121 E0.03397
G1 X104.003 Y79.913 E0.06323
G1 X103.777 Y80.250 E0.02406
G1 X103.628 Y81.000 E0.04537
G1 X103.777 Y81.750 E0.04537
G1 X104.202 Y82.386 E0.04537
G1 X104.838 Y82.811 E0.04537
G1 X105.589 Y82.960 E0.04538
G1 X105.741 Y82.930 E0.00925
G1 X106.050 Y83.881 E0.05931
G1 X105.576 Y84.591 E0.05069
G1 X105.426 Y85.341 E0.04537
G1 X105.576 Y86.091 E0.04537
G1 X106.001 Y86.727 E0.04537
G1 X106.636 Y87.152 E0.04537
G1 X106.958 Y87.216 E0.01943
G1 X107.072 Y88.308 E0.06510
G1 X106.614 Y88.614 E0.03271
G1 X106.189 Y89.250 E0.04538
G1 X106.040 Y90.000 E0.04537
G1 X106.189 Y90.750 E0.04537
G1 X106.614 Y91.386 E0.04538
G1 X107.072 Y91.692 E0.03271
G1 X106.958 Y92.784 E0.06510
G1 X106.636 Y92.848 E0.01943
G1 X106.001 Y93.273 E0.04537
G1 X105.576 Y93.909 E0.04537
G1 X105.426 Y94.659 E0.04537
G1 X105.576 Y95.409 E0.04537
G1 X106.050 Y96.119 E0.05069
G1 X105.741 Y97.070 E0.05931
G1 X105.589 Y97.040 E0.00925
G1 X104.838 Y97.189 E0.04538
G1 X104.202 Y97.614 E0.04537
G1 X103.777 Y98.250 E0.04537
G1 X103.628 Y99.000 E0.04537
G1 X103.777 Y99.750 E0.04537
G1 X103.969 Y100.037 E0.02050
G1 X104.553 Y100.055 F7800.000
G1 F1458.000
G1 X104.343 Y100.421 E0.02501
G1 X103.417 Y101.448 E0.08204
G1 X103.292 Y101.365 E0.00890
G1 X102.728 Y101.253 E0.03415
G1 X102.163 Y101.365 E0.03415
G1 X101.685 Y101.685 E0.03415
G1 X101.365 Y102.163 E0.03415
G1 X101.253 Y102.728 E0.03415
G1 X101.365 Y103.292 E0.03415
G1 X101.475 Y103.457 E0.01172
G1 X100.008 Y104.522 E0.10752
G1 X99.565 Y104.225 E0.03167
G1 X99.000 Y104.113 E0.03415
G1 X98.435 Y104.225 E0.03415
G1 X97.957 Y104.545 E0.03415
G1 X97.637 Y105.024 E0.03415
G1 X97.524 Y105.592 E0.03436
G1 X97.597 Y105.918 E0.01980
G1 X95.917 Y106.665 E0.10909
G1 X95.702 Y106.343 E0.02298
G1 X95.223 Y106.024 E0.03415
G1 X94.659 Y105.911 E0.03415
G1 X94.094 Y106.024 E0.03415
G1 X93.616 Y106.343 E0.03415
G1 X93.296 Y106.822 E0.03415
G1 X93.191 Y107.347 E0.03175
G1 X91.853 Y107.631 E0.08116
G1 X91.402 Y107.631 E0.02676
G1 X91.363 Y107.435 E0.01185
G1 X91.043 Y106.957 E0.03415
G1 X90.565 Y106.637 E0.03415
G1 X90.000 Y106.525 E0.03415
G1 X89.435 Y106.637 E0.03415
G1 X88.957 Y106.957 E0.03415
G1 X88.637 Y107.435 E0.03415
G1 X88.598 Y107.631 E0.01185
G1 X88.147 Y107.631 E0.02676
G1 X86.809 Y107.347 E0.08116
G1 X86.704 Y106.822 E0.03175
G1 X86.384 Y106.343 E0.03415
G1 X85.906 Y106.024 E0.03415
G1 X85.341 Y105.911 E0.03415
G1 X84.777 Y106.024 E0.03415
G1 X84.298 Y106.343 E0.03415
G1 X84.083 Y106.665 E0.02298
G1 X82.403 Y105.918 E0.10909
G1 X82.476 Y105.592 E0.01980
G1 X82.363 Y105.024 E0.03436
G1 X82.043 Y104.545 E0.03415
G1 X81.565 Y104.225 E0.03415
G1 X81.000 Y104.113 E0.03415
G1 X80.435 Y104.225 E0.03415
G1 X79.992 Y104.522 E0.03167
G1 X78.525 Y103.457 E0.10752
G1 X78.635 Y103.292 E0.01172
G1 X78.747 Y102.728 E0.03415
G1 X78.635 Y102.163 E0.03415
G1 X78.315 Y101.685 E0.03415
G1 X77.837 Y101.365 E0.03415
G1 X77.272 Y101.253 E0.03415
G1 X76.708 Y101.365 E0.03415
G1 X76.583 Y101.448 E0.00890
G1 X75.657 Y100.421 E0.08204
G1 X75.447 Y100.055 E0.02501
G1 X75.775 Y99.565 E0.03503
G1 X75.887 Y99.000 E0.03415
G1 X75.775 Y98.435 E0.03415
G1 X75.455 Y97.957 E0.03415
G1 X74.976 Y97.637 E0.03415
G1 X74.411 Y97.525 E0.03415
G1 X74.029 Y97.601 E0.02312
G1 X73.804 Y97.211 E0.02671
G1 X73.374 Y95.886 E0.08266
G1 X73.655 Y95.704 E0.01989
G1 X73.976 Y95.223 E0.03428
G1 X74.089 Y94.659 E0.03415
G1 X73.976 Y94.094 E0.03415
G1 X73.657 Y93.616 E0.03415
G1 X73.178 Y93.296 E0.03415
G1 X72.606 Y93.182 E0.03460
G1 X72.418 Y91.392 E0.10676
G1 X72.565 Y91.363 E0.00888
G1 X73.043 Y91.043 E0.03415
G1 X73.363 Y90.565 E0.03415
G1 X73.475 Y90.000 E0.03415
G1 X73.363 Y89.435 E0.03415
G1 X73.043 Y88.957 E0.03415
G1 X72.565 Y88.637 E0.03415
G1 X72.418 Y88.608 E0.00888
G1 X72.606 Y86.818 E0.10676
G1 X73.178 Y86.704 E0.03460
G1 X73.657 Y86.384 E0.03415
G1 X73.976 Y85.906 E0.03415
G1 X74.089 Y85.341 E0.03415
G1 X73.976 Y84.777 E0.03415
G1 X73.655 Y84.296 E0.03428
G1 X73.374 Y84.114 E0.01989
G1 X73.804 Y82.789 E0.08266
G1 X74.029 Y82.399 E0.02671
G1 X74.411 Y82.475 E0.02312
G1 X74.976 Y82.363 E0.03415
G1 X75.455 Y82.043 E0.03415
G1 X75.775 Y81.565 E0.03415
G1 X75.887 Y81.000 E0.03415
G1 X75.775 Y80.435 E0.03415
G1 X75.447 Y79.945 E0.03503
G1 X75.657 Y79.579 E0.02501
G1 X76.583 Y78.552 E0.08204
G1 X76.708 Y78.635 E0.00890
G1 X77.272 Y78.747 E0.03415
G1 X77.837 Y78.635 E0.03415
G1 X78.315 Y78.315 E0.03415
G1 X78.635 Y77.837 E0.03415
G1 X78.747 Y77.272 E0.03415
G1 X78.635 Y76.708 E0.03415
G1 X78.525 Y76.543 E0.01172
G1 X79.992 Y75.478 E0.10752
G1 X80.435 Y75.775 E0.03167
G1 X81.000 Y75.887 E0.03415
G1 X81.565 Y75.775 E0.03415
G1 X82.043 Y75.455 E0.03415
G1 X82.363 Y74.976 E0.03415
G1 X82.476 Y74.408 E0.03436
G1 X82.403 Y74.082 E0.01980
G1 X84.083 Y73.335 E0.10909
G1 X84.298 Y73.657 E0.02298
G1 X84.777 Y73.976 E0.03415
G1 X85.341 Y74.089 E0.03415
G1 X85.906 Y73.976 E0.03415
G1 X86.384 Y73.657 E0.03415
G1 X86.704 Y73.178 E0.03415
G1 X86.809 Y72.653 E0.03175
G1 X88.147 Y72.369 E0.08116
G1 X88.598 Y72.369 E0.02676
G1 X88.637 Y72.565 E0.01185
G1 X88.957 Y73.043 E0.03415
G1 X89.435 Y73.363 E0.03415
G1 X90.000 Y73.475 E0.03415
G1 X90.565 Y73.363 E0.03415
G1 X91.043 Y73.043 E0.03415
G1 X91.363 Y72.565 E0.03415
G1 X91.402 Y72.369 E0.01185
G1 X91.853 Y72.369 E0.02676
G1 X93.191 Y72.653 E0.08116
G1 X93.296 Y73.178 E0.03175
G1 X93.616 Y73.657 E0.03415
G1 X94.094 Y73.976 E0.03415
G1 X94.659 Y74.089 E0.03415
G1 X95.223 Y73.976 E0.03415
G1 X95.702 Y73.657 E0.03415
G1 X95.917 Y73.335 E0.02298
G1 X97.597 Y74.082 E0.10909
G1 X97.524 Y74.408 E0.01980
G1 X97.637 Y74.976 E0.03436
G1 X97.957 Y75.455 E0.03415
G1 X98.435 Y75.775 E0.03415
G1 X99.000 Y75.887 E0.03415
G1 X99.565 Y75.775 E0.03415
G1 X100.008 Y75.478 E0.03167
G1 X101.475 Y76.543 E0.10752
G1 X101.365 Y76.708 E0.01172
G1 X101.253 Y77.272 E0.03415
