; generated by Slic3r 1.2.9 on 2020-05-25 at 12:27:23

; external perimeters extrusion width = 0.40mm
; perimeters extrusion width = 0.56mm
; infill extrusion width = 0.56mm
; solid infill extrusion width = 0.56mm
; top infill extrusion width = 0.56mm

M107
M190 S60 ; set bed temperature
M104 S215 ; set temperature
G28 ; home all axes
G92 E0.0 ; reset extruder
M109 S215 ; wait for temperature to be reached
G21 ; set units to millimeters
G90 ; use absolute coordinates
M83 ; use relative distances for extrusion
G1 E-1.30000 F3600.00000
G1 Z0.300 F7800.000
G1 X64.756 Y77.256 F7800.000
G1 E1.30000 F3600.00000
M204 S500
G1 X67.107 Y75.469 E0.17519 F2160.000
G1 X69.850 Y74.374 E0.17519
G1 X72.500 Y74.049 E0.15839
G1 X127.500 Y74.049 E3.26270
G1 X130.426 Y74.447 E0.17519
G1 X133.140 Y75.613 E0.17519 F2160.000
G1 X135.244 Y77.256 E0.15840
G1 X137.744 Y79.756 E0.20973
G1 X139.531 Y82.107 E0.17519
G1 X140.626 Y84.850 E0.17519
G1 X140.951 Y87.500 E0.15840
G1 X140.951 Y102.500 E0.88983
G1 X140.553 Y105.426 E0.17519
G1 X139.387 Y108.140 E0.17519
G1 X137.744 Y110.244 E0.15840
G1 X135.244 Y112.744 E0.20973
G1 X132.292 Y114.847 E0.21500
G1 X124.792 Y118.497 E0.49480
G1 X121.987 Y119.419 E0.17519
G1 X120.000 Y119.601 E0.11834
G1 X80.000 Y119.601 E2.37290
G1 X77.074 Y119.203 E0.17519
G1 X75.208 Y118.497 E0.11834
G1 X67.708 Y114.847 E0.49480
G1 X64.756 Y112.744 E0.21500
G1 X62.256 Y110.244 E0.20973
G1 X60.469 Y107.893 E0.17519
G1 X59.374 Y105.150 E0.17519
G1 X59.049 Y102.500 E0.15840
G1 X59.049 Y87.500 E0.88983
G1 X59.447 Y84.574 E0.17519
G1 X60.613 Y81.860 E0.17519
G1 X62.256 Y79.756 E0.15840
G1 X64.714 Y77.299 E0.20618
G1 X65.093 Y77.593 F7800.000
G1 X67.397 Y75.851 E0.17132 F2160.000
G1 X70.089 Y74.806 E0.17132
G1 X72.500 Y74.524 E0.14401
G1 X127.500 Y74.524 E3.26270
G1 X130.360 Y74.922 E0.17132
G1 X133.003 Y76.086 E0.17132 F2160.000
G1 X134.907 Y77.593 E0.14401
G1 X137.407 Y80.093 E0.20973
G1 X139.149 Y82.397 E0.17132
G1 X140.194 Y85.089 E0.17132
G1 X140.476 Y87.500 E0.14401
G1 X140.476 Y102.500 E0.88983
G1 X140.078 Y105.360 E0.17132
G1 X138.914 Y108.003 E0.17132
G1 X137.407 Y109.907 E0.14401
G1 X134.907 Y112.407 E0.20973
G1 X132.084 Y114.419 E0.20566
G1 X124.584 Y118.069 E0.49480
G1 X121.838 Y118.963 E0.17132
G1 X120.000 Y119.126 E0.10944
G1 X80.000 Y119.126 E2.37290
G1 X77.139 Y118.727 E0.17132
G1 X75.416 Y118.069 E0.10944
G1 X67.916 Y114.419 E0.49480
G1 X65.093 Y112.407 E0.20566
G1 X62.593 Y109.907 E0.20973
G1 X60.851 Y107.603 E0.17132
G1 X59.806 Y104.911 E0.17132
G1 X59.524 Y102.500 E0.14401
G1 X59.524 Y87.500 E0.88983
G1 X59.922 Y84.640 E0.17132
G1 X61.086 Y81.997 E0.17132
G1 X62.593 Y80.093 E0.14401
G1 X65.050 Y77.635 E0.20618
G1 F6240
G1 X66.844 Y76.271 E-1.23500
G1 E-0.06500 F3600.00000
G1 X119.254 Y104.254 F7800.000
G1 E1.30000 F3600.00000
G1 X119.254 Y107.904 E0.21652 F1620.000
G1 X80.746 Y107.904 E2.28441
G1 X80.746 Y104.254 E0.21653
G1 X72.809 Y104.254 E0.47082
G1 X70.746 Y102.191 E0.17309
G1 X70.746 Y98.246 E0.23406
G1 X76.275 Y98.246 E0.32803
G1 X77.004 Y98.091 E0.04421
G1 X77.625 Y97.814 E0.04030
G1 X78.174 Y97.415 E0.04031
G1 X78.629 Y96.910 E0.04030
G1 X78.969 Y96.322 E0.04030
G1 X79.179 Y95.676 E0.04030
G1 X79.250 Y95.000 E0.04030
G1 X79.179 Y94.324 E0.04030
G1 X78.969 Y93.678 E0.04030
G1 X78.629 Y93.090 E0.04030
G1 X78.174 Y92.585 E0.04030
G1 X77.625 Y92.186 E0.04030
G1 X77.004 Y91.909 E0.04030
G1 X76.275 Y91.754 E0.04421
G1 X70.746 Y91.754 E0.32803
G1 X70.746 Y87.809 E0.23406
G1 X72.809 Y85.746 E0.17309
G1 X93.154 Y85.746 E1.20694
G1 X93.154 Y94.936 E0.54520
G1 X93.299 Y96.421 E0.08852
G1 X93.742 Y97.786 E0.08512
G1 X94.458 Y99.026 E0.08495
G1 X95.417 Y100.090 E0.08495
G1 X96.575 Y100.932 E0.08495
G1 X97.883 Y101.514 E0.08495
G1 X99.284 Y101.812 E0.08495
G1 X100.716 Y101.812 E0.08495
G1 X102.117 Y101.514 E0.08495
G1 X103.425 Y100.932 E0.08495
G1 X104.583 Y100.090 E0.08495
G1 X105.542 Y99.026 E0.08495
G1 X106.257 Y97.786 E0.08495
G1 X106.700 Y96.424 E0.08495
G1 X106.846 Y95.039 E0.08262
G1 X106.846 Y85.746 E0.55130
G1 X127.191 Y85.746 E1.20694
G1 X129.254 Y87.809 E0.17309
G1 X129.254 Y91.754 E0.23406
G1 X123.254 Y91.754 E0.35593
G1 X123.254 Y91.854 E0.00593
G1 X122.996 Y91.909 E0.01568
G1 X122.375 Y92.186 E0.04030
G1 X121.826 Y92.585 E0.04030
G1 X121.371 Y93.090 E0.04030
G1 X121.030 Y93.681 E0.04047
G1 X120.819 Y94.347 E0.04144
G1 X120.750 Y95.000 E0.03897
G1 X120.821 Y95.676 E0.04030
G1 X121.031 Y96.322 E0.04030
G1 X121.371 Y96.910 E0.04031
G1 X121.826 Y97.415 E0.04030
G1 X122.375 Y97.814 E0.04030
G1 X122.996 Y98.091 E0.04030
G1 X123.254 Y98.146 E0.01568
G1 X123.254 Y98.246 E0.00593
G1 X129.254 Y98.246 E0.35593
G1 X129.254 Y102.191 E0.23406
G1 X127.191 Y104.254 E0.17309
G1 X119.314 Y104.254 E0.46727
G1 X119.730 Y104.730 F7800.000
G1 X119.730 Y108.380 E0.21652 F1458.000
G1 X80.270 Y108.380 E2.34084
G1 X80.270 Y104.730 E0.21652
G1 X72.612 Y104.730 E0.45430
G1 X70.270 Y102.388 E0.19647
G1 X70.270 Y97.770 E0.27396
G1 X76.225 Y97.770 E0.35328
G1 X76.856 Y97.636 E0.03828
G1 X77.386 Y97.400 E0.03437
G1 X77.854 Y97.060 E0.03437
G1 X78.242 Y96.629 E0.03437
G1 X78.532 Y96.127 E0.03437
G1 X78.711 Y95.576 E0.03437
G1 X78.771 Y95.000 E0.03437
G1 X78.711 Y94.424 E0.03437
G1 X78.532 Y93.873 E0.03437
G1 X78.242 Y93.371 E0.03437
G1 X77.854 Y92.940 E0.03437
G1 X77.386 Y92.600 E0.03437
G1 X76.856 Y92.364 E0.03437
G1 X76.225 Y92.230 E0.03828
G1 X70.270 Y92.230 E0.35328
G1 X70.270 Y87.612 E0.27396
G1 X72.612 Y85.270 E0.19647
G1 X93.630 Y85.270 E1.24684
G1 X93.630 Y94.913 E0.57205
G1 X93.767 Y96.324 E0.08408
G1 X94.179 Y97.592 E0.07908
G1 X94.845 Y98.745 E0.07902
G1 X95.737 Y99.735 E0.07902
G1 X96.814 Y100.518 E0.07902
G1 X98.031 Y101.060 E0.07901
G1 X99.334 Y101.337 E0.07902
G1 X100.666 Y101.337 E0.07901
G1 X101.969 Y101.060 E0.07902
G1 X103.186 Y100.518 E0.07901
G1 X104.263 Y99.735 E0.07902
G1 X105.155 Y98.745 E0.07902
G1 X105.821 Y97.592 E0.07902
G1 X106.232 Y96.325 E0.07902
G1 X106.370 Y95.014 E0.07818
G1 X106.370 Y85.270 E0.57804
G1 X127.388 Y85.270 E1.24684
G1 X129.730 Y87.612 E0.19647
G1 X129.730 Y92.230 E0.27396
G1 X123.730 Y92.230 E0.35593
G1 X123.144 Y92.364 E0.03568
G1 X122.614 Y92.600 E0.03437
G1 X122.146 Y92.940 E0.03437
G1 X121.758 Y93.371 E0.03437
G1 X121.468 Y93.874 E0.03443
G1 X121.287 Y94.444 E0.03551
G1 X121.229 Y95.000 E0.03315
G1 X121.289 Y95.576 E0.03437
G1 X121.468 Y96.127 E0.03437
G1 X121.758 Y96.629 E0.03438
G1 X122.146 Y97.060 E0.03437
G1 X122.614 Y97.400 E0.03437
G1 X123.144 Y97.636 E0.03437
G1 X123.730 Y97.770 E0.03568
G1 X129.730 Y97.770 E0.35593
G1 X129.730 Y102.388 E0.27396
G1 X127.388 Y104.730 E0.19647
G1 X119.790 Y104.730 E0.45074
G1 X119.330 Y104.730 F7800.000
G1 X127.175 Y103.900 F7800.000
G1 X109.304 Y86.029 E1.50873 F1620.000
G1 X108.627 Y86.029 E0.04041
G1 X126.569 Y103.971 E1.51471
G1 X125.893 Y103.971 E0.04041
G1 X107.951 Y86.029 E1.51471
G1 X107.274 Y86.029 E0.04041
G1 X125.216 Y103.971 E1.51471
G1 X124.539 Y103.971 E0.04041
G1 X107.129 Y86.561 E1.46979
G1 X107.129 Y87.238 E0.04041
G1 X123.862 Y103.971 E1.41264
G1 X123.185 Y103.971 E0.04041
G1 X107.129 Y87.915 E1.35550
G1 X107.129 Y88.592 E0.04041
G1 X122.508 Y103.971 E1.29836
G1 X121.831 Y103.971 E0.04041
G1 X107.129 Y89.269 E1.24122
G1 X107.129 Y89.945 E0.04041
G1 X121.155 Y103.971 E1.18407
G1 X120.478 Y103.971 E0.04041
G1 X107.129 Y90.622 E1.12693
G1 X107.129 Y91.299 E0.04041
G1 X119.801 Y103.971 E1.06979
G1 X119.124 Y103.971 E0.04041
G1 X107.129 Y91.976 E1.01264
G1 X107.129 Y92.653 E0.04041
G1 X118.971 Y104.495 E0.99973
G1 X118.971 Y105.172 E0.04041
G1 X107.129 Y93.330 E0.99973
G1 X107.129 Y94.007 E0.04041
G1 X118.971 Y105.849 E0.99973
G1 X118.971 Y106.526 E0.04041
G1 X107.129 Y94.683 E0.99973
G1 X107.091 Y95.322 E0.03819
G1 X118.971 Y107.202 E1.00296
G1 X118.713 Y107.621 E0.02936
G1 X107.026 Y95.935 E0.98659
G1 X106.938 Y96.523 E0.03553
G1 X118.036 Y107.621 E0.93690
G1 X117.359 Y107.621 E0.04041
G1 X106.772 Y97.034 E0.89377
G1 X106.606 Y97.545 E0.03207
G1 X116.682 Y107.621 E0.85064
G1 X116.005 Y107.621 E0.04041
G1 X106.406 Y98.022 E0.81040
G1 X106.158 Y98.451 E0.02958
G1 X115.328 Y107.621 E0.77417
G1 X114.652 Y107.621 E0.04041
G1 X105.911 Y98.880 E0.73794
G1 X105.636 Y99.282 E0.02908
G1 X113.975 Y107.621 E0.70396
G1 X113.298 Y107.621 E0.04041
G1 X105.315 Y99.639 E0.67389
G1 X104.995 Y99.995 E0.02861
G1 X112.621 Y107.621 E0.64383
G1 X111.944 Y107.621 E0.04041
G1 X104.659 Y100.336 E0.61501
G1 X104.267 Y100.621 E0.02893
G1 X111.267 Y107.621 E0.59097
G1 X110.590 Y107.621 E0.04041
G1 X103.875 Y100.906 E0.56692
G1 X103.476 Y101.184 E0.02902
G1 X109.914 Y107.621 E0.54343
G1 X109.237 Y107.621 E0.04041
G1 X103.008 Y101.392 E0.52583
G1 X102.540 Y101.601 E0.03060
G1 X108.560 Y107.621 E0.50823
G1 X107.883 Y107.621 E0.04041
G1 X102.059 Y101.797 E0.49166
G1 X101.501 Y101.916 E0.03407
G1 X107.206 Y107.621 E0.48164
G1 X106.529 Y107.621 E0.04041
G1 X100.943 Y102.035 E0.47163
G1 X100.327 Y102.096 E0.03694
G1 X105.852 Y107.621 E0.46647
G1 X105.175 Y107.621 E0.04041
G1 X99.650 Y102.096 E0.46647
G1 X98.927 Y102.050 E0.04323
G1 X104.499 Y107.621 E0.47034
G1 X103.822 Y107.621 E0.04041
G1 X98.068 Y101.867 E0.48576
G1 X97.017 Y101.494 F7800.000
G1 X103.145 Y107.621 E0.51729 F1620.000
G1 X102.468 Y107.621 E0.04041
G1 X80.876 Y86.029 E1.82285
G1 X81.553 Y86.029 E0.04041
G1 X93.453 Y97.929 E1.00465
G1 X93.127 Y96.927 E0.06294
G1 X82.230 Y86.029 E0.92000
G1 X82.907 Y86.029 E0.04041
G1 X92.972 Y96.095 E0.84977
G1 X92.899 Y95.345 E0.04498
G1 X83.583 Y86.029 E0.78646
G1 X84.260 Y86.029 E0.04041
G1 X92.871 Y94.640 E0.72694
G1 X92.871 Y93.963 E0.04041
G1 X84.937 Y86.029 E0.66980
G1 X85.614 Y86.029 E0.04041
G1 X92.871 Y93.286 E0.61265
G1 X92.871 Y92.609 E0.04041
G1 X86.291 Y86.029 E0.55551
G1 X86.968 Y86.029 E0.04041
G1 X92.871 Y91.932 E0.49837
G1 X92.871 Y91.255 E0.04041
G1 X87.645 Y86.029 E0.44123
G1 X88.321 Y86.029 E0.04041
G1 X92.871 Y90.579 E0.38408
G1 X92.871 Y89.902 E0.04041
G1 X88.998 Y86.029 E0.32694
G1 X89.675 Y86.029 E0.04041
G1 X92.871 Y89.225 E0.26980
G1 X92.871 Y88.548 E0.04041
G1 X90.352 Y86.029 E0.21265
G1 X91.029 Y86.029 E0.04041
G1 X92.871 Y87.871 E0.15551
G1 X92.871 Y87.194 E0.04041
G1 X91.706 Y86.029 E0.09837
G1 X92.383 Y86.029 E0.04041
G1 X92.871 Y86.517 E0.04123
G1 X80.199 Y86.029 F7800.000
G1 X101.791 Y107.621 E1.82285 F1620.000
G1 X101.114 Y107.621 E0.04041
G1 X79.522 Y86.029 E1.82285
G1 X78.845 Y86.029 E0.04041
G1 X100.437 Y107.621 E1.82285
G1 X99.761 Y107.621 E0.04041
G1 X78.169 Y86.029 E1.82285
G1 X77.492 Y86.029 E0.04041
G1 X99.084 Y107.621 E1.82285
G1 X98.407 Y107.621 E0.04041
G1 X76.815 Y86.029 E1.82285
G1 X76.138 Y86.029 E0.04041
G1 X97.730 Y107.621 E1.82285
G1 X97.053 Y107.621 E0.04041
G1 X75.461 Y86.029 E1.82285
G1 X74.784 Y86.029 E0.04041
G1 X96.376 Y107.621 E1.82285
G1 X95.699 Y107.621 E0.04041
G1 X74.107 Y86.029 E1.82285
G1 X73.430 Y86.029 E0.04041
G1 X95.022 Y107.621 E1.82285
G1 X94.346 Y107.621 E0.04041
G1 X72.824 Y86.100 E1.81687
G1 X72.486 Y86.438 E0.02857
G1 X93.669 Y107.621 E1.78829
G1 X92.992 Y107.621 E0.04041
G1 X79.428 Y94.057 E1.14512
G1 X79.528 Y94.834 E0.04680
G1 X92.315 Y107.621 E1.07948
G1 X91.638 Y107.621 E0.04041
G1 X79.476 Y95.459 E1.02673
G1 X79.343 Y96.003 E0.03340
G1 X90.961 Y107.621 E0.98086
G1 X90.284 Y107.621 E0.04041
G1 X79.155 Y96.492 E0.93956
G1 X78.907 Y96.921 E0.02958
G1 X89.608 Y107.621 E0.90333
G1 X88.931 Y107.621 E0.04041
G1 X78.606 Y97.297 E0.87160
G1 X78.275 Y97.643 E0.02858
G1 X88.254 Y107.621 E0.84241
G1 X87.577 Y107.621 E0.04041
G1 X77.883 Y97.927 E0.81836
G1 X77.447 Y98.168 E0.02974
G1 X86.900 Y107.621 E0.79803
G1 X86.223 Y107.621 E0.04041
G1 X76.971 Y98.368 E0.78114
G1 X76.412 Y98.487 E0.03407
G1 X85.546 Y107.621 E0.77112
G1 X84.870 Y107.621 E0.04041
G1 X75.777 Y98.529 E0.76757
G1 X75.101 Y98.529 E0.04041
G1 X80.543 Y103.971 E0.45943
G1 X79.866 Y103.971 E0.04041
G1 X74.424 Y98.529 E0.45943
G1 X73.747 Y98.529 E0.04041
G1 X79.189 Y103.971 E0.45943
G1 X78.512 Y103.971 E0.04041
G1 X73.070 Y98.529 E0.45943
G1 X72.393 Y98.529 E0.04041
G1 X77.835 Y103.971 E0.45943
G1 X77.158 Y103.971 E0.04041
G1 X71.716 Y98.529 E0.45943
G1 X71.039 Y98.529 E0.04041
G1 X76.481 Y103.971 E0.45943
G1 X75.805 Y103.971 E0.04041
G1 X71.029 Y99.195 E0.40317
G1 X71.029 Y99.872 E0.04041
G1 X75.128 Y103.971 E0.34602
G1 X74.451 Y103.971 E0.04041
G1 X71.029 Y100.549 E0.28888
G1 X71.029 Y101.226 E0.04041
G1 X73.774 Y103.971 E0.23174
G1 X73.097 Y103.971 E0.04041
G1 X71.029 Y101.903 E0.17460
G1 X81.029 Y104.457 F7800.000
G1 X84.193 Y107.621 E0.26708 F1620.000
G1 X83.516 Y107.621 E0.04041
G1 X81.029 Y105.134 E0.20994
G1 X81.029 Y105.811 E0.04041
G1 X82.839 Y107.621 E0.15280
G1 X82.162 Y107.621 E0.04041
G1 X81.029 Y106.488 E0.09566
G1 X81.029 Y107.165 E0.04041
G1 X81.485 Y107.621 E0.03851
G1 F6240
G1 X81.029 Y107.165 E-0.35360
G1 F6240
G1 X81.029 Y106.488 E-0.37097
G1 F6240
G1 X81.688 Y107.146 E-0.51043
G1 E-0.06500 F3600.00000
G1 X76.957 Y91.586 F7800.000
G1 E1.30000 F3600.00000
G1 X72.148 Y86.777 E0.40599 F1620.000
G1 X71.809 Y87.115 E0.02857
G1 X76.165 Y91.471 E0.36773
G1 X75.488 Y91.471 E0.04041
G1 X71.471 Y87.454 E0.33916
G1 X71.132 Y87.792 E0.02857
G1 X74.811 Y91.471 E0.31059
G1 X74.134 Y91.471 E0.04041
G1 X71.029 Y88.366 E0.26217
G1 X71.029 Y89.042 E0.04041
G1 X73.458 Y91.471 E0.20503
G1 X72.781 Y91.471 E0.04041
G1 X71.029 Y89.719 E0.14788
G1 X71.029 Y90.396 E0.04041
G1 X72.104 Y91.471 E0.09074
G1 X71.427 Y91.471 E0.04041
G1 X71.029 Y91.073 E0.03360
G1 F6240
G1 X71.427 Y91.471 E-0.30847
G1 F6240
G1 X72.104 Y91.471 E-0.37097
G1 F6240
G1 X71.387 Y90.754 E-0.55555
G1 E-0.06500 F3600.00000
G1 X128.971 Y88.097 F7800.000
G1 E1.30000 F3600.00000
G1 X126.903 Y86.029 E0.17460 F1620.000
G1 X126.226 Y86.029 E0.04041
G1 X128.971 Y88.774 E0.23175
G1 X128.971 Y89.451 E0.04041
G1 X125.549 Y86.029 E0.28889
G1 X124.872 Y86.029 E0.04041
G1 X128.971 Y90.128 E0.34603
G1 X128.971 Y90.805 E0.04041
G1 X124.195 Y86.029 E0.40317
G1 X123.518 Y86.029 E0.04041
G1 X128.961 Y91.471 E0.45943
G1 X128.284 Y91.471 E0.04041
G1 X122.842 Y86.029 E0.45943
G1 X122.165 Y86.029 E0.04041
G1 X127.607 Y91.471 E0.45943
G1 X126.930 Y91.471 E0.04041
G1 X121.488 Y86.029 E0.45943
G1 X120.811 Y86.029 E0.04041
G1 X126.253 Y91.471 E0.45943
G1 X125.576 Y91.471 E0.04041
G1 X120.134 Y86.029 E0.45943
G1 X119.457 Y86.029 E0.04041
G1 X124.899 Y91.471 E0.45943
G1 X124.222 Y91.471 E0.04041
G1 X118.780 Y86.029 E0.45943
G1 X118.104 Y86.029 E0.04041
G1 X123.546 Y91.471 E0.45943
G1 X122.971 Y91.573 E0.03484
G1 X117.427 Y86.029 E0.46806
G1 X116.750 Y86.029 E0.04041
G1 X122.553 Y91.832 E0.48989
G1 X122.117 Y92.073 E0.02973
G1 X116.073 Y86.029 E0.51022
G1 X115.396 Y86.029 E0.04041
G1 X121.725 Y92.358 E0.53427
G1 X121.394 Y92.703 E0.02858
G1 X114.719 Y86.029 E0.56347
G1 X114.042 Y86.029 E0.04041
G1 X121.093 Y93.079 E0.59519
G1 X120.845 Y93.508 E0.02958
G1 X113.366 Y86.029 E0.63142
G1 X112.689 Y86.029 E0.04041
G1 X120.659 Y93.999 E0.67285
G1 X120.524 Y94.541 E0.03333
G1 X112.012 Y86.029 E0.71859
G1 X111.335 Y86.029 E0.04041
G1 X120.472 Y95.166 E0.77134
G1 X120.572 Y95.943 E0.04680
G1 X110.658 Y86.029 E0.83698
G1 X109.981 Y86.029 E0.04041
G1 X127.514 Y103.562 E1.48015
G1 X127.852 Y103.223 E0.02857
G1 X123.158 Y98.529 E0.39630
G1 X123.835 Y98.529 E0.04041
G1 X128.191 Y102.885 E0.36773
G1 X128.529 Y102.546 E0.02857
G1 X124.512 Y98.529 E0.33916
G1 X125.189 Y98.529 E0.04041
G1 X128.868 Y102.208 E0.31059
G1 X128.971 Y101.634 E0.03479
G1 X125.866 Y98.529 E0.26217
G1 X126.542 Y98.529 E0.04041
G1 X128.971 Y100.958 E0.20503
G1 X128.971 Y100.281 E0.04041
G1 X127.219 Y98.529 E0.14789
G1 X127.896 Y98.529 E0.04041
G1 X128.971 Y99.604 E0.09075
G1 X128.971 Y98.927 E0.04041
G1 X128.573 Y98.529 E0.03360
M106 S255
M140 S50 ; wait for bed temperature to be reached
G1 F6240
G1 X128.971 Y98.927 E-0.30853
G1 F6240
G1 X128.971 Y99.604 E-0.37097
G1 F6240
G1 X128.254 Y98.887 E-0.55550
G1 E-0.06500 F3600.00000
G1 Z0.550 F7800.000
G1 X119.375 Y104.375 F7800.000
G1 E1.30000 F3600.00000
G1 X119.375 Y108.300 E0.20506 F2700.000
G1 X80.624 Y108.301 E2.02454
G1 X80.624 Y104.375 E0.20506
G1 X72.759 Y104.375 E0.41095
G1 X70.624 Y102.241 E0.15768
G1 X70.624 Y98.124 E0.21508
G1 X76.525 Y98.124 E0.30824
