; generated by Slic3r 1.3.1-dev (Build 2d100c4) on 2020-05-15 at 06:23:49

; external perimeters extrusion width = 0.44mm (3.91mm^3/s)
; perimeters extrusion width = 0.56mm (5.65mm^3/s)
; infill extrusion width = 0.50mm (5.02mm^3/s)
; solid infill extrusion width = 0.56mm (5.65mm^3/s)
; top infill extrusion width = 0.56mm (5.65mm^3/s)

M107
M190 S60 ; set bed temperature and wait for it to be reached
M104 S215 ; set temperature
G28 ; home all axes
G92 E0.0 ; reset extruder
; Filament gcode

M109 S215 ; set temperature and wait for it to be reached
G21 ; set units to millimeters
G90 ; use absolute coordinates
M83 ; use relative distances for extrusion
G1 E-1.30000 F3600.00000
G1 Z0.300 F7800.000
G1 X54.756 Y67.256 F7800.000
G1 E1.30000 F3600.00000
M201 X500 Y500
M204 P500 T500
G1 F2160.000
G1 X57.107 Y65.469 E0.17519
G1 X59.850 Y64.374 E0.17519
G1 X62.500 Y64.049 E0.15840
G1 X117.500 Y64.049 E3.26270
G1 X120.426 Y64.447 E0.17519
G1 X123.140 Y65.613 E0.17519
G1 X125.244 Y67.256 E0.15840
G1 X127.744 Y69.756 E0.20973
G1 X129.531 Y72.107 E0.17519
G1 X130.626 Y74.850 E0.17519
G1 X130.951 Y77.500 E0.15840
G1 X130.951 Y92.500 E0.88983
G1 X130.553 Y95.426 E0.17519
G1 X129.387 Y98.140 E0.17519
G1 X127.744 Y100.244 E0.15840
G1 X125.244 Y102.744 E0.20973
G1 X122.292 Y104.847 E0.21500
G1 X114.792 Y108.497 E0.49480
G1 X111.987 Y109.419 E0.17519
G1 X110.000 Y109.601 E0.11836
G1 X70.000 Y109.601 E2.37288
G1 X67.074 Y109.203 E0.17519
G1 X65.208 Y108.497 E0.11836
G1 X57.708 Y104.847 E0.49480
G1 X54.756 Y102.744 E0.21500
G1 X52.256 Y100.244 E0.20973
G1 X50.469 Y97.893 E0.17519
G1 X49.374 Y95.150 E0.17519
G1 X49.049 Y92.500 E0.15840
G1 X49.049 Y77.500 E0.88983
G1 X49.447 Y74.574 E0.17519
G1 X50.613 Y71.860 E0.17519
G1 X52.256 Y69.756 E0.15840
G1 X54.714 Y67.299 E0.20618
G1 X55.093 Y67.593 F7800.000
G1 F2160.000
G1 X57.397 Y65.851 E0.17132
G1 X60.089 Y64.806 E0.17132
G1 X62.500 Y64.524 E0.14401
G1 X117.500 Y64.524 E3.26270
G1 X120.360 Y64.922 E0.17132
G1 X123.003 Y66.086 E0.17132
G1 X124.907 Y67.593 E0.14401
G1 X127.407 Y70.093 E0.20973
G1 X129.149 Y72.397 E0.17132
G1 X130.194 Y75.089 E0.17132
G1 X130.476 Y77.500 E0.14401
G1 X130.476 Y92.500 E0.88983
G1 X130.078 Y95.360 E0.17132
G1 X128.914 Y98.003 E0.17132
G1 X127.407 Y99.907 E0.14401
G1 X124.907 Y102.407 E0.20973
G1 X122.084 Y104.419 E0.20566
G1 X114.584 Y108.069 E0.49480
G1 X111.838 Y108.963 E0.17132
G1 X110.000 Y109.126 E0.10945
G1 X70.000 Y109.126 E2.37288
G1 X67.140 Y108.728 E0.17132
G1 X65.416 Y108.069 E0.10945
G1 X57.916 Y104.419 E0.49480
G1 X55.093 Y102.407 E0.20566
G1 X52.593 Y99.907 E0.20973
G1 X50.851 Y97.603 E0.17132
G1 X49.806 Y94.911 E0.17132
G1 X49.524 Y92.500 E0.14401
G1 X49.524 Y77.500 E0.88983
G1 X49.922 Y74.640 E0.17132
G1 X51.086 Y71.997 E0.17132
G1 X52.593 Y70.093 E0.14401
G1 X55.050 Y67.635 E0.20618
G1 F6240.000
G1 X56.844 Y66.272 E-1.23500
G1 E-0.06500 F3600.00000
G1 X109.254 Y94.254 F7800.000
G1 E1.30000 F3600.00000
G1 F1620.000
G1 X109.254 Y97.904 E0.21652
G1 X70.746 Y97.904 E2.28441
G1 X70.746 Y94.254 E0.21652
G1 X62.809 Y94.254 E0.47082
G1 X60.746 Y92.191 E0.17309
G1 X60.746 Y88.246 E0.23406
G1 X66.275 Y88.246 E0.32803
G1 X67.004 Y88.091 E0.04421
G1 X67.625 Y87.814 E0.04030
G1 X68.174 Y87.415 E0.04031
G1 X68.629 Y86.910 E0.04030
G1 X68.969 Y86.322 E0.04030
G1 X69.179 Y85.676 E0.04030
G1 X69.250 Y85.000 E0.04030
G1 X69.179 Y84.324 E0.04030
G1 X68.969 Y83.678 E0.04030
G1 X68.629 Y83.090 E0.04030
G1 X68.174 Y82.585 E0.04030
G1 X67.625 Y82.186 E0.04030
G1 X67.004 Y81.909 E0.04030
G1 X66.275 Y81.754 E0.04421
G1 X60.746 Y81.754 E0.32803
G1 X60.746 Y77.809 E0.23406
G1 X62.809 Y75.746 E0.17309
G1 X83.154 Y75.746 E1.20694
G1 X83.154 Y84.936 E0.54520
G1 X83.299 Y86.421 E0.08852
G1 X83.742 Y87.786 E0.08512
G1 X84.458 Y89.026 E0.08495
G1 X85.417 Y90.090 E0.08495
G1 X86.575 Y90.932 E0.08495
G1 X87.883 Y91.514 E0.08495
G1 X89.284 Y91.812 E0.08495
G1 X90.716 Y91.812 E0.08495
G1 X92.117 Y91.514 E0.08495
G1 X93.425 Y90.932 E0.08495
G1 X94.583 Y90.090 E0.08495
G1 X95.542 Y89.026 E0.08495
G1 X96.258 Y87.786 E0.08495
G1 X96.700 Y86.424 E0.08495
G1 X96.847 Y85.027 E0.08333
G1 X96.846 Y75.746 E0.55060
G1 X117.191 Y75.746 E1.20693
G1 X119.254 Y77.809 E0.17309
G1 X119.254 Y81.754 E0.23406
G1 X113.254 Y81.754 E0.35593
G1 X113.254 Y81.854 E0.00593
G1 X112.996 Y81.909 E0.01568
G1 X112.375 Y82.186 E0.04030
G1 X111.826 Y82.585 E0.04030
G1 X111.371 Y83.090 E0.04030
G1 X111.031 Y83.678 E0.04030
G1 X110.821 Y84.324 E0.04031
G1 X110.750 Y85.000 E0.04030
G1 X110.821 Y85.676 E0.04030
G1 X111.031 Y86.322 E0.04030
G1 X111.371 Y86.910 E0.04031
G1 X111.826 Y87.415 E0.04030
G1 X112.375 Y87.814 E0.04030
G1 X112.996 Y88.091 E0.04030
G1 X113.254 Y88.146 E0.01568
G1 X113.254 Y88.246 E0.00593
G1 X119.254 Y88.246 E0.35593
G1 X119.254 Y92.191 E0.23406
G1 X117.191 Y94.254 E0.17309
G1 X109.314 Y94.254 E0.46727
G1 X109.730 Y94.730 F7800.000
G1 F1458.000
G1 X109.730 Y98.380 E0.21652
G1 X70.270 Y98.380 E2.34084
G1 X70.270 Y94.730 E0.21652
G1 X62.612 Y94.730 E0.45430
G1 X60.270 Y92.388 E0.19647
G1 X60.270 Y87.770 E0.27396
G1 X66.225 Y87.770 E0.35328
G1 X66.856 Y87.636 E0.03828
G1 X67.386 Y87.400 E0.03437
G1 X67.854 Y87.060 E0.03437
G1 X68.242 Y86.629 E0.03437
G1 X68.532 Y86.127 E0.03437
G1 X68.711 Y85.576 E0.03437
G1 X68.771 Y85.000 E0.03437
G1 X68.711 Y84.424 E0.03437
G1 X68.532 Y83.873 E0.03437
G1 X68.242 Y83.371 E0.03437
G1 X67.854 Y82.940 E0.03437
G1 X67.386 Y82.600 E0.03437
G1 X66.856 Y82.364 E0.03437
G1 X66.225 Y82.230 E0.03828
G1 X60.270 Y82.230 E0.35328
G1 X60.270 Y77.612 E0.27396
G1 X62.612 Y75.270 E0.19647
G1 X83.630 Y75.270 E1.24684
G1 X83.630 Y84.913 E0.57205
G1 X83.767 Y86.324 E0.08408
G1 X84.179 Y87.592 E0.07908
G1 X84.845 Y88.745 E0.07902
G1 X85.737 Y89.735 E0.07902
G1 X86.814 Y90.518 E0.07902
G1 X88.031 Y91.060 E0.07901
G1 X89.334 Y91.337 E0.07902
G1 X90.666 Y91.337 E0.07901
G1 X91.969 Y91.060 E0.07902
G1 X93.186 Y90.518 E0.07901
G1 X94.263 Y89.735 E0.07902
G1 X95.155 Y88.745 E0.07902
G1 X95.821 Y87.592 E0.07902
G1 X96.232 Y86.325 E0.07902
G1 X96.371 Y85.002 E0.07888
G1 X96.370 Y75.270 E0.57734
G1 X117.388 Y75.270 E1.24683
G1 X119.730 Y77.612 E0.19647
G1 X119.730 Y82.230 E0.27396
G1 X113.730 Y82.230 E0.35593
G1 X113.144 Y82.364 E0.03568
G1 X112.614 Y82.600 E0.03437
G1 X112.146 Y82.940 E0.03437
G1 X111.758 Y83.371 E0.03437
G1 X111.468 Y83.873 E0.03437
G1 X111.289 Y84.424 E0.03437
G1 X111.229 Y85.000 E0.03437
G1 X111.289 Y85.576 E0.03437
G1 X111.468 Y86.127 E0.03437
G1 X111.758 Y86.629 E0.03438
G1 X112.146 Y87.060 E0.03437
G1 X112.614 Y87.400 E0.03437
G1 X113.144 Y87.636 E0.03437
G1 X113.730 Y87.770 E0.03568
G1 X119.730 Y87.770 E0.35593
G1 X119.730 Y92.388 E0.27396
G1 X117.388 Y94.730 E0.19647
G1 X109.790 Y94.730 E0.45074
G1 X109.331 Y94.761 F7800.000
G1 F6240.000
G1 X109.753 Y96.983 E-1.23500
G1 E-0.06500 F3600.00000
G1 X108.569 Y97.479 F7800.000
G1 E1.30000 F3600.00000
G1 F1620.000
G1 X108.829 Y97.219 E0.02192
G1 X108.829 Y96.544 E0.04018
G1 X107.894 Y97.479 E0.07874
G1 X107.219 Y97.479 E0.04018
G1 X108.829 Y95.869 E0.13556
G1 X108.829 Y95.194 E0.04018
G1 X106.544 Y97.479 E0.19238
G1 X105.869 Y97.479 E0.04018
G1 X108.829 Y94.519 E0.24920
G1 X108.829 Y93.844 E0.04018
G1 X105.194 Y97.479 E0.30602
G1 X104.519 Y97.479 E0.04018
G1 F6240.000
G1 X105.194 Y97.479 E-0.36993
G1 F6240.000
G1 X106.310 Y96.363 E-0.86507
G1 E-0.06500 F3600.00000
G1 X96.030 Y89.094 F7800.000
G1 E1.30000 F3600.00000
G1 F1620.000
G1 X108.954 Y76.171 E1.08797
G1 X108.279 Y76.171 E0.04018
G1 X96.752 Y87.697 E0.97033
G1 X97.077 Y86.697 E0.06258
G1 X107.604 Y76.171 E0.88616
G1 X106.929 Y76.171 E0.04018
G1 X97.187 Y85.913 E0.82012
G1 X97.266 Y85.158 E0.04514
G1 X106.254 Y76.171 E0.75662
G1 X105.579 Y76.171 E0.04018
G1 X97.272 Y84.478 E0.69931
G1 X97.272 Y83.803 E0.04017
G1 X104.904 Y76.171 E0.64250
G1 X104.229 Y76.171 E0.04018
G1 X97.272 Y83.128 E0.58568
G1 X97.272 Y82.453 E0.04017
G1 X103.554 Y76.171 E0.52887
G1 X102.879 Y76.171 E0.04018
G1 X97.272 Y81.778 E0.47206
G1 X97.272 Y81.103 E0.04017
G1 X102.204 Y76.171 E0.41524
G1 X101.529 Y76.171 E0.04018
G1 X97.271 Y80.428 E0.35843
G1 X97.271 Y79.754 E0.04017
G1 X100.854 Y76.171 E0.30162
G1 X100.179 Y76.171 E0.04018
G1 X97.271 Y79.079 E0.24480
G1 X97.271 Y78.404 E0.04017
G1 X99.504 Y76.171 E0.18799
G1 X98.829 Y76.171 E0.04018
G1 X97.271 Y77.729 E0.13117
G1 X97.271 Y77.054 E0.04017
G1 X98.154 Y76.171 E0.07436
G1 X97.479 Y76.171 E0.04018
G1 X97.271 Y76.379 E0.01755
G1 X97.271 Y76.272 E0.00640
G1 X97.378 Y76.272 E0.00640
G1 F6240.000
G1 X97.271 Y76.272 E-0.05895
G1 F6240.000
G1 X97.271 Y76.379 E-0.05894
G1 F6240.000
G1 X97.479 Y76.171 E-0.16156
G1 F6240.000
G1 X98.154 Y76.171 E-0.36993
G1 F6240.000
G1 X97.399 Y76.926 E-0.58563
G1 E-0.06500 F3600.00000
G1 X110.789 Y83.110 F7800.000
G1 E1.30000 F3600.00000
G1 F1620.000
G1 X110.934 Y82.859 E0.01725
G1 X111.455 Y82.280 E0.04639
G1 X112.054 Y81.845 E0.04406
G1 X117.386 Y76.513 E0.44891
G1 X117.724 Y76.850 E0.02841
G1 X113.245 Y81.329 E0.37708
G1 X113.920 Y81.329 E0.04018
G1 X118.061 Y77.187 E0.34867
G1 X118.399 Y77.525 E0.02841
G1 X114.595 Y81.329 E0.32026
G1 X115.269 Y81.329 E0.04018
G1 X118.736 Y77.862 E0.29185
G1 X118.829 Y77.955 E0.00783
G1 X118.829 Y78.444 E0.02911
G1 X115.944 Y81.329 E0.24286
G1 X116.619 Y81.329 E0.04018
G1 X118.829 Y79.119 E0.18603
G1 X118.829 Y79.794 E0.04018
G1 X117.294 Y81.329 E0.12921
G1 X117.969 Y81.329 E0.04018
G1 X118.829 Y80.469 E0.07239
G1 X118.829 Y81.144 E0.04018
G1 X118.644 Y81.329 E0.01557
G1 F6240.000
G1 X118.829 Y81.144 E-0.14338
G1 F6240.000
G1 X118.829 Y80.469 E-0.36993
G1 F6240.000
G1 X117.969 Y81.329 E-0.66654
G1 F6240.000
G1 X117.869 Y81.329 E-0.05516
G1 E-0.06500 F3600.00000
G1 X116.944 Y93.829 F7800.000
G1 E1.30000 F3600.00000
G1 F1620.000
G1 X118.829 Y91.944 E0.15874
G1 X118.829 Y91.269 E0.04018
G1 X116.269 Y93.829 E0.21556
G1 X115.594 Y93.829 E0.04018
G1 X118.829 Y90.594 E0.27239
G1 X118.829 Y89.919 E0.04018
G1 X114.919 Y93.829 E0.32921
G1 X114.244 Y93.829 E0.04018
G1 X118.829 Y89.244 E0.38603
G1 X118.829 Y88.671 E0.03411
G1 X118.727 Y88.671 E0.00607
G1 X113.569 Y93.829 E0.43426
G1 X112.894 Y93.829 E0.04018
G1 X118.052 Y88.671 E0.43426
G1 X117.377 Y88.671 E0.04018
G1 X112.219 Y93.829 E0.43426
G1 X111.544 Y93.829 E0.04018
G1 X116.702 Y88.671 E0.43426
G1 X116.027 Y88.671 E0.04018
G1 X110.869 Y93.829 E0.43426
G1 X110.194 Y93.829 E0.04018
G1 X115.352 Y88.671 E0.43426
G1 X114.677 Y88.671 E0.04018
G1 X109.519 Y93.829 E0.43426
G1 X108.844 Y93.829 E0.04018
G1 X114.003 Y88.671 E0.43426
G1 X113.328 Y88.671 E0.04018
G1 X104.519 Y97.479 E0.74154
G1 X103.844 Y97.479 E0.04018
G1 X112.829 Y88.494 E0.75640
G1 X112.829 Y88.464 E0.00179
G1 X112.383 Y88.266 E0.02908
G1 X103.169 Y97.479 E0.77565
G1 X102.494 Y97.479 E0.04018
G1 X111.960 Y88.014 E0.79687
G1 X111.569 Y87.729 E0.02876
G1 X101.819 Y97.479 E0.82078
G1 X101.144 Y97.479 E0.04018
G1 X111.247 Y87.377 E0.85048
G1 X111.035 Y87.141 E0.01889
G1 X110.952 Y86.997 E0.00988
G1 X100.469 Y97.479 E0.88243
G1 X99.794 Y97.479 E0.04018
G1 X110.704 Y86.569 E0.91846
G1 X110.645 Y86.466 E0.00710
G1 X110.519 Y86.079 E0.02418
G1 X99.119 Y97.479 E0.95968
G1 X98.444 Y97.479 E0.04018
G1 X110.384 Y85.539 E1.00516
G1 X110.325 Y84.924 E0.03682
G1 X97.770 Y97.479 E1.05699
G1 X97.095 Y97.479 E0.04018
G1 X110.406 Y84.168 E1.12063
G1 X110.645 Y83.433 E0.04597
G1 X110.890 Y83.009 E0.02914
G1 X96.420 Y97.479 E1.21815
G1 X95.745 Y97.479 E0.04018
G1 X117.049 Y76.175 E1.79348
G1 X116.378 Y76.171 E0.03993
G1 X95.070 Y97.479 E1.79384
G1 X94.395 Y97.479 E0.04018
G1 X115.703 Y76.171 E1.79384
G1 X115.028 Y76.171 E0.04018
G1 X93.720 Y97.479 E1.79384
G1 X93.045 Y97.479 E0.04018
G1 X114.353 Y76.171 E1.79384
G1 X113.678 Y76.171 E0.04018
G1 X92.370 Y97.479 E1.79384
G1 X91.695 Y97.479 E0.04018
G1 X113.003 Y76.171 E1.79384
G1 X112.328 Y76.171 E0.04018
G1 X91.020 Y97.479 E1.79384
G1 X90.345 Y97.479 E0.04018
G1 X111.653 Y76.171 E1.79384
G1 X110.979 Y76.171 E0.04018
G1 X89.670 Y97.479 E1.79384
G1 X88.995 Y97.479 E0.04018
G1 X110.304 Y76.171 E1.79384
G1 X109.629 Y76.171 E0.04018
G1 X88.320 Y97.479 E1.79384
G1 X87.645 Y97.479 E0.04018
G1 X94.132 Y90.992 E0.54610
G1 X93.714 Y91.296 E0.03074
G1 X92.704 Y91.746 E0.06585
G1 X86.970 Y97.479 E0.48268
G1 X86.295 Y97.479 E0.04018
G1 X91.732 Y92.043 E0.45766
G1 X90.875 Y92.225 E0.05217
G1 X85.620 Y97.479 E0.44232
G1 X84.945 Y97.479 E0.04018
G1 X90.187 Y92.237 E0.44128
G1 X89.512 Y92.237 E0.04018
G1 X84.270 Y97.479 E0.44128
G1 X83.595 Y97.479 E0.04018
G1 X88.916 Y92.159 E0.44788
G1 X88.359 Y92.041 E0.03387
G1 X82.920 Y97.479 E0.45785
G1 X82.246 Y97.479 E0.04018
G1 X87.802 Y91.922 E0.46781
G1 X87.333 Y91.717 E0.03051
G1 X81.571 Y97.479 E0.48509
G1 X80.896 Y97.479 E0.04018
G1 X86.866 Y91.509 E0.50259
G1 X86.399 Y91.301 E0.03043
G1 X80.221 Y97.479 E0.52009
G1 X79.546 Y97.479 E0.04018
G1 X86.006 Y91.019 E0.54384
G1 X85.615 Y90.735 E0.02876
G1 X78.871 Y97.479 E0.56775
G1 X78.196 Y97.479 E0.04018
G1 X85.224 Y90.451 E0.59166
G1 X85.147 Y90.395 E0.00565
G1 X84.890 Y90.110 E0.02286
G1 X77.521 Y97.479 E0.62038
G1 X76.846 Y97.479 E0.04018
G1 X84.570 Y89.755 E0.65028
G1 X84.251 Y89.400 E0.02845
G1 X76.171 Y97.479 E0.68018
G1 X75.496 Y97.479 E0.04018
G1 X83.974 Y89.001 E0.71374
G1 X83.727 Y88.573 E0.02941
G1 X74.821 Y97.479 E0.74977
G1 X74.146 Y97.479 E0.04018
G1 X83.480 Y88.145 E0.78579
G1 X83.356 Y87.930 E0.01478
G1 X83.274 Y87.677 E0.01587
G1 X73.471 Y97.479 E0.82523
G1 X72.796 Y97.479 E0.04018
G1 X83.108 Y87.167 E0.86811
G1 X82.943 Y86.658 E0.03189
G1 X72.121 Y97.479 E0.91100
G1 X71.446 Y97.479 E0.04018
G1 X82.844 Y86.082 E0.95948
G1 X82.784 Y85.467 E0.03679
G1 X71.171 Y97.080 E0.97762
G1 X71.171 Y96.405 E0.04018
G1 X82.729 Y84.846 E0.97304
G1 X82.729 Y84.171 E0.04018
G1 X71.171 Y95.730 E0.97304
G1 X71.171 Y95.055 E0.04018
G1 X82.729 Y83.496 E0.97304
G1 X82.729 Y82.821 E0.04018
G1 X71.171 Y94.380 E0.97304
G1 X71.171 Y93.829 E0.03278
G1 X71.046 Y93.829 E0.00740
G1 X82.729 Y82.146 E0.98351
G1 X82.729 Y81.471 E0.04018
G1 X70.371 Y93.829 E1.04033
G1 X69.697 Y93.829 E0.04018
G1 X82.729 Y80.797 E1.09715
G1 X82.729 Y80.122 E0.04018
G1 X69.022 Y93.829 E1.15397
G1 X68.347 Y93.829 E0.04018
G1 X82.729 Y79.447 E1.21079
G1 X82.729 Y78.772 E0.04018
G1 X67.672 Y93.829 E1.26761
G1 X66.997 Y93.829 E0.04018
G1 X82.729 Y78.097 E1.32443
G1 X82.729 Y77.422 E0.04018
G1 X66.322 Y93.829 E1.38125
G1 X65.647 Y93.829 E0.04018
G1 X82.729 Y76.747 E1.43807
G1 X82.729 Y76.171 E0.03429
G1 X82.630 Y76.171 E0.00589
G1 X64.972 Y93.829 E1.48657
G1 X64.297 Y93.829 E0.04018
G1 X81.955 Y76.171 E1.48657
G1 X81.280 Y76.171 E0.04018
G1 X63.622 Y93.829 E1.48657
G1 X62.955 Y93.829 E0.03968
G1 X80.605 Y76.171 E1.48621
G1 X79.930 Y76.171 E0.04018
G1 X69.110 Y86.991 E0.91089
G1 X69.355 Y86.567 E0.02916
G1 X69.594 Y85.832 E0.04595
G1 X79.256 Y76.171 E0.81337
G1 X78.581 Y76.171 E0.04018
G1 X69.675 Y85.077 E0.74973
G1 X69.616 Y84.461 E0.03682
G1 X77.906 Y76.171 E0.69789
G1 X77.231 Y76.171 E0.04018
G1 X69.481 Y83.921 E0.65242
G1 X69.355 Y83.534 E0.02419
G1 X69.296 Y83.431 E0.00710
G1 X76.556 Y76.171 E0.61119
G1 X75.881 Y76.171 E0.04018
G1 X69.049 Y83.003 E0.57517
G1 X68.966 Y82.859 E0.00988
G1 X68.753 Y82.623 E0.01889
G1 X75.206 Y76.171 E0.54321
G1 X74.531 Y76.171 E0.04018
G1 X68.431 Y82.271 E0.51351
G1 X68.040 Y81.987 E0.02876
G1 X73.856 Y76.171 E0.48960
G1 X73.181 Y76.171 E0.04018
G1 X67.617 Y81.735 E0.46838
G1 X67.150 Y81.527 E0.03043
G1 X72.506 Y76.171 E0.45088
G1 X71.831 Y76.171 E0.04018
G1 X66.603 Y81.399 E0.44013
G1 X66.275 Y81.329 E0.01996
G1 X65.998 Y81.329 E0.01651
G1 X71.156 Y76.171 E0.43426
G1 X70.481 Y76.171 E0.04018
G1 X65.323 Y81.329 E0.43426
G1 X64.648 Y81.329 E0.04018
G1 X69.806 Y76.171 E0.43426
G1 X69.131 Y76.171 E0.04018
G1 X63.973 Y81.329 E0.43426
G1 X63.298 Y81.329 E0.04018
G1 X68.456 Y76.171 E0.43426
G1 X67.781 Y76.171 E0.04018
G1 X62.623 Y81.329 E0.43426
G1 X61.948 Y81.329 E0.04018
G1 X67.106 Y76.171 E0.43426
G1 X66.431 Y76.171 E0.04018
G1 X61.273 Y81.329 E0.43426
G1 X61.171 Y81.329 E0.00608
G1 X61.171 Y80.756 E0.03410
G1 X65.756 Y76.171 E0.38603
G1 X65.081 Y76.171 E0.04018
G1 X61.171 Y80.081 E0.32921
G1 X61.171 Y79.406 E0.04018
G1 X64.406 Y76.171 E0.27239
