; generated by Slic3r 1.2.9 on 2020-05-14 at 10:35:01

; external perimeters extrusion width = 0.40mm
; perimeters extrusion width = 0.56mm
; infill extrusion width = 0.56mm
; solid infill extrusion width = 0.56mm
; top infill extrusion width = 0.56mm

M107
M190 S60 ; set bed temperature
M104 S215 ; set temperature
G28 ; home all axes
G92 E0.0 ; reset extruder
M109 S215 ; wait for temperature to be reached
G21 ; set units to millimeters
G90 ; use absolute coordinates
M83 ; use relative distances for extrusion
G1 E-1.30000 F3600.00000
G1 Z0.300 F7800.000
G1 X41.541 Y46.120 F7800.000
G1 E1.30000 F3600.00000
M204 S500
G1 X42.184 Y45.627 E0.04802 F2160.000
G1 X44.659 Y44.198 E0.16957
G1 X45.407 Y43.888 E0.04804
G1 X48.168 Y43.148 E0.16957
G1 X48.971 Y43.042 E0.04803
G1 X50.400 Y42.949 E0.08495
G1 X149.600 Y42.949 E5.88472
G1 X151.028 Y43.042 E0.08491
G1 X151.832 Y43.148 E0.04808 F2160.000
G1 X154.597 Y43.889 E0.16983
G1 X155.344 Y44.199 E0.04797
G1 X157.817 Y45.627 E0.16941
G1 X158.459 Y46.120 E0.04805
G1 X160.478 Y48.138 E0.16931
G1 X160.971 Y48.780 E0.04803
G1 X162.401 Y51.255 E0.16957
G1 X162.712 Y52.005 E0.04812
G1 X163.454 Y54.777 E0.17022
G1 X163.559 Y55.580 E0.04808
G1 X163.651 Y57.000 E0.08440
G1 X163.651 Y143.000 E5.10168
G1 X163.559 Y144.420 E0.08440
G1 X163.454 Y145.223 E0.04807
G1 X162.711 Y147.996 E0.17027
G1 X162.401 Y148.745 E0.04810
G1 X160.971 Y151.220 E0.16957
G1 X160.478 Y151.862 E0.04802
G1 X158.460 Y153.879 E0.16928
G1 X157.817 Y154.372 E0.04803
G1 X155.344 Y155.801 E0.16944
G1 X154.597 Y156.111 E0.04797
G1 X151.832 Y156.852 E0.16982
G1 X151.028 Y156.958 E0.04812
G1 X149.600 Y157.051 E0.08488
G1 X50.400 Y157.051 E5.88472
G1 X48.971 Y156.958 E0.08495
G1 X48.169 Y156.852 E0.04801
G1 X45.408 Y156.112 E0.16958
G1 X44.659 Y155.802 E0.04806
G1 X42.183 Y154.373 E0.16961
G1 X41.541 Y153.880 E0.04801
G1 X39.520 Y151.859 E0.16952
G1 X39.027 Y151.217 E0.04803
G1 X37.598 Y148.741 E0.16959
G1 X37.288 Y147.994 E0.04800
G1 X36.548 Y145.232 E0.16962
G1 X36.443 Y144.429 E0.04801
G1 X36.349 Y143.000 E0.08497
G1 X36.349 Y57.000 E5.10168
G1 X36.443 Y55.571 E0.08498
G1 X36.548 Y54.768 E0.04804
G1 X37.288 Y52.007 E0.16956
G1 X37.598 Y51.259 E0.04803
G1 X39.027 Y48.783 E0.16957
G1 X39.520 Y48.141 E0.04803
G1 X41.499 Y46.162 E0.16601
G1 X41.831 Y46.497 F7800.000
G1 X42.473 Y46.004 E0.04802 F2160.000
G1 X44.841 Y44.637 E0.16221
G1 X45.589 Y44.327 E0.04804
G1 X48.230 Y43.620 E0.16220
G1 X49.033 Y43.514 E0.04803
G1 X50.400 Y43.424 E0.08126
G1 X149.600 Y43.424 E5.88472
G1 X150.966 Y43.514 E0.08122
G1 X151.770 Y43.620 E0.04808 F2160.000
G1 X154.415 Y44.329 E0.16245
G1 X155.162 Y44.638 E0.04797
G1 X157.527 Y46.005 E0.16205
G1 X158.170 Y46.498 E0.04804
G1 X160.101 Y48.428 E0.16196
G1 X160.594 Y49.070 E0.04803
G1 X161.962 Y51.438 E0.16220
G1 X162.272 Y52.187 E0.04812
G1 X162.982 Y54.838 E0.16283
G1 X163.087 Y55.642 E0.04807
G1 X163.175 Y57.000 E0.08073
G1 X163.175 Y143.000 E5.10168
G1 X163.087 Y144.358 E0.08073
G1 X162.982 Y145.162 E0.04807
G1 X162.272 Y147.814 E0.16287
G1 X161.961 Y148.563 E0.04810
G1 X160.593 Y150.930 E0.16220
G1 X160.100 Y151.572 E0.04802
G1 X158.170 Y153.502 E0.16193
G1 X157.528 Y153.995 E0.04803
G1 X155.162 Y155.362 E0.16208
G1 X154.415 Y155.671 E0.04797
G1 X151.770 Y156.380 E0.16245
G1 X150.966 Y156.486 E0.04811
G1 X149.600 Y156.576 E0.08120
G1 X50.400 Y156.576 E5.88472
G1 X49.033 Y156.486 E0.08126
G1 X48.231 Y156.380 E0.04801
G1 X45.590 Y155.673 E0.16221
G1 X44.841 Y155.363 E0.04806
G1 X42.473 Y153.995 E0.16225
G1 X41.830 Y153.503 E0.04801
G1 X39.898 Y151.570 E0.16216
G1 X39.405 Y150.927 E0.04803
G1 X38.037 Y148.559 E0.16222
G1 X37.728 Y147.811 E0.04800
G1 X37.020 Y145.170 E0.16225
G1 X36.914 Y144.367 E0.04801
G1 X36.825 Y143.000 E0.08128
G1 X36.825 Y57.000 E5.10168
G1 X36.914 Y55.633 E0.08129
G1 X37.020 Y54.830 E0.04804
G1 X37.728 Y52.189 E0.16220
G1 X38.037 Y51.441 E0.04803
G1 X39.405 Y49.073 E0.16220
G1 X39.897 Y48.431 E0.04803
G1 X41.788 Y46.540 E0.15865
G1 F6240
G1 X42.473 Y46.004 E-0.47631
G1 F6240
G1 X43.672 Y45.312 E-0.75869
G1 E-0.06500 F3600.00000
G1 X147.979 Y142.064 F7800.000
G1 E1.30000 F3600.00000
G1 X148.276 Y141.676 E0.02897 F1080.000
G1 X148.664 Y141.379 E0.02898
G1 X149.115 Y141.191 E0.02901
G1 X149.588 Y141.129 E0.02831 F1080.000
G1 X150.084 Y141.191 E0.02960
G1 X150.536 Y141.378 E0.02905
G1 X150.924 Y141.676 E0.02903
G1 X151.222 Y142.064 E0.02899
G1 X151.409 Y142.516 E0.02901
G1 X151.472 Y143.000 E0.02898
G1 X151.409 Y143.484 E0.02898
G1 X151.222 Y143.936 E0.02901
G1 X150.924 Y144.325 E0.02904
G1 X150.525 Y144.626 E0.02964
G1 X150.084 Y144.809 E0.02831
G1 X149.600 Y144.872 E0.02899
G1 X149.115 Y144.809 E0.02899
G1 X148.664 Y144.622 E0.02900
G1 X148.276 Y144.324 E0.02899
G1 X147.979 Y143.936 E0.02898
G1 X147.792 Y143.485 E0.02899
G1 X147.728 Y143.000 E0.02901
G1 X147.792 Y142.515 E0.02901
G1 X147.956 Y142.119 E0.02543
G1 X147.794 Y141.709 F7800.000
G1 X146.103 Y141.148 F7800.000
G1 X143.800 Y142.822 E0.16888 F1080.000
G1 X141.497 Y141.148 E0.16887
G1 X142.377 Y138.441 E0.16887
G1 X145.224 Y138.441 E0.16887
G1 X146.085 Y141.091 E0.16532
G1 X145.544 Y140.967 F7800.000
G1 X143.800 Y142.234 E0.12788 F1080.000
G1 X142.056 Y140.967 E0.12788
G1 X142.722 Y138.916 E0.12788
G1 X144.878 Y138.916 E0.12788
G1 X145.526 Y140.910 E0.12432
G1 X145.744 Y141.313 F7800.000
G1 X142.646 Y145.354 F7800.000
G1 X142.646 Y142.993 E0.14008 F1080.000
G1 X141.775 Y142.258 E0.06760
G1 X141.372 Y141.688 E0.04140
G1 X141.126 Y141.035 E0.04140
G1 X141.052 Y140.341 E0.04140
G1 X141.156 Y139.651 E0.04140
G1 X141.430 Y139.009 E0.04140
G1 X141.857 Y138.457 E0.04140
G1 X142.409 Y138.030 E0.04140
G1 X143.051 Y137.756 E0.04140
G1 X143.741 Y137.652 E0.04140
G1 X144.435 Y137.726 E0.04140
G1 X145.088 Y137.972 E0.04140
G1 X145.658 Y138.375 E0.04140
G1 X146.394 Y139.246 E0.06763
G1 X151.954 Y139.246 E0.32986
G1 X151.954 Y141.989 E0.16276
G1 X151.725 Y142.035 E0.01389
G1 X151.637 Y141.824 E0.01355
G1 X151.264 Y141.337 E0.03642
G1 X150.776 Y140.963 E0.03646
G1 X150.206 Y140.727 E0.03656
G1 X149.587 Y140.650 E0.03703
G1 X148.991 Y140.728 E0.03565
G1 X148.424 Y140.963 E0.03645
G1 X147.937 Y141.337 E0.03641
G1 X147.564 Y141.824 E0.03639
G1 X147.329 Y142.391 E0.03639
G1 X147.248 Y143.000 E0.03646
G1 X147.329 Y143.609 E0.03646
G1 X147.564 Y144.176 E0.03639
G1 X147.937 Y144.663 E0.03640
G1 X148.424 Y145.037 E0.03643
G1 X148.636 Y145.125 E0.01360
G1 X148.590 Y145.354 E0.01389
G1 X142.706 Y145.354 E0.34906
G1 F6240
G1 X142.648 Y143.102 E-1.23500
G1 E-0.06500 F3600.00000
G1 X149.600 Y58.872 F7800.000
G1 E1.30000 F3600.00000
G1 X149.115 Y58.809 E0.02899 F1080.000
G1 X148.664 Y58.621 E0.02901
G1 X148.276 Y58.324 E0.02898
G1 X147.979 Y57.936 E0.02898
G1 X147.792 Y57.485 E0.02899
G1 X147.728 Y57.000 E0.02901
G1 X147.792 Y56.515 E0.02901
G1 X147.979 Y56.064 E0.02899
G1 X148.276 Y55.676 E0.02898
G1 X148.664 Y55.379 E0.02898
G1 X149.115 Y55.191 E0.02900
G1 X149.588 Y55.129 E0.02831 F1080.000
G1 X150.084 Y55.191 E0.02960
G1 X150.536 Y55.378 E0.02905
G1 X150.924 Y55.676 E0.02903
G1 X151.222 Y56.064 E0.02899
G1 X151.409 Y56.516 E0.02900
G1 X151.472 Y57.000 E0.02898
G1 X151.409 Y57.484 E0.02898
G1 X151.222 Y57.936 E0.02900
G1 X150.924 Y58.324 E0.02899
G1 X150.536 Y58.622 E0.02903
G1 X150.084 Y58.809 E0.02899
G1 X149.659 Y58.865 E0.02543
G1 X149.385 Y59.210 F7800.000
G1 X151.954 Y58.011 F7800.000
G1 X151.954 Y60.754 E0.16276 F1080.000
G1 X149.642 Y60.754 E0.13718
G1 X148.766 Y60.656 E0.05229
G1 X147.973 Y60.378 E0.04980
G1 X147.263 Y59.932 E0.04981
G1 X146.668 Y59.338 E0.04983
G1 X146.222 Y58.627 E0.04980
G1 X145.944 Y57.834 E0.04981
G1 X145.846 Y56.958 E0.05231
G1 X145.846 Y54.646 E0.13718
G1 X148.590 Y54.646 E0.16280
G1 X148.636 Y54.875 E0.01389
G1 X148.424 Y54.963 E0.01361
G1 X147.937 Y55.337 E0.03642
G1 X147.564 Y55.824 E0.03639
G1 X147.329 Y56.391 E0.03639
G1 X147.248 Y57.000 E0.03646
G1 X147.329 Y57.609 E0.03646
G1 X147.564 Y58.176 E0.03639
G1 X147.937 Y58.663 E0.03639
G1 X148.424 Y59.037 E0.03642
G1 X148.991 Y59.272 E0.03644
G1 X149.600 Y59.352 E0.03642
G1 X150.208 Y59.272 E0.03642
G1 X150.776 Y59.037 E0.03641
G1 X151.264 Y58.663 E0.03647
G1 X151.637 Y58.176 E0.03643
G1 X151.725 Y57.965 E0.01354
G1 X151.895 Y57.999 E0.01033
G1 F6240
G1 X151.944 Y60.252 E-1.23500
G1 E-0.06500 F3600.00000
G1 X54.155 Y54.646 F7800.000
G1 E1.30000 F3600.00000
G1 X54.155 Y56.958 E0.13718 F1080.000
G1 X54.056 Y57.834 E0.05231
G1 X53.778 Y58.627 E0.04981
G1 X53.332 Y59.338 E0.04981
G1 X52.738 Y59.932 E0.04981
G1 X52.027 Y60.378 E0.04981
G1 X51.234 Y60.656 E0.04981
G1 X50.358 Y60.754 E0.05231
G1 X48.046 Y60.754 E0.13718
G1 X48.046 Y58.010 E0.16281
G1 X48.275 Y57.964 E0.01389
G1 X48.363 Y58.176 E0.01360
G1 X48.737 Y58.663 E0.03642
G1 X49.224 Y59.037 E0.03642
G1 X49.791 Y59.272 E0.03642
G1 X50.400 Y59.352 E0.03642
G1 X51.009 Y59.272 E0.03642
G1 X51.564 Y59.042 E0.03565
G1 X52.062 Y58.665 E0.03703
G1 X52.437 Y58.176 E0.03657
G1 X52.667 Y57.621 E0.03565
G1 X52.752 Y57.002 E0.03703
G1 X52.672 Y56.391 E0.03657
G1 X52.437 Y55.824 E0.03642
G1 X52.063 Y55.337 E0.03642
G1 X51.576 Y54.963 E0.03642
G1 X51.364 Y54.875 E0.01360
G1 X51.410 Y54.646 E0.01389
G1 X54.095 Y54.646 E0.15925
G1 X52.022 Y56.064 F7800.000
G1 X52.209 Y56.515 E0.02900 F1080.000
G1 X52.273 Y57.001 E0.02905
G1 X52.204 Y57.495 E0.02960
G1 X52.022 Y57.936 E0.02831
G1 X51.724 Y58.325 E0.02905
G1 X51.326 Y58.626 E0.02960
G1 X50.885 Y58.809 E0.02831
G1 X50.400 Y58.872 E0.02899
G1 X49.916 Y58.809 E0.02900
G1 X49.464 Y58.621 E0.02900
G1 X49.076 Y58.324 E0.02899
G1 X48.779 Y57.936 E0.02899
G1 X48.592 Y57.485 E0.02900
G1 X48.528 Y57.000 E0.02899
G1 X48.592 Y56.515 E0.02900
G1 X48.779 Y56.064 E0.02900
G1 X49.076 Y55.676 E0.02899
G1 X49.464 Y55.379 E0.02899
G1 X49.916 Y55.191 E0.02900
G1 X50.389 Y55.129 E0.02831 F1080.000
G1 X50.884 Y55.191 E0.02960
G1 X51.336 Y55.379 E0.02905
G1 X51.724 Y55.676 E0.02899
G1 X51.985 Y56.016 E0.02544
G1 X52.421 Y56.081 F7800.000
G1 F6240
G1 X52.209 Y56.515 E-0.29978
G1 F6240
G1 X52.273 Y57.001 E-0.26837
G1 F6240
G1 X52.204 Y57.495 E-0.27351
G1 F6240
G1 X52.022 Y57.936 E-0.26159
G1 F6240
G1 X51.875 Y58.127 E-0.13175
G1 E-0.06500 F3600.00000
G1 X54.777 Y138.441 F7800.000
G1 E1.30000 F3600.00000
G1 X57.623 Y138.441 E0.16888 F1080.000
G1 X58.503 Y141.148 E0.16888
G1 X56.200 Y142.822 E0.16888
G1 X53.897 Y141.148 E0.16888
G1 X54.758 Y138.498 E0.16531
G1 X55.122 Y138.916 F7800.000
G1 X57.278 Y138.916 E0.12788 F1080.000
G1 X57.944 Y140.967 E0.12788
G1 X56.200 Y142.234 E0.12788
G1 X54.456 Y140.967 E0.12788
G1 X55.104 Y138.974 E0.12432
G1 X55.164 Y138.519 F7800.000
G1 F6240
G1 X57.278 Y138.916 E-1.19204
G1 F6240
G1 X57.302 Y138.991 E-0.04296
G1 E-0.06500 F3600.00000
G1 X57.354 Y145.354 F7800.000
G1 E1.30000 F3600.00000
G1 X51.410 Y145.354 E0.35263 F1080.000
G1 X51.364 Y145.125 E0.01389
G1 X51.564 Y145.042 E0.01282
G1 X52.062 Y144.665 E0.03704
G1 X52.437 Y144.176 E0.03657
G1 X52.667 Y143.621 E0.03565
G1 X52.752 Y143.002 E0.03703
G1 X52.672 Y142.391 E0.03657
G1 X52.437 Y141.824 E0.03643
G1 X52.063 Y141.337 E0.03642
G1 X51.576 Y140.963 E0.03642
G1 X51.007 Y140.727 E0.03657
G1 X50.387 Y140.650 E0.03703
G1 X49.791 Y140.728 E0.03565
G1 X49.224 Y140.963 E0.03643
G1 X48.737 Y141.337 E0.03642
G1 X48.363 Y141.824 E0.03642
G1 X48.275 Y142.036 E0.01360
G1 X48.046 Y141.990 E0.01389
G1 X48.046 Y139.246 E0.16281
G1 X53.607 Y139.246 E0.32991
G1 X54.342 Y138.375 E0.06760
G1 X54.912 Y137.972 E0.04140
G1 X55.565 Y137.726 E0.04140
G1 X56.259 Y137.652 E0.04140
G1 X56.949 Y137.756 E0.04139
G1 X57.591 Y138.030 E0.04140
G1 X58.143 Y138.457 E0.04140
G1 X58.570 Y139.009 E0.04140
G1 X58.844 Y139.651 E0.04140
G1 X58.948 Y140.341 E0.04141
G1 X58.874 Y141.035 E0.04140
G1 X58.628 Y141.688 E0.04139
G1 X58.225 Y142.258 E0.04141
G1 X57.354 Y142.993 E0.06761
G1 X57.354 Y145.294 E0.13652
G1 X52.204 Y143.495 F7800.000
G1 X52.022 Y143.936 E0.02831 F1080.000
G1 X51.724 Y144.325 E0.02905
G1 X51.326 Y144.626 E0.02961
G1 X50.885 Y144.809 E0.02831
G1 X50.400 Y144.872 E0.02899
G1 X49.916 Y144.809 E0.02899
G1 X49.464 Y144.622 E0.02900
G1 X49.076 Y144.324 E0.02900
G1 X48.779 Y143.936 E0.02900
G1 X48.592 Y143.485 E0.02900
G1 X48.528 Y143.000 E0.02899
G1 X48.592 Y142.515 E0.02899
G1 X48.779 Y142.064 E0.02900
G1 X49.076 Y141.676 E0.02899
G1 X49.464 Y141.379 E0.02899
G1 X49.916 Y141.191 E0.02900
G1 X50.389 Y141.129 E0.02831 F1080.000
G1 X50.884 Y141.191 E0.02960
G1 X51.336 Y141.379 E0.02905
G1 X51.724 Y141.676 E0.02899
G1 X52.022 Y142.064 E0.02899
G1 X52.209 Y142.515 E0.02900
G1 X52.273 Y143.001 E0.02905
G1 X52.212 Y143.436 E0.02604
G1 X52.474 Y143.791 F7800.000
G1 X57.830 Y144.970 F7800.000
G1 X142.170 Y144.970 E5.00321 F1458.000
G1 X142.170 Y143.214 E0.10417
G1 X141.422 Y142.582 E0.05811
G1 X140.949 Y141.913 E0.04863
G1 X140.660 Y141.146 E0.04862
G1 X140.573 Y140.331 E0.04862
G1 X140.695 Y139.520 E0.04863
G1 X141.016 Y138.766 E0.04862
G1 X141.518 Y138.118 E0.04863
G1 X142.166 Y137.616 E0.04862
G1 X142.920 Y137.294 E0.04862
G1 X143.731 Y137.173 E0.04862
G1 X144.546 Y137.260 E0.04862
G1 X145.313 Y137.549 E0.04862
G1 X145.982 Y138.021 E0.04861
G1 X146.615 Y138.770 E0.05814
G1 X151.570 Y138.770 E0.29396
G1 X151.570 Y132.442 E0.37540
G1 X151.032 Y131.430 E0.06798
G1 X150.166 Y129.645 E0.11769
G1 X149.368 Y127.829 E0.11768
G1 X148.640 Y125.984 E0.11767
G1 X147.980 Y124.113 E0.11770
G1 X147.574 Y122.805 E0.08119
G1 X148.578 Y122.805 E0.05953
G1 X148.739 Y123.342 E0.03324
G1 X149.389 Y125.242 E0.11911
G1 X150.112 Y127.115 E0.11910
G1 X150.907 Y128.958 E0.11911
G1 X151.774 Y130.770 E0.11911
G1 X152.430 Y132.016 E0.08357
G1 X152.430 Y142.982 E0.65053
G1 X152.332 Y143.732 E0.04484
G1 X152.049 Y144.414 E0.04378
G1 X151.599 Y144.999 E0.04381
G1 X151.014 Y145.449 E0.04380
G1 X150.332 Y145.731 E0.04375
G1 X149.582 Y145.830 E0.04488
G1 X50.419 Y145.830 E5.88256
G1 X49.647 Y145.722 E0.04624
G1 X48.986 Y145.449 E0.04241
G1 X48.401 Y144.999 E0.04379
G1 X47.951 Y144.414 E0.04379
G1 X47.669 Y143.732 E0.04379
G1 X47.570 Y142.982 E0.04485
G1 X47.570 Y57.018 E5.09958
G1 X47.669 Y56.268 E0.04485
G1 X47.951 Y55.586 E0.04379
G1 X48.401 Y55.001 E0.04379
G1 X48.986 Y54.551 E0.04379
G1 X49.647 Y54.278 E0.04241
G1 X50.419 Y54.170 E0.04624
G1 X149.582 Y54.170 E5.88256
G1 X150.309 Y54.266 E0.04351
G1 X151.014 Y54.552 E0.04514
G1 X151.599 Y55.001 E0.04373
G1 X152.049 Y55.586 E0.04381
G1 X152.332 Y56.268 E0.04379
G1 X152.430 Y57.018 E0.04484
G1 X152.430 Y83.054 E1.54455
G1 X151.774 Y84.301 E0.08357
G1 X150.907 Y86.112 E0.11911
G1 X150.112 Y87.956 E0.11911
G1 X149.389 Y89.829 E0.11910
G1 X148.739 Y91.729 E0.11911
G1 X148.578 Y92.265 E0.03324
G1 X147.574 Y92.265 E0.05953
G1 X147.980 Y90.958 E0.08119
G1 X148.640 Y89.087 E0.11770
G1 X149.368 Y87.242 E0.11767
G1 X150.166 Y85.426 E0.11768
G1 X151.032 Y83.641 E0.11769
G1 X151.570 Y82.629 E0.06798
G1 X151.570 Y61.230 E1.26943
G1 X149.615 Y61.230 E0.11596
G1 X148.659 Y61.122 E0.05705
G1 X147.766 Y60.810 E0.05616
G1 X146.964 Y60.306 E0.05616
G1 X146.294 Y59.636 E0.05619
G1 X145.791 Y58.835 E0.05616
G1 X145.478 Y57.941 E0.05617
G1 X145.370 Y56.985 E0.05707
G1 X145.370 Y55.030 E0.11596
G1 X54.630 Y55.030 E5.38286
G1 X54.630 Y56.985 E0.11596
G1 X54.522 Y57.941 E0.05707
G1 X54.210 Y58.835 E0.05617
G1 X53.706 Y59.636 E0.05617
G1 X53.036 Y60.306 E0.05617
G1 X52.235 Y60.810 E0.05617
G1 X51.341 Y61.122 E0.05617
G1 X50.385 Y61.230 E0.05707
G1 X48.430 Y61.230 E0.11597
G1 X48.430 Y138.770 E4.59982
G1 X53.386 Y138.770 E0.29400
G1 X54.018 Y138.021 E0.05811
G1 X54.688 Y137.549 E0.04862
G1 X55.455 Y137.260 E0.04862
G1 X56.270 Y137.173 E0.04862
G1 X57.080 Y137.294 E0.04862
G1 X57.834 Y137.616 E0.04862
G1 X58.483 Y138.118 E0.04862
G1 X58.984 Y138.766 E0.04862
G1 X59.306 Y139.520 E0.04862
G1 X59.427 Y140.331 E0.04863
G1 X59.341 Y141.146 E0.04862
G1 X59.052 Y141.913 E0.04862
G1 X58.579 Y142.582 E0.04863
G1 X57.830 Y143.214 E0.05811
G1 X57.830 Y144.910 E0.10061
G1 X57.830 Y145.370 F7800.000
G1 X57.592 Y145.400 F7800.000
G1 X142.408 Y145.400 E10.74390 F360.000
G1 X142.929 Y144.829 F7800.000
G1 X143.171 Y145.071 E0.02081 F1620.000
G1 X143.861 Y145.071 E0.04199
G1 X142.929 Y144.139 E0.08019
G1 X142.929 Y143.449 E0.04199
