; generated by Slic3r 1.2.9 on 2020-05-13 at 11:58:39

; external perimeters extrusion width = 0.40mm
; perimeters extrusion width = 0.56mm
; infill extrusion width = 0.56mm
; solid infill extrusion width = 0.56mm
; top infill extrusion width = 0.56mm

M107
M190 S60 ; set bed temperature
M104 S215 ; set temperature
G28 ; home all axes
G92 E0.0 ; reset extruder
M109 S215 ; wait for temperature to be reached
G21 ; set units to millimeters
G90 ; use absolute coordinates
M83 ; use relative distances for extrusion
G1 E-1.30000 F3600.00000
G1 Z0.300 F7800.000
G1 X39.726 Y45.581 F7800.000
G1 E1.30000 F3600.00000
M204 S500
G1 X41.643 Y44.053 E0.14543 F2160.000
G1 X42.526 Y43.498 E0.06185
G1 X44.744 Y42.429 E0.14605
G1 X45.738 Y42.081 E0.06248
G1 X48.128 Y41.535 E0.14543
G1 X49.175 Y41.417 E0.06253
G1 X50.400 Y41.349 E0.07276
G1 X149.600 Y41.349 E5.88473
G1 X150.826 Y41.418 E0.07284
G1 X151.873 Y41.536 E0.06252 F2160.000
G1 X154.264 Y42.082 E0.14549
G1 X155.257 Y42.429 E0.06241
G1 X157.466 Y43.493 E0.14544
G1 X158.359 Y44.055 E0.06259
G1 X160.270 Y45.578 E0.14493
G1 X161.016 Y46.324 E0.06263
G1 X162.547 Y48.243 E0.14563
G1 X163.107 Y49.134 E0.06244
G1 X164.174 Y51.349 E0.14585
G1 X164.521 Y52.343 E0.06242
G1 X165.064 Y54.726 E0.14503
G1 X165.183 Y55.776 E0.06263
G1 X165.251 Y57.000 E0.07275
G1 X165.251 Y143.000 E5.10168
G1 X165.182 Y144.225 E0.07279
G1 X165.064 Y145.274 E0.06260
G1 X164.521 Y147.657 E0.14501
G1 X164.174 Y148.651 E0.06243
G1 X163.107 Y150.866 E0.14587
G1 X162.547 Y151.757 E0.06243
G1 X161.015 Y153.678 E0.14577
G1 X160.270 Y154.422 E0.06247
G1 X158.358 Y155.946 E0.14501
G1 X157.467 Y156.507 E0.06248
G1 X155.260 Y157.570 E0.14531
G1 X154.264 Y157.918 E0.06259
G1 X151.871 Y158.465 E0.14560
G1 X150.825 Y158.582 E0.06244
G1 X149.600 Y158.651 E0.07280
G1 X50.400 Y158.651 E5.88473
G1 X49.174 Y158.582 E0.07282
G1 X48.129 Y158.465 E0.06244
G1 X45.737 Y157.919 E0.14550
G1 X44.744 Y157.571 E0.06243
G1 X42.534 Y156.507 E0.14550
G1 X41.643 Y155.947 E0.06244
G1 X39.728 Y154.420 E0.14531
G1 X38.982 Y153.674 E0.06258
G1 X37.453 Y151.758 E0.14540
G1 X36.893 Y150.866 E0.06249
G1 X35.829 Y148.656 E0.14550
G1 X35.481 Y147.663 E0.06243
G1 X34.936 Y145.273 E0.14541
G1 X34.818 Y144.226 E0.06251
G1 X34.749 Y143.000 E0.07285
G1 X34.749 Y57.000 E5.10168
G1 X34.818 Y55.774 E0.07284
G1 X34.936 Y54.726 E0.06254
G1 X35.481 Y52.337 E0.14538
G1 X35.829 Y51.343 E0.06251
G1 X36.893 Y49.134 E0.14540
G1 X37.453 Y48.243 E0.06243
G1 X38.982 Y46.326 E0.14547
G1 X39.684 Y45.624 E0.05893
G1 X40.063 Y45.917 F7800.000
G1 X41.896 Y44.455 E0.13911 F2160.000
G1 X42.780 Y43.900 E0.06188
G1 X44.901 Y42.878 E0.13970
G1 X45.895 Y42.530 E0.06248
G1 X48.181 Y42.008 E0.13911
G1 X49.229 Y41.890 E0.06252
G1 X50.400 Y41.824 E0.06960
G1 X149.600 Y41.824 E5.88473
G1 X150.773 Y41.890 E0.06968
G1 X151.820 Y42.008 E0.06252 F2160.000
G1 X154.107 Y42.531 E0.13917
G1 X155.100 Y42.878 E0.06241
G1 X157.213 Y43.896 E0.13912
G1 X158.106 Y44.457 E0.06258
G1 X159.933 Y45.914 E0.13863
G1 X160.680 Y46.660 E0.06262
G1 X162.145 Y48.496 E0.13931
G1 X162.705 Y49.387 E0.06244
G1 X163.725 Y51.506 E0.13951
G1 X164.072 Y52.500 E0.06242
G1 X164.592 Y54.780 E0.13874
G1 X164.710 Y55.829 E0.06262
G1 X164.776 Y57.000 E0.06959
G1 X164.776 Y143.000 E5.10168
G1 X164.710 Y144.172 E0.06963
G1 X164.592 Y145.220 E0.06259
G1 X164.072 Y147.500 E0.13871
G1 X163.725 Y148.494 E0.06243
G1 X162.705 Y150.613 E0.13954
G1 X162.145 Y151.504 E0.06243
G1 X160.678 Y153.342 E0.13944
G1 X159.933 Y154.086 E0.06247
G1 X158.105 Y155.543 E0.13871
G1 X157.213 Y156.104 E0.06247
G1 X155.103 Y157.121 E0.13899
G1 X154.107 Y157.470 E0.06258
G1 X151.818 Y157.992 E0.13927
G1 X150.772 Y158.110 E0.06244
G1 X149.600 Y158.176 E0.06964
G1 X50.400 Y158.176 E5.88473
G1 X49.228 Y158.110 E0.06965
G1 X48.182 Y157.992 E0.06244
G1 X45.894 Y157.470 E0.13918
G1 X44.901 Y157.122 E0.06243
G1 X42.787 Y156.104 E0.13918
G1 X41.896 Y155.544 E0.06244
G1 X40.064 Y154.084 E0.13900
G1 X39.318 Y153.338 E0.06257
G1 X37.856 Y151.505 E0.13908
G1 X37.296 Y150.613 E0.06248
G1 X36.278 Y148.499 E0.13918
G1 X35.930 Y147.506 E0.06243
G1 X35.408 Y145.220 E0.13909
G1 X35.290 Y144.173 E0.06251
G1 X35.224 Y143.000 E0.06968
G1 X35.224 Y57.000 E5.10168
G1 X35.290 Y55.827 E0.06968
G1 X35.408 Y54.780 E0.06253
G1 X35.930 Y52.494 E0.13907
G1 X36.278 Y51.500 E0.06251
G1 X37.296 Y49.387 E0.13909
G1 X37.855 Y48.496 E0.06243
G1 X39.318 Y46.662 E0.13915
G1 X40.020 Y45.960 E0.05892
G1 F6240
G1 X41.778 Y44.550 E-1.23500
G1 E-0.06500 F3600.00000
G1 X101.229 Y135.640 F7800.000
G1 E1.30000 F3600.00000
G1 X111.020 Y135.640 E0.58085 F1080.000
G1 X111.020 Y145.431 E0.58082
G1 X104.219 Y145.431 E0.40347
G1 X101.229 Y142.441 E0.25083
G1 X101.229 Y135.700 E0.39992
G1 X101.704 Y136.115 F7800.000
G1 X110.545 Y136.115 E0.52442 F1080.000
G1 X110.545 Y144.955 E0.52439
G1 X104.416 Y144.955 E0.36357
G1 X101.704 Y142.244 E0.22745
G1 X101.704 Y136.175 E0.36002
G1 X101.704 Y135.715 F7800.000
G1 X100.786 Y138.520 F7800.000
G1 X100.786 Y142.557 E0.23946 F1080.000
G1 X99.140 Y142.557 E0.09762
G1 X98.900 Y142.620 E0.01474
G1 X98.485 Y142.622 E0.02459
G1 X98.232 Y142.577 E0.01529
G1 X97.982 Y142.473 E0.01608
G1 X97.903 Y142.515 E0.00529
G1 X97.497 Y142.623 E0.02491
G1 X96.992 Y142.614 E0.02997
G1 X96.601 Y142.524 E0.02379
G1 X96.601 Y143.592 E0.06334
G1 X94.457 Y143.592 E0.12721
G1 X94.457 Y142.484 E0.06571
G1 X94.214 Y142.543 E0.01479
G1 X93.856 Y142.592 E0.02144
G1 X93.481 Y142.609 E0.02227
G1 X93.134 Y142.586 E0.02066
G1 X92.763 Y142.497 E0.02261
G1 X92.763 Y143.576 E0.06398
G1 X90.610 Y143.576 E0.12772
G1 X90.610 Y142.633 E0.05593
G1 X90.151 Y142.544 E0.02773
G1 X89.790 Y142.384 E0.02342
G1 X89.407 Y142.039 E0.03060
G1 X89.204 Y141.699 E0.02348
G1 X89.084 Y141.352 E0.02179
G1 X89.018 Y140.978 E0.02254
G1 X89.006 Y140.394 E0.03463
G1 X89.066 Y139.968 E0.02554
G1 X89.188 Y139.589 E0.02360
G1 X89.302 Y139.365 E0.01491
G1 X89.527 Y139.063 E0.02234
G1 X89.709 Y138.892 E0.01481
G1 X90.031 Y138.677 E0.02298
G1 X90.422 Y138.528 E0.02479
G1 X90.922 Y138.460 E0.02994
G1 X91.390 Y138.474 E0.02778
G1 X91.682 Y138.515 E0.01750
G1 X93.577 Y138.515 E0.11242
G1 X93.858 Y138.480 E0.01678
G1 X94.220 Y138.497 E0.02153
G1 X94.457 Y138.560 E0.01450
G1 X94.457 Y138.466 E0.00555
G1 X96.601 Y138.466 E0.12721
G1 X96.601 Y138.520 E0.00322
G1 X100.726 Y138.520 E0.24469
G1 X100.310 Y138.996 F7800.000
G1 X100.310 Y142.081 E0.18303 F1080.000
G1 X99.310 Y142.081 E0.05933
G1 X99.288 Y141.983 E0.00601
G1 X99.136 Y142.066 E0.01028
G1 X98.837 Y142.145 E0.01832
G1 X98.526 Y142.147 E0.01846
G1 X98.367 Y142.118 E0.00959
G1 X98.115 Y142.013 E0.01621
G1 X97.992 Y141.894 E0.01013
G1 X97.875 Y141.990 E0.00900
G1 X97.727 Y142.069 E0.00991
G1 X97.439 Y142.146 E0.01771
G1 X97.050 Y142.139 E0.02307
G1 X96.823 Y142.087 E0.01384
G1 X96.621 Y141.983 E0.01347
G1 X96.456 Y141.821 E0.01369
G1 X96.338 Y141.613 E0.01421
G1 X96.126 Y141.669 E0.01306
G1 X96.126 Y143.116 E0.08586
G1 X94.932 Y143.116 E0.07078
G1 X94.932 Y141.814 E0.07727
G1 X94.415 Y142.005 E0.03274
G1 X94.126 Y142.075 E0.01764
G1 X93.813 Y142.118 E0.01872
G1 X93.486 Y142.133 E0.01940
G1 X93.205 Y142.114 E0.01670
G1 X92.955 Y142.054 E0.01529
G1 X92.739 Y141.950 E0.01424
G1 X92.562 Y141.801 E0.01367
G1 X92.488 Y141.693 E0.00778
G1 X92.287 Y141.756 E0.01245
G1 X92.287 Y143.100 E0.07973
G1 X91.086 Y143.100 E0.07129
G1 X91.086 Y142.116 E0.05834
G1 X90.558 Y142.138 E0.03132
G1 X90.295 Y142.088 E0.01592
G1 X90.053 Y141.980 E0.01573
G1 X89.778 Y141.733 E0.02187
G1 X89.637 Y141.497 E0.01630
G1 X89.546 Y141.232 E0.01663
G1 X89.493 Y140.932 E0.01812
G1 X89.482 Y140.422 E0.03022
G1 X89.531 Y140.075 E0.02081
G1 X89.629 Y139.771 E0.01893
G1 X89.708 Y139.617 E0.01028
G1 X89.884 Y139.381 E0.01746
G1 X90.006 Y139.266 E0.00996
G1 X90.251 Y139.103 E0.01744
G1 X90.540 Y138.992 E0.01839
G1 X90.947 Y138.937 E0.02433
G1 X91.350 Y138.949 E0.02393
G1 X91.660 Y138.992 E0.01860
G1 X91.927 Y139.056 E0.01623
G1 X92.212 Y139.163 E0.01807
G1 X92.167 Y138.991 E0.01055
G1 X93.257 Y138.991 E0.06466
G1 X93.296 Y139.119 E0.00797
G1 X93.609 Y138.990 E0.02008
G1 X93.876 Y138.957 E0.01597
G1 X94.148 Y138.970 E0.01614
G1 X94.352 Y139.024 E0.01256
G1 X94.534 Y139.113 E0.01203
G1 X94.932 Y139.424 E0.02995
G1 X94.932 Y138.942 E0.02861
G1 X96.126 Y138.942 E0.07078
G1 X96.126 Y138.996 E0.00322
G1 X100.250 Y138.996 E0.24469
G1 X100.710 Y138.996 F7800.000
G1 F6240
G1 X100.294 Y141.249 E-1.23500
G1 E-0.06500 F3600.00000
G1 X140.146 Y134.446 F7800.000
G1 E1.30000 F3600.00000
G1 X59.854 Y134.446 E4.76303 F1620.000
G1 X59.854 Y81.154 E3.16134
G1 X140.146 Y81.154 E4.76303
G1 X140.146 Y134.386 E3.15778
G1 X139.670 Y133.970 F7800.000
G1 X60.330 Y133.970 E4.70660 F1458.000
G1 X60.330 Y81.630 E3.10491
G1 X139.670 Y81.630 E4.70660
G1 X139.670 Y133.910 E3.10135
G1 X139.670 Y134.370 F7800.000
G1 F6240
G1 X137.417 Y133.912 E-1.23500
G1 E-0.06500 F3600.00000
G1 X67.010 Y67.960 F7800.000
G1 E1.30000 F3600.00000
G1 X66.026 Y68.715 E0.07359 F1080.000
G1 X64.880 Y69.190 E0.07359
G1 X63.650 Y69.352 E0.07359
G1 X62.420 Y69.190 E0.07359
G1 X61.274 Y68.715 E0.07359
G1 X60.290 Y67.960 E0.07359
G1 X59.535 Y66.976 E0.07359
G1 X59.060 Y65.830 E0.07359
G1 X58.898 Y64.600 E0.07359
G1 X59.060 Y63.370 E0.07359
G1 X59.535 Y62.224 E0.07359
G1 X60.290 Y61.240 E0.07359
G1 X61.274 Y60.485 E0.07360
G1 X62.420 Y60.010 E0.07359
G1 X63.475 Y59.871 E0.06313
G1 X63.650 Y59.848 E0.01047 F1080.000
G1 X64.880 Y60.010 E0.07359
G1 X66.026 Y60.485 E0.07359
G1 X67.010 Y61.240 E0.07359
G1 X67.765 Y62.224 E0.07359
G1 X68.240 Y63.370 E0.07359
G1 X68.402 Y64.600 E0.07359
G1 X68.240 Y65.830 E0.07359
G1 X67.765 Y66.976 E0.07359
G1 X67.047 Y67.913 E0.07004
G1 X66.671 Y67.621 F7800.000
G1 X65.786 Y68.300 E0.06616 F1080.000
G1 X64.756 Y68.727 E0.06617
G1 X63.650 Y68.872 E0.06616
G1 X62.544 Y68.727 E0.06616
G1 X61.514 Y68.300 E0.06616
G1 X60.629 Y67.621 E0.06616
G1 X59.950 Y66.736 E0.06616
G1 X59.523 Y65.706 E0.06616
G1 X59.378 Y64.600 E0.06616
G1 X59.523 Y63.494 E0.06616
G1 X59.950 Y62.464 E0.06616
G1 X60.629 Y61.579 E0.06616
G1 X61.514 Y60.900 E0.06617
G1 X62.544 Y60.473 E0.06616
G1 X63.537 Y60.343 E0.05941
G1 X63.650 Y60.328 E0.00675 F1080.000
G1 X64.756 Y60.473 E0.06616
G1 X65.786 Y60.900 E0.06617
G1 X66.671 Y61.579 E0.06616
G1 X67.350 Y62.464 E0.06616
G1 X67.777 Y63.494 E0.06616
G1 X67.922 Y64.600 E0.06616
G1 X67.777 Y65.706 E0.06616
G1 X67.350 Y66.736 E0.06616
G1 X66.708 Y67.573 E0.06261
G1 X66.758 Y68.012 F7800.000
G1 X79.355 Y66.521 F7800.000
G1 X79.023 Y66.659 E0.02135 F1080.000
G1 X78.569 Y66.718 E0.02713
G1 X78.116 Y66.659 E0.02713
G1 X77.693 Y66.484 E0.02713
G1 X77.331 Y66.205 E0.02713
G1 X77.052 Y65.842 E0.02713
G1 X76.877 Y65.420 E0.02713
G1 X76.817 Y64.966 E0.02713
G1 X76.877 Y64.513 E0.02713
G1 X77.052 Y64.090 E0.02713
G1 X77.331 Y63.727 E0.02713
G1 X77.693 Y63.449 E0.02713
G1 X78.116 Y63.274 E0.02713
G1 X78.543 Y63.218 E0.02556
G1 X79.017 Y63.271 E0.02826
G1 X79.355 Y63.412 E0.02176
G1 X79.218 Y63.079 E0.02134
G1 X79.158 Y62.626 E0.02714
G1 X79.218 Y62.172 E0.02713
G1 X79.383 Y61.774 E0.02556
G1 X79.666 Y61.391 E0.02826
G1 X80.034 Y61.108 E0.02754
G1 X80.457 Y60.933 E0.02713
G1 X80.884 Y60.877 E0.02556
G1 X81.357 Y60.931 E0.02826
G1 X81.786 Y61.108 E0.02754
G1 X82.149 Y61.387 E0.02713
G1 X82.427 Y61.750 E0.02713
G1 X82.602 Y62.172 E0.02713
G1 X82.662 Y62.626 E0.02713
G1 X82.602 Y63.079 E0.02714
G1 X82.465 Y63.412 E0.02134
G1 X82.797 Y63.274 E0.02134
G1 X83.224 Y63.218 E0.02557
G1 X83.698 Y63.271 E0.02826
G1 X84.127 Y63.449 E0.02754
G1 X84.532 Y63.760 E0.03031
G1 X84.774 Y64.105 E0.02502
G1 X84.943 Y64.513 E0.02618
G1 X85.003 Y64.966 E0.02712
G1 X84.943 Y65.420 E0.02712
G1 X84.768 Y65.842 E0.02715
G1 X84.489 Y66.205 E0.02714
G1 X84.127 Y66.484 E0.02713
G1 X83.704 Y66.659 E0.02713
G1 X83.251 Y66.718 E0.02713
G1 X82.797 Y66.659 E0.02713
G1 X82.465 Y66.521 E0.02134
G1 X82.602 Y66.853 E0.02134
G1 X82.662 Y67.307 E0.02713
G1 X82.602 Y67.760 E0.02714
G1 X82.427 Y68.183 E0.02712
G1 X82.149 Y68.546 E0.02713
G1 X81.786 Y68.824 E0.02714
G1 X81.363 Y68.999 E0.02714
G1 X80.910 Y69.059 E0.02712
G1 X80.457 Y68.999 E0.02712
G1 X80.034 Y68.824 E0.02714
G1 X79.671 Y68.546 E0.02714
G1 X79.393 Y68.183 E0.02713
G1 X79.218 Y67.760 E0.02712
G1 X79.158 Y67.307 E0.02714
G1 X79.218 Y66.853 E0.02713
G1 X79.332 Y66.576 E0.01779
G1 X79.795 Y66.703 F7800.000
G1 X80.010 Y66.407 E0.02171 F1080.000
G1 X80.274 Y66.205 E0.01970
G1 X80.581 Y66.078 E0.01970
G1 X80.888 Y66.037 E0.01839 F1080.000
G1 X81.237 Y66.077 E0.02083
G1 X81.546 Y66.205 E0.01985
G1 X81.810 Y66.407 E0.01970
G1 X82.012 Y66.671 E0.01970
G1 X82.139 Y66.977 E0.01970
G1 X82.182 Y67.307 E0.01970
G1 X82.139 Y67.636 E0.01971
G1 X82.012 Y67.943 E0.01970
G1 X81.810 Y68.206 E0.01971
G1 X81.546 Y68.409 E0.01970
G1 X81.239 Y68.536 E0.01971
G1 X80.910 Y68.579 E0.01970
G1 X80.581 Y68.536 E0.01970
G1 X80.274 Y68.409 E0.01971
G1 X80.010 Y68.206 E0.01970
G1 X79.808 Y67.943 E0.01971
G1 X79.681 Y67.636 E0.01970
G1 X79.638 Y67.307 E0.01971
G1 X79.681 Y66.977 E0.01970
G1 X79.772 Y66.758 E0.01407
G1 X79.621 Y66.381 F7800.000
G1 F6240
G1 X80.010 Y66.407 E-0.23267
G1 F6240
G1 X80.274 Y66.205 E-0.18204
G1 F6240
G1 X80.581 Y66.078 E-0.18204
G1 E-0.70326 F3600.00000
G1 X82.149 Y65.602 F7800.000
G1 E1.30000 F3600.00000
G1 X82.022 Y65.295 E0.01970 F1080.000
G1 X81.978 Y64.966 E0.01970
G1 X82.022 Y64.637 E0.01970
G1 X82.140 Y64.350 E0.01839
G1 X82.349 Y64.068 E0.02083
G1 X82.614 Y63.864 E0.01985
G1 X82.921 Y63.737 E0.01970
G1 X83.229 Y63.697 E0.01839 F1080.000
G1 X83.578 Y63.736 E0.02083
G1 X83.887 Y63.864 E0.01985
G1 X84.184 Y64.093 E0.02227
G1 X84.355 Y64.335 E0.01758
G1 X84.480 Y64.637 E0.01936
G1 X84.523 Y64.966 E0.01970
G1 X84.480 Y65.295 E0.01970
G1 X84.352 Y65.602 E0.01971
G1 X84.150 Y65.866 E0.01971
G1 X83.887 Y66.068 E0.01970
G1 X83.580 Y66.195 E0.01970
G1 X83.251 Y66.239 E0.01970
G1 X82.921 Y66.195 E0.01970
G1 X82.614 Y66.068 E0.01970
G1 X82.351 Y65.866 E0.01970
G1 X82.185 Y65.650 E0.01614
G1 X81.817 Y65.588 F7800.000
G1 X81.398 Y63.789 F7800.000
G1 X81.239 Y63.855 E0.01017 F1080.000
G1 X80.910 Y63.898 E0.01970
G1 X80.581 Y63.855 E0.01970
G1 X80.274 Y63.728 E0.01971
G1 X80.010 Y63.525 E0.01971
G1 X79.808 Y63.262 E0.01970
G1 X79.681 Y62.955 E0.01970
G1 X79.638 Y62.626 E0.01971
G1 X79.681 Y62.296 E0.01970
G1 X79.800 Y62.010 E0.01839
G1 X80.008 Y61.727 E0.02083
G1 X80.274 Y61.524 E0.01985
G1 X80.581 Y61.397 E0.01970
G1 X80.888 Y61.356 E0.01839 F1080.000
G1 X81.237 Y61.396 E0.02083
G1 X81.546 Y61.524 E0.01985
G1 X81.810 Y61.726 E0.01970
G1 X82.012 Y61.989 E0.01970
G1 X82.139 Y62.296 E0.01970
G1 X82.182 Y62.626 E0.01970
G1 X82.139 Y62.955 E0.01971
G1 X82.012 Y63.262 E0.01970
G1 X81.810 Y63.525 E0.01970
G1 X81.546 Y63.728 E0.01971
G1 X81.453 Y63.766 E0.00598
G1 X81.375 Y63.959 F7800.000
G1 X79.733 Y64.479 F7800.000
G1 X79.798 Y64.637 E0.01016 F1080.000
G1 X79.842 Y64.966 E0.01970
G1 X79.798 Y65.295 E0.01970
G1 X79.671 Y65.602 E0.01970
G1 X79.469 Y65.866 E0.01970
G1 X79.206 Y66.068 E0.01970
G1 X78.899 Y66.195 E0.01970
G1 X78.569 Y66.239 E0.01970
G1 X78.240 Y66.195 E0.01970
G1 X77.933 Y66.068 E0.01970
G1 X77.670 Y65.866 E0.01970
G1 X77.468 Y65.602 E0.01970
G1 X77.341 Y65.295 E0.01970
G1 X77.297 Y64.966 E0.01970
G1 X77.341 Y64.637 E0.01970
G1 X77.468 Y64.330 E0.01970
G1 X77.670 Y64.067 E0.01970
G1 X77.933 Y63.864 E0.01970
G1 X78.240 Y63.737 E0.01970
G1 X78.548 Y63.697 E0.01839 F1080.000
G1 X78.896 Y63.736 E0.02083
G1 X79.206 Y63.864 E0.01985
G1 X79.469 Y64.067 E0.01970
G1 X79.671 Y64.330 E0.01970
G1 X79.710 Y64.423 E0.00598
G1 X79.903 Y64.501 F7800.000
G1 F6240
G1 X79.798 Y64.637 E-0.12677
G1 F6240
G1 X79.842 Y64.966 E-0.18204
G1 F6240
G1 X79.798 Y65.295 E-0.18204
G1 F6240
G1 X79.671 Y65.602 E-0.18204
G1 F6240
G1 X79.469 Y65.866 E-0.18204
G1 F6240
G1 X79.206 Y66.068 E-0.18203
G1 F6240
G1 X78.899 Y66.195 E-0.18204
G1 F6240
G1 X78.870 Y66.199 E-0.01600
G1 E-0.06500 F3600.00000
G1 X91.404 Y64.479 F7800.000
G1 E1.30000 F3600.00000
G1 X91.404 Y62.352 E0.12614 F1620.000
G1 X91.546 Y61.195 E0.06917
G1 X91.984 Y60.053 E0.07259
G1 X92.671 Y59.066 E0.07130
G1 X93.582 Y58.267 E0.07192
G1 X94.660 Y57.711 E0.07191
G1 X95.835 Y57.431 E0.07169
