; generated by Slic3r 1.3.1-dev (Build 2d100c4) on 2020-05-15 at 06:24:10

; external perimeters extrusion width = 0.44mm (3.91mm^3/s)
; perimeters extrusion width = 0.56mm (5.65mm^3/s)
; infill extrusion width = 0.50mm (5.02mm^3/s)
; solid infill extrusion width = 0.56mm (5.65mm^3/s)
; top infill extrusion width = 0.56mm (5.65mm^3/s)

M107
M190 S60 ; set bed temperature and wait for it to be reached
M104 S215 ; set temperature
G28 ; home all axes
G92 E0.0 ; reset extruder
; Filament gcode

M109 S215 ; set temperature and wait for it to be reached
G21 ; set units to millimeters
G90 ; use absolute coordinates
M83 ; use relative distances for extrusion
G1 E-1.30000 F3600.00000
G1 Z0.300 F7800.000
G1 X29.726 Y35.582 F7800.000
G1 E1.30000 F3600.00000
M201 X500 Y500
M204 P500 T500
G1 F2160.000
G1 X31.643 Y34.053 E0.14548
G1 X32.534 Y33.493 E0.06243
G1 X34.744 Y32.429 E0.14547
G1 X35.737 Y32.081 E0.06243
G1 X38.128 Y31.535 E0.14548
G1 X39.174 Y31.418 E0.06243
G1 X40.400 Y31.349 E0.07285
G1 X139.600 Y31.349 E5.88473
G1 X140.826 Y31.418 E0.07284
G1 X141.872 Y31.535 E0.06244
G1 X144.264 Y32.082 E0.14557
G1 X145.257 Y32.429 E0.06241
G1 X147.466 Y33.493 E0.14544
G1 X148.357 Y34.053 E0.06243
G1 X150.270 Y35.578 E0.14508
G1 X151.015 Y36.322 E0.06247
G1 X152.547 Y38.243 E0.14579
G1 X153.107 Y39.134 E0.06244
G1 X154.174 Y41.349 E0.14585
G1 X154.521 Y42.343 E0.06242
G1 X155.064 Y44.726 E0.14503
G1 X155.182 Y45.772 E0.06244
G1 X155.251 Y47.000 E0.07295
G1 X155.251 Y133.000 E5.10168
G1 X155.182 Y134.228 E0.07295
G1 X155.064 Y135.274 E0.06244
G1 X154.521 Y137.657 E0.14503
G1 X154.174 Y138.651 E0.06242
G1 X153.107 Y140.866 E0.14587
G1 X152.547 Y141.757 E0.06243
G1 X151.015 Y143.678 E0.14577
G1 X150.270 Y144.422 E0.06247
G1 X148.357 Y145.947 E0.14505
G1 X147.466 Y146.507 E0.06243
G1 X145.257 Y147.571 E0.14547
G1 X144.264 Y147.918 E0.06241
G1 X141.871 Y148.465 E0.14559
G1 X140.825 Y148.582 E0.06244
G1 X139.600 Y148.651 E0.07281
G1 X40.400 Y148.651 E5.88473
G1 X39.174 Y148.582 E0.07282
G1 X38.129 Y148.465 E0.06243
G1 X35.737 Y147.919 E0.14550
G1 X34.744 Y147.571 E0.06243
G1 X32.534 Y146.507 E0.14551
G1 X31.643 Y145.947 E0.06244
G1 X29.726 Y144.418 E0.14545
G1 X28.982 Y143.674 E0.06243
G1 X27.453 Y141.757 E0.14545
G1 X26.893 Y140.866 E0.06243
G1 X25.829 Y138.656 E0.14549
G1 X25.481 Y137.663 E0.06243
G1 X24.935 Y135.272 E0.14549
G1 X24.818 Y134.226 E0.06244
G1 X24.749 Y133.000 E0.07284
G1 X24.749 Y47.000 E5.10168
G1 X24.818 Y45.774 E0.07284
G1 X24.935 Y44.728 E0.06243
G1 X25.481 Y42.337 E0.14548
G1 X25.829 Y41.344 E0.06243
G1 X26.893 Y39.134 E0.14547
G1 X27.453 Y38.243 E0.06243
G1 X28.982 Y36.326 E0.14547
G1 X29.683 Y35.624 E0.05887
G1 X30.062 Y35.918 F7800.000
G1 F2160.000
G1 X31.896 Y34.455 E0.13916
G1 X32.787 Y33.895 E0.06243
G1 X34.901 Y32.878 E0.13916
G1 X35.894 Y32.530 E0.06243
G1 X38.181 Y32.008 E0.13916
G1 X39.227 Y31.890 E0.06243
G1 X40.400 Y31.824 E0.06969
G1 X139.600 Y31.824 E5.88473
G1 X140.773 Y31.890 E0.06968
G1 X141.819 Y32.008 E0.06244
G1 X144.107 Y32.531 E0.13925
G1 X145.100 Y32.878 E0.06241
G1 X147.213 Y33.896 E0.13912
G1 X148.104 Y34.456 E0.06243
G1 X149.933 Y35.914 E0.13878
G1 X150.678 Y36.658 E0.06247
G1 X152.145 Y38.496 E0.13946
G1 X152.705 Y39.387 E0.06244
G1 X153.725 Y41.506 E0.13952
G1 X154.072 Y42.500 E0.06242
G1 X154.592 Y44.780 E0.13873
G1 X154.710 Y45.826 E0.06244
G1 X154.776 Y47.000 E0.06978
G1 X154.776 Y133.000 E5.10168
G1 X154.710 Y134.174 E0.06978
G1 X154.592 Y135.220 E0.06244
G1 X154.072 Y137.500 E0.13873
G1 X153.725 Y138.494 E0.06242
G1 X152.705 Y140.613 E0.13954
G1 X152.145 Y141.504 E0.06243
G1 X150.678 Y143.342 E0.13944
G1 X149.933 Y144.086 E0.06247
G1 X148.104 Y145.544 E0.13875
G1 X147.213 Y146.104 E0.06243
G1 X145.100 Y147.122 E0.13916
G1 X144.107 Y147.470 E0.06241
G1 X141.818 Y147.992 E0.13927
G1 X140.772 Y148.110 E0.06244
G1 X139.600 Y148.176 E0.06965
G1 X40.400 Y148.176 E5.88473
G1 X39.228 Y148.110 E0.06966
G1 X38.182 Y147.992 E0.06243
G1 X35.894 Y147.470 E0.13918
G1 X34.901 Y147.122 E0.06243
G1 X32.787 Y146.104 E0.13919
G1 X31.896 Y145.544 E0.06244
G1 X30.062 Y144.082 E0.13913
G1 X29.318 Y143.338 E0.06243
G1 X27.856 Y141.504 E0.13913
G1 X27.296 Y140.613 E0.06243
G1 X26.278 Y138.499 E0.13917
G1 X25.930 Y137.506 E0.06243
G1 X25.408 Y135.219 E0.13917
G1 X25.290 Y134.173 E0.06244
G1 X25.224 Y133.000 E0.06968
G1 X25.224 Y47.000 E5.10168
G1 X25.290 Y45.827 E0.06968
G1 X25.408 Y44.781 E0.06243
G1 X25.930 Y42.494 E0.13917
G1 X26.278 Y41.501 E0.06243
G1 X27.296 Y39.387 E0.13916
G1 X27.855 Y38.496 E0.06243
G1 X29.318 Y36.662 E0.13915
G1 X30.020 Y35.960 E0.05887
G1 F6240.000
G1 X31.778 Y34.551 E-1.23500
G1 E-0.06500 F3600.00000
G1 X91.229 Y125.640 F7800.000
G1 E1.30000 F3600.00000
G1 F1080.000
G1 X101.020 Y125.640 E0.58085
G1 X101.020 Y135.431 E0.58082
G1 X94.219 Y135.431 E0.40347
G1 X91.229 Y132.441 E0.25083
G1 X91.229 Y125.700 E0.39992
G1 X91.704 Y126.115 F7800.000
G1 F1080.000
G1 X100.545 Y126.115 E0.52442
G1 X100.545 Y134.955 E0.52439
G1 X94.416 Y134.955 E0.36357
G1 X91.704 Y132.244 E0.22745
G1 X91.704 Y126.175 E0.36002
G1 X91.665 Y125.717 F7800.000
G1 F6240.000
G1 X93.958 Y126.160 E-1.23500
G1 E-0.06500 F3600.00000
G1 X90.786 Y128.520 F7800.000
G1 E1.30000 F3600.00000
G1 F1080.000
G1 X90.786 Y132.557 E0.23946
G1 X89.140 Y132.557 E0.09762
G1 X88.919 Y132.615 E0.01360
G1 X88.645 Y132.631 E0.01627
G1 X88.254 Y132.587 E0.02334
G1 X87.995 Y132.478 E0.01666
G1 X87.691 Y132.584 E0.01906
G1 X87.302 Y132.631 E0.02326
G1 X86.974 Y132.610 E0.01948
G1 X86.601 Y132.524 E0.02272
G1 X86.601 Y133.592 E0.06334
G1 X84.457 Y133.592 E0.12721
G1 X84.457 Y132.484 E0.06571
G1 X84.214 Y132.543 E0.01479
G1 X83.856 Y132.592 E0.02144
G1 X83.467 Y132.610 E0.02311
G1 X82.976 Y132.559 E0.02927
G1 X82.763 Y132.484 E0.01341
G1 X82.763 Y133.576 E0.06477
G1 X80.610 Y133.576 E0.12772
G1 X80.610 Y132.614 E0.05706
G1 X80.306 Y132.586 E0.01809
G1 X79.830 Y132.407 E0.03019
G1 X79.518 Y132.161 E0.02359
G1 X79.290 Y131.864 E0.02219
G1 X79.130 Y131.515 E0.02282
G1 X79.021 Y131.002 E0.03108
G1 X79.000 Y130.586 E0.02471
G1 X79.061 Y129.981 E0.03606
G1 X79.195 Y129.569 E0.02568
G1 X79.395 Y129.224 E0.02365
G1 X79.557 Y129.032 E0.01496
G1 X79.855 Y128.781 E0.02310
G1 X80.217 Y128.595 E0.02415
G1 X80.593 Y128.494 E0.02306
G1 X80.832 Y128.465 E0.01430
G1 X81.385 Y128.474 E0.03280
G1 X81.682 Y128.515 E0.01781
G1 X83.575 Y128.515 E0.11227
G1 X83.744 Y128.485 E0.01020
G1 X84.210 Y128.495 E0.02766
G1 X84.457 Y128.560 E0.01513
G1 X84.457 Y128.466 E0.00555
G1 X86.601 Y128.466 E0.12721
G1 X86.601 Y128.520 E0.00322
G1 X90.726 Y128.520 E0.24468
G1 X90.310 Y128.996 F7800.000
G1 F1080.000
G1 X90.310 Y132.081 E0.18303
G1 X89.310 Y132.081 E0.05933
G1 X89.297 Y132.024 E0.00349
G1 X88.844 Y132.143 E0.02779
G1 X88.658 Y132.154 E0.01105
G1 X88.375 Y132.122 E0.01691
G1 X88.127 Y132.018 E0.01592
G1 X87.989 Y131.909 E0.01045
G1 X87.745 Y132.061 E0.01708
G1 X87.583 Y132.118 E0.01017
G1 X87.288 Y132.154 E0.01761
G1 X87.044 Y132.138 E0.01454
G1 X86.823 Y132.087 E0.01345
G1 X86.621 Y131.983 E0.01347
G1 X86.456 Y131.821 E0.01369
G1 X86.338 Y131.613 E0.01421
G1 X86.126 Y131.669 E0.01306
G1 X86.126 Y133.116 E0.08586
G1 X84.932 Y133.116 E0.07078
G1 X84.932 Y131.814 E0.07727
G1 X84.415 Y132.005 E0.03274
G1 X84.126 Y132.075 E0.01764
G1 X83.813 Y132.118 E0.01872
G1 X83.481 Y132.133 E0.01970
G1 X83.081 Y132.091 E0.02386
G1 X82.842 Y132.007 E0.01502
G1 X82.644 Y131.881 E0.01394
G1 X82.287 Y131.485 E0.03163
G1 X82.287 Y133.100 E0.09582
G1 X81.086 Y133.100 E0.07129
G1 X81.086 Y132.090 E0.05993
G1 X80.696 Y132.144 E0.02332
G1 X80.413 Y132.118 E0.01686
G1 X80.067 Y131.988 E0.02196
G1 X79.859 Y131.824 E0.01569
G1 X79.700 Y131.617 E0.01552
G1 X79.584 Y131.364 E0.01649
G1 X79.494 Y130.940 E0.02570
G1 X79.477 Y130.598 E0.02033
G1 X79.529 Y130.080 E0.03091
G1 X79.632 Y129.764 E0.01968
G1 X79.785 Y129.499 E0.01816
G1 X79.895 Y129.369 E0.01007
G1 X80.120 Y129.179 E0.01751
G1 X80.390 Y129.041 E0.01795
G1 X80.684 Y128.962 E0.01807
G1 X80.857 Y128.941 E0.01035
G1 X81.348 Y128.949 E0.02914
G1 X81.660 Y128.992 E0.01871
G1 X81.927 Y129.056 E0.01623
G1 X82.212 Y129.163 E0.01807
G1 X82.167 Y128.991 E0.01055
G1 X83.257 Y128.991 E0.06465
G1 X83.296 Y129.119 E0.00797
G1 X83.603 Y128.993 E0.01969
G1 X83.780 Y128.962 E0.01071
G1 X84.144 Y128.969 E0.02157
G1 X84.352 Y129.024 E0.01279
G1 X84.534 Y129.113 E0.01203
G1 X84.932 Y129.424 E0.02995
G1 X84.932 Y128.942 E0.02861
G1 X86.126 Y128.942 E0.07078
G1 X86.126 Y128.996 E0.00322
G1 X90.250 Y128.996 E0.24468
G1 X90.710 Y128.998 F7800.000
G1 F6240.000
G1 X90.294 Y131.249 E-1.23500
G1 E-0.06500 F3600.00000
G1 X130.146 Y124.446 F7800.000
G1 E1.30000 F3600.00000
G1 F1620.000
G1 X49.854 Y124.446 E4.76303
G1 X49.854 Y71.154 E3.16134
G1 X130.146 Y71.154 E4.76303
G1 X130.146 Y124.386 E3.15778
G1 X129.670 Y123.970 F7800.000
G1 F1458.000
G1 X50.330 Y123.970 E4.70660
G1 X50.330 Y71.630 E3.10491
G1 X129.670 Y71.630 E4.70660
G1 X129.670 Y123.910 E3.10135
G1 X129.799 Y124.349 F7800.000
G1 F6240.000
G1 X127.417 Y123.912 E-1.23500
G1 E-0.06500 F3600.00000
G1 X57.010 Y57.960 F7800.000
G1 E1.30000 F3600.00000
G1 F1080.000
G1 X56.026 Y58.715 E0.07359
G1 X54.880 Y59.190 E0.07359
G1 X53.650 Y59.352 E0.07359
G1 X52.420 Y59.190 E0.07359
G1 X51.274 Y58.715 E0.07359
G1 X50.290 Y57.960 E0.07359
G1 X49.535 Y56.976 E0.07359
G1 X49.060 Y55.830 E0.07359
G1 X48.898 Y54.600 E0.07359
G1 X49.060 Y53.370 E0.07359
G1 X49.535 Y52.224 E0.07359
G1 X50.290 Y51.240 E0.07359
G1 X51.274 Y50.485 E0.07360
G1 X52.420 Y50.010 E0.07359
G1 X53.650 Y49.848 E0.07359
G1 X54.880 Y50.010 E0.07359
G1 X56.026 Y50.485 E0.07359
G1 X57.010 Y51.240 E0.07359
G1 X57.765 Y52.224 E0.07359
G1 X58.240 Y53.370 E0.07359
G1 X58.402 Y54.600 E0.07359
G1 X58.240 Y55.830 E0.07359
G1 X57.765 Y56.976 E0.07359
G1 X57.047 Y57.913 E0.07004
G1 X56.671 Y57.621 F7800.000
G1 F1080.000
G1 X55.786 Y58.300 E0.06616
G1 X54.756 Y58.727 E0.06617
G1 X53.650 Y58.872 E0.06616
G1 X52.544 Y58.727 E0.06616
G1 X51.514 Y58.300 E0.06616
G1 X50.629 Y57.621 E0.06616
G1 X49.950 Y56.736 E0.06616
G1 X49.523 Y55.706 E0.06616
G1 X49.378 Y54.600 E0.06616
G1 X49.523 Y53.494 E0.06616
G1 X49.950 Y52.464 E0.06616
G1 X50.629 Y51.579 E0.06616
G1 X51.514 Y50.900 E0.06617
G1 X52.544 Y50.473 E0.06616
G1 X53.650 Y50.328 E0.06616
G1 X54.756 Y50.473 E0.06616
G1 X55.786 Y50.900 E0.06617
G1 X56.671 Y51.579 E0.06616
G1 X57.350 Y52.464 E0.06616
G1 X57.777 Y53.494 E0.06616
G1 X57.922 Y54.600 E0.06616
G1 X57.777 Y55.706 E0.06616
G1 X57.350 Y56.736 E0.06616
G1 X56.708 Y57.573 E0.06261
G1 X56.671 Y57.621 F7800.000
G1 F6240.000
G1 X56.671 Y57.621 E-0.03288
G1 F6240.000
G1 X55.786 Y58.300 E-0.61124
G1 F6240.000
G1 X54.790 Y58.712 E-0.59088
G1 E-0.06500 F3600.00000
G1 X69.355 Y56.521 F7800.000
G1 E1.30000 F3600.00000
G1 F1080.000
G1 X69.023 Y56.659 E0.02135
G1 X68.569 Y56.718 E0.02713
G1 X68.116 Y56.659 E0.02713
G1 X67.693 Y56.483 E0.02713
G1 X67.331 Y56.205 E0.02713
G1 X67.052 Y55.842 E0.02713
G1 X66.877 Y55.420 E0.02713
G1 X66.817 Y54.966 E0.02713
G1 X66.877 Y54.513 E0.02713
G1 X67.052 Y54.090 E0.02713
G1 X67.331 Y53.727 E0.02713
G1 X67.693 Y53.449 E0.02713
G1 X68.116 Y53.274 E0.02713
G1 X68.569 Y53.214 E0.02713
G1 X69.023 Y53.274 E0.02713
G1 X69.355 Y53.412 E0.02135
G1 X69.218 Y53.079 E0.02135
G1 X69.158 Y52.626 E0.02714
G1 X69.218 Y52.172 E0.02713
G1 X69.393 Y51.750 E0.02713
G1 X69.671 Y51.387 E0.02713
G1 X70.034 Y51.108 E0.02713
G1 X70.457 Y50.933 E0.02713
G1 X70.910 Y50.874 E0.02713
G1 X71.363 Y50.933 E0.02713
G1 X71.786 Y51.108 E0.02713
G1 X72.149 Y51.387 E0.02713
G1 X72.427 Y51.750 E0.02713
G1 X72.602 Y52.172 E0.02713
G1 X72.662 Y52.626 E0.02713
G1 X72.602 Y53.079 E0.02714
G1 X72.465 Y53.412 E0.02134
G1 X72.797 Y53.274 E0.02134
G1 X73.251 Y53.214 E0.02713
G1 X73.704 Y53.274 E0.02713
G1 X74.127 Y53.449 E0.02713
G1 X74.532 Y53.760 E0.03031
G1 X74.774 Y54.105 E0.02502
G1 X74.943 Y54.513 E0.02618
G1 X75.003 Y54.966 E0.02712
G1 X74.943 Y55.420 E0.02712
G1 X74.774 Y55.827 E0.02618
G1 X74.532 Y56.172 E0.02502
G1 X74.127 Y56.483 E0.03031
G1 X73.704 Y56.659 E0.02713
G1 X73.251 Y56.718 E0.02713
G1 X72.797 Y56.659 E0.02713
G1 X72.465 Y56.521 E0.02134
G1 X72.602 Y56.853 E0.02134
G1 X72.662 Y57.307 E0.02713
G1 X72.602 Y57.760 E0.02714
G1 X72.434 Y58.168 E0.02616
G1 X72.192 Y58.513 E0.02501
G1 X71.786 Y58.824 E0.03032
G1 X71.363 Y58.999 E0.02714
G1 X70.910 Y59.059 E0.02712
G1 X70.457 Y58.999 E0.02712
G1 X70.034 Y58.824 E0.02714
G1 X69.671 Y58.546 E0.02714
G1 X69.393 Y58.183 E0.02713
G1 X69.218 Y57.760 E0.02712
G1 X69.158 Y57.307 E0.02714
G1 X69.218 Y56.853 E0.02713
G1 X69.332 Y56.576 E0.01779
G1 X70.745 Y55.844 F7800.000
G1 F1080.000
G1 X70.745 Y56.056 E0.01261
G1 X70.910 Y56.034 E0.00989
G1 X71.239 Y56.078 E0.01970
G1 X71.546 Y56.205 E0.01970
G1 X71.810 Y56.407 E0.01970
G1 X72.012 Y56.671 E0.01970
G1 X72.139 Y56.977 E0.01970
G1 X72.182 Y57.307 E0.01970
G1 X72.139 Y57.636 E0.01971
G1 X72.014 Y57.937 E0.01935
G1 X71.844 Y58.180 E0.01758
G1 X71.546 Y58.409 E0.02227
G1 X71.239 Y58.536 E0.01971
G1 X70.910 Y58.579 E0.01970
G1 X70.581 Y58.536 E0.01970
G1 X70.274 Y58.409 E0.01971
G1 X70.010 Y58.206 E0.01970
G1 X69.808 Y57.943 E0.01971
G1 X69.681 Y57.636 E0.01970
G1 X69.638 Y57.307 E0.01971
G1 X69.681 Y56.977 E0.01970
G1 X69.808 Y56.671 E0.01970
G1 X70.010 Y56.407 E0.01970
G1 X70.697 Y55.880 E0.05135
G1 X70.951 Y55.793 F7800.000
G1 X69.743 Y55.429 F7800.000
G1 F1080.000
G1 X69.671 Y55.602 E0.01115
G1 X69.469 Y55.866 E0.01970
G1 X69.206 Y56.068 E0.01970
G1 X68.899 Y56.195 E0.01970
G1 X68.569 Y56.239 E0.01970
G1 X68.240 Y56.195 E0.01970
G1 X67.933 Y56.068 E0.01970
G1 X67.670 Y55.866 E0.01970
G1 X67.468 Y55.602 E0.01970
G1 X67.341 Y55.295 E0.01970
G1 X67.297 Y54.966 E0.01970
G1 X67.341 Y54.637 E0.01970
G1 X67.468 Y54.330 E0.01970
G1 X67.670 Y54.067 E0.01970
G1 X67.933 Y53.864 E0.01970
G1 X68.240 Y53.737 E0.01970
G1 X68.569 Y53.694 E0.01970
G1 X68.899 Y53.737 E0.01970
G1 X69.206 Y53.864 E0.01970
G1 X69.469 Y54.067 E0.01970
G1 X69.671 Y54.330 E0.01970
G1 X69.798 Y54.637 E0.01970
G1 X69.842 Y54.966 E0.01970
G1 X69.798 Y55.295 E0.01970
G1 X69.766 Y55.373 E0.00499
G1 X69.867 Y55.571 F7800.000
G1 X70.422 Y53.789 F7800.000
G1 F1080.000
G1 X70.274 Y53.728 E0.00953
G1 X70.010 Y53.525 E0.01971
G1 X69.808 Y53.262 E0.01970
G1 X69.681 Y52.955 E0.01970
G1 X69.638 Y52.626 E0.01971
G1 X69.681 Y52.296 E0.01970
G1 X69.808 Y51.989 E0.01970
G1 X70.010 Y51.726 E0.01970
G1 X70.274 Y51.524 E0.01970
G1 X70.581 Y51.397 E0.01970
G1 X70.910 Y51.353 E0.01970
G1 X71.239 Y51.397 E0.01970
G1 X71.546 Y51.524 E0.01970
G1 X71.810 Y51.726 E0.01970
G1 X72.012 Y51.989 E0.01970
G1 X72.139 Y52.296 E0.01970
G1 X72.182 Y52.626 E0.01970
G1 X72.139 Y52.955 E0.01971
G1 X72.012 Y53.262 E0.01970
G1 X71.810 Y53.525 E0.01970
G1 X71.546 Y53.728 E0.01971
G1 X71.239 Y53.855 E0.01971
G1 X70.910 Y53.898 E0.01970
G1 X70.581 Y53.855 E0.01970
G1 X70.478 Y53.812 E0.00662
G1 X70.301 Y53.894 F7800.000
G1 X72.087 Y54.479 F7800.000
G1 F1080.000
G1 X72.149 Y54.330 E0.00954
G1 X72.351 Y54.067 E0.01970
G1 X72.614 Y53.864 E0.01970
G1 X72.921 Y53.737 E0.01970
G1 X73.251 Y53.694 E0.01970
G1 X73.580 Y53.737 E0.01970
G1 X73.887 Y53.864 E0.01970
G1 X74.184 Y54.093 E0.02227
G1 X74.355 Y54.335 E0.01758
G1 X74.480 Y54.637 E0.01936
G1 X74.523 Y54.966 E0.01970
G1 X74.480 Y55.295 E0.01970
G1 X74.355 Y55.597 E0.01936
G1 X74.184 Y55.840 E0.01758
G1 X73.887 Y56.068 E0.02227
G1 X73.580 Y56.195 E0.01970
G1 X73.251 Y56.239 E0.01970
G1 X72.921 Y56.195 E0.01970
G1 X72.614 Y56.068 E0.01970
G1 X72.351 Y55.866 E0.01970
G1 X72.149 Y55.602 E0.01970
G1 X72.022 Y55.295 E0.01970
G1 X71.978 Y54.966 E0.01970
G1 X72.022 Y54.637 E0.01970
G1 X72.064 Y54.534 E0.00661
G1 X71.982 Y54.357 F7800.000
G1 F6240.000
G1 X72.149 Y54.330 E-0.12100
G1 F6240.000
G1 X72.351 Y54.067 E-0.18204
G1 F6240.000
G1 X72.614 Y53.864 E-0.18204
G1 F6240.000
G1 X72.921 Y53.737 E-0.18204
G1 F6240.000
G1 X73.251 Y53.694 E-0.18204
G1 F6240.000
G1 X73.580 Y53.737 E-0.18204
G1 F6240.000
G1 X73.887 Y53.864 E-0.18204
G1 F6240.000
G1 X73.918 Y53.889 E-0.02177
G1 E-0.06500 F3600.00000
G1 X81.404 Y54.479 F7800.000
G1 E1.30000 F3600.00000
G1 F1620.000
G1 X81.404 Y52.352 E0.12614
G1 X81.546 Y51.195 E0.06917
