; generated by Slic3r 1.3.1-dev (Build 2d100c4) on 2020-05-07 at 12:46:29

; external perimeters extrusion width = 0.44mm (3.91mm^3/s)
; perimeters extrusion width = 0.56mm (5.65mm^3/s)
; infill extrusion width = 0.50mm (5.02mm^3/s)
; solid infill extrusion width = 0.56mm (5.65mm^3/s)
; top infill extrusion width = 0.56mm (5.65mm^3/s)

M107
M190 S60 ; set bed temperature and wait for it to be reached
M104 S215 ; set temperature
G28 ; home all axes
G92 E0.0 ; reset extruder
; Filament gcode

M109 S215 ; set temperature and wait for it to be reached
G21 ; set units to millimeters
G90 ; use absolute coordinates
M83 ; use relative distances for extrusion
G1 E-1.30000 F3600.00000
G1 Z0.300 F7800.000
G1 X31.541 Y36.120 F7800.000
G1 E1.30000 F3600.00000
M201 X500 Y500
M204 P500 T500
G1 F2160.000
G1 X32.183 Y35.627 E0.04801
G1 X34.659 Y34.198 E0.16959
G1 X35.407 Y33.888 E0.04801
G1 X38.168 Y33.148 E0.16960
G1 X38.971 Y33.042 E0.04801
G1 X40.400 Y32.949 E0.08498
G1 X139.600 Y32.949 E5.88472
G1 X141.028 Y33.042 E0.08491
G1 X141.831 Y33.148 E0.04805
G1 X144.597 Y33.889 E0.16986
G1 X145.344 Y34.199 E0.04797
G1 X147.817 Y35.627 E0.16941
G1 X148.459 Y36.120 E0.04801
G1 X150.478 Y38.138 E0.16935
G1 X150.971 Y38.780 E0.04802
G1 X152.401 Y41.256 E0.16959
G1 X152.711 Y42.003 E0.04801
G1 X153.454 Y44.777 E0.17032
G1 X153.559 Y45.579 E0.04800
G1 X153.651 Y47.000 E0.08448
G1 X153.651 Y133.000 E5.10168
G1 X153.559 Y134.421 E0.08447
G1 X153.454 Y135.223 E0.04801
G1 X152.711 Y137.997 E0.17034
G1 X152.401 Y138.745 E0.04801
G1 X150.971 Y141.220 E0.16958
G1 X150.478 Y141.862 E0.04802
G1 X148.459 Y143.880 E0.16931
G1 X147.817 Y144.372 E0.04801
G1 X145.344 Y145.801 E0.16943
G1 X144.597 Y146.111 E0.04797
G1 X141.831 Y146.852 E0.16990
G1 X141.028 Y146.958 E0.04805
G1 X139.600 Y147.051 E0.08489
G1 X40.400 Y147.051 E5.88472
G1 X38.971 Y146.958 E0.08495
G1 X38.169 Y146.852 E0.04801
G1 X35.407 Y146.112 E0.16963
G1 X34.659 Y145.802 E0.04801
G1 X32.183 Y144.373 E0.16961
G1 X31.541 Y143.880 E0.04801
G1 X29.520 Y141.859 E0.16955
G1 X29.027 Y141.217 E0.04801
G1 X27.598 Y138.741 E0.16959
G1 X27.288 Y137.994 E0.04800
G1 X26.548 Y135.232 E0.16962
G1 X26.443 Y134.429 E0.04801
G1 X26.349 Y133.000 E0.08497
G1 X26.349 Y47.000 E5.10168
G1 X26.443 Y45.571 E0.08498
G1 X26.548 Y44.768 E0.04801
G1 X27.288 Y42.007 E0.16959
G1 X27.598 Y41.259 E0.04801
G1 X29.027 Y38.783 E0.16959
G1 X29.520 Y38.141 E0.04801
G1 X31.499 Y36.162 E0.16604
G1 X31.831 Y36.497 F7800.000
G1 F2160.000
G1 X32.473 Y36.004 E0.04801
G1 X34.841 Y34.637 E0.16223
G1 X35.589 Y34.327 E0.04801
G1 X38.230 Y33.620 E0.16223
G1 X39.033 Y33.514 E0.04801
G1 X40.400 Y33.424 E0.08129
G1 X139.600 Y33.424 E5.88472
G1 X140.966 Y33.514 E0.08122
G1 X141.769 Y33.619 E0.04805
G1 X144.415 Y34.329 E0.16248
G1 X145.162 Y34.638 E0.04797
G1 X147.527 Y36.005 E0.16205
G1 X148.169 Y36.497 E0.04801
G1 X150.101 Y38.428 E0.16200
G1 X150.594 Y39.070 E0.04802
G1 X151.962 Y41.438 E0.16222
G1 X152.272 Y42.185 E0.04801
G1 X152.982 Y44.838 E0.16292
G1 X153.087 Y45.641 E0.04800
G1 X153.175 Y47.000 E0.08081
G1 X153.175 Y133.000 E5.10168
G1 X153.087 Y134.359 E0.08080
G1 X152.982 Y135.162 E0.04801
G1 X152.272 Y137.815 E0.16294
G1 X151.962 Y138.563 E0.04801
G1 X150.593 Y140.930 E0.16222
G1 X150.100 Y141.572 E0.04802
G1 X148.170 Y143.502 E0.16196
G1 X147.528 Y143.995 E0.04801
G1 X145.162 Y145.362 E0.16207
G1 X144.415 Y145.671 E0.04797
G1 X141.769 Y146.381 E0.16252
G1 X140.966 Y146.486 E0.04805
G1 X139.600 Y146.576 E0.08120
G1 X40.400 Y146.576 E5.88472
G1 X39.033 Y146.486 E0.08126
G1 X38.231 Y146.380 E0.04801
G1 X35.589 Y145.673 E0.16226
G1 X34.841 Y145.363 E0.04801
G1 X32.473 Y143.995 E0.16224
G1 X31.831 Y143.503 E0.04801
G1 X29.897 Y141.569 E0.16219
G1 X29.405 Y140.927 E0.04801
G1 X28.037 Y138.559 E0.16222
G1 X27.728 Y137.811 E0.04800
G1 X27.020 Y135.170 E0.16225
G1 X26.914 Y134.367 E0.04801
G1 X26.825 Y133.000 E0.08128
G1 X26.825 Y47.000 E5.10168
G1 X26.914 Y45.633 E0.08129
G1 X27.020 Y44.830 E0.04801
G1 X27.728 Y42.189 E0.16223
G1 X28.037 Y41.441 E0.04801
G1 X29.405 Y39.073 E0.16222
G1 X29.897 Y38.431 E0.04801
G1 X31.788 Y36.540 E0.15867
G1 F6240.000
G1 X32.473 Y36.004 E-0.47616
G1 F6240.000
G1 X33.672 Y35.312 E-0.75884
G1 E-0.06500 F3600.00000
G1 X137.979 Y132.064 F7800.000
G1 E1.30000 F3600.00000
G1 F1080.000
G1 X138.276 Y131.676 E0.02897
G1 X138.664 Y131.379 E0.02898
G1 X139.115 Y131.191 E0.02901
G1 X139.600 Y131.128 E0.02899
G1 X140.084 Y131.191 E0.02899
G1 X140.536 Y131.379 E0.02900
G1 X140.924 Y131.676 E0.02903
G1 X141.222 Y132.064 E0.02899
G1 X141.409 Y132.516 E0.02901
G1 X141.472 Y133.000 E0.02898
G1 X141.409 Y133.484 E0.02898
G1 X141.222 Y133.936 E0.02900
G1 X140.924 Y134.324 E0.02899
G1 X140.536 Y134.622 E0.02903
G1 X140.084 Y134.809 E0.02899
G1 X139.600 Y134.872 E0.02899
G1 X139.115 Y134.809 E0.02899
G1 X138.664 Y134.622 E0.02901
G1 X138.276 Y134.324 E0.02899
G1 X137.979 Y133.936 E0.02898
G1 X137.792 Y133.485 E0.02899
G1 X137.728 Y133.000 E0.02901
G1 X137.792 Y132.515 E0.02901
G1 X137.956 Y132.119 E0.02543
G1 X137.979 Y132.064 F7800.000
G1 F6240.000
G1 X137.979 Y132.064 E-0.03288
G1 F6240.000
G1 X138.276 Y131.676 E-0.26769
G1 F6240.000
G1 X138.664 Y131.379 E-0.26776
G1 F6240.000
G1 X139.115 Y131.191 E-0.26800
G1 F6240.000
G1 X139.600 Y131.128 E-0.26783
G1 F6240.000
G1 X139.837 Y131.159 E-0.13083
G1 E-0.06500 F3600.00000
G1 X136.103 Y131.148 F7800.000
G1 E1.30000 F3600.00000
G1 F1080.000
G1 X133.800 Y132.822 E0.16888
G1 X131.497 Y131.148 E0.16887
G1 X132.377 Y128.441 E0.16887
G1 X135.223 Y128.441 E0.16887
G1 X136.085 Y131.091 E0.16532
G1 X135.544 Y130.967 F7800.000
G1 F1080.000
G1 X133.800 Y132.234 E0.12788
G1 X132.056 Y130.967 E0.12788
G1 X132.722 Y128.916 E0.12788
G1 X134.878 Y128.916 E0.12788
G1 X135.526 Y130.910 E0.12432
G1 X135.812 Y131.264 F7800.000
G1 F6240.000
G1 X133.800 Y132.234 E-1.19207
G1 F6240.000
G1 X133.737 Y132.188 E-0.04293
G1 E-0.06500 F3600.00000
G1 X132.646 Y135.354 F7800.000
G1 E1.30000 F3600.00000
G1 F1080.000
G1 X132.646 Y132.993 E0.14008
G1 X131.775 Y132.258 E0.06760
G1 X131.372 Y131.688 E0.04140
G1 X131.126 Y131.035 E0.04140
G1 X131.053 Y130.341 E0.04140
G1 X131.156 Y129.651 E0.04140
G1 X131.430 Y129.009 E0.04140
G1 X131.857 Y128.457 E0.04140
G1 X132.409 Y128.030 E0.04140
G1 X133.051 Y127.756 E0.04140
G1 X133.741 Y127.652 E0.04140
G1 X134.435 Y127.726 E0.04140
G1 X135.088 Y127.972 E0.04140
G1 X135.658 Y128.375 E0.04140
G1 X136.394 Y129.246 E0.06763
G1 X141.954 Y129.246 E0.32986
G1 X141.954 Y131.989 E0.16276
G1 X141.725 Y132.035 E0.01389
G1 X141.637 Y131.824 E0.01355
G1 X141.264 Y131.337 E0.03642
G1 X140.776 Y130.963 E0.03646
G1 X140.209 Y130.728 E0.03641
G1 X139.600 Y130.648 E0.03642
G1 X138.991 Y130.728 E0.03642
G1 X138.424 Y130.963 E0.03645
G1 X137.937 Y131.337 E0.03642
G1 X137.564 Y131.824 E0.03639
G1 X137.329 Y132.391 E0.03639
G1 X137.248 Y133.000 E0.03646
G1 X137.329 Y133.609 E0.03646
G1 X137.564 Y134.176 E0.03639
G1 X137.937 Y134.663 E0.03639
G1 X138.424 Y135.037 E0.03643
G1 X138.636 Y135.125 E0.01360
G1 X138.590 Y135.354 E0.01389
G1 X132.706 Y135.354 E0.34906
G1 F6240.000
G1 X132.648 Y133.102 E-1.23500
G1 E-0.06500 F3600.00000
G1 X139.600 Y48.872 F7800.000
G1 E1.30000 F3600.00000
G1 F1080.000
G1 X139.115 Y48.809 E0.02899
G1 X138.664 Y48.621 E0.02901
G1 X138.276 Y48.324 E0.02898
G1 X137.979 Y47.936 E0.02898
G1 X137.792 Y47.485 E0.02899
G1 X137.728 Y47.000 E0.02901
G1 X137.792 Y46.515 E0.02901
G1 X137.979 Y46.064 E0.02899
G1 X138.276 Y45.676 E0.02898
G1 X138.664 Y45.379 E0.02898
G1 X139.115 Y45.191 E0.02901
G1 X139.600 Y45.128 E0.02899
G1 X140.084 Y45.191 E0.02899
G1 X140.536 Y45.378 E0.02899
G1 X140.924 Y45.676 E0.02903
G1 X141.222 Y46.064 E0.02899
G1 X141.409 Y46.516 E0.02900
G1 X141.472 Y47.000 E0.02898
G1 X141.409 Y47.484 E0.02898
G1 X141.222 Y47.936 E0.02900
G1 X140.924 Y48.324 E0.02899
G1 X140.536 Y48.622 E0.02903
G1 X140.084 Y48.809 E0.02899
G1 X139.659 Y48.865 E0.02543
G1 X139.600 Y48.872 F7800.000
G1 F6240.000
G1 X139.600 Y48.872 E-0.03288
G1 F6240.000
G1 X139.115 Y48.809 E-0.26783
G1 F6240.000
G1 X138.664 Y48.621 E-0.26798
G1 F6240.000
G1 X138.276 Y48.324 E-0.26777
G1 F6240.000
G1 X137.979 Y47.936 E-0.26773
G1 F6240.000
G1 X137.888 Y47.716 E-0.13081
G1 E-0.06500 F3600.00000
G1 X141.954 Y48.011 F7800.000
G1 E1.30000 F3600.00000
G1 F1080.000
G1 X141.954 Y50.754 E0.16276
G1 X139.642 Y50.754 E0.13718
G1 X138.766 Y50.656 E0.05229
G1 X137.973 Y50.378 E0.04980
G1 X137.263 Y49.932 E0.04981
G1 X136.668 Y49.338 E0.04983
G1 X136.222 Y48.627 E0.04980
G1 X135.944 Y47.834 E0.04981
G1 X135.846 Y46.958 E0.05231
G1 X135.846 Y44.646 E0.13718
G1 X138.590 Y44.646 E0.16280
G1 X138.636 Y44.875 E0.01389
G1 X138.424 Y44.963 E0.01361
G1 X137.937 Y45.337 E0.03642
G1 X137.564 Y45.824 E0.03639
G1 X137.329 Y46.391 E0.03639
G1 X137.248 Y47.000 E0.03646
G1 X137.329 Y47.609 E0.03646
G1 X137.564 Y48.176 E0.03639
G1 X137.937 Y48.663 E0.03639
G1 X138.424 Y49.037 E0.03642
G1 X138.991 Y49.272 E0.03644
G1 X139.600 Y49.352 E0.03642
G1 X140.209 Y49.272 E0.03642
G1 X140.776 Y49.037 E0.03641
G1 X141.264 Y48.663 E0.03647
G1 X141.637 Y48.176 E0.03643
G1 X141.725 Y47.965 E0.01354
G1 X141.895 Y47.999 E0.01033
G1 F6240.000
G1 X141.944 Y50.252 E-1.23500
G1 E-0.06500 F3600.00000
G1 X44.155 Y44.646 F7800.000
G1 E1.30000 F3600.00000
G1 F1080.000
G1 X44.155 Y46.958 E0.13718
G1 X44.056 Y47.834 E0.05231
G1 X43.778 Y48.627 E0.04981
G1 X43.332 Y49.338 E0.04981
G1 X42.738 Y49.932 E0.04981
G1 X42.027 Y50.378 E0.04981
G1 X41.235 Y50.656 E0.04981
G1 X40.358 Y50.754 E0.05231
G1 X38.046 Y50.754 E0.13718
G1 X38.046 Y48.010 E0.16281
G1 X38.275 Y47.964 E0.01389
G1 X38.363 Y48.176 E0.01360
G1 X38.737 Y48.663 E0.03642
G1 X39.224 Y49.037 E0.03642
G1 X39.791 Y49.272 E0.03643
G1 X40.400 Y49.352 E0.03642
G1 X41.009 Y49.272 E0.03642
G1 X41.576 Y49.037 E0.03642
G1 X42.063 Y48.663 E0.03642
G1 X42.437 Y48.176 E0.03642
G1 X42.672 Y47.609 E0.03642
G1 X42.752 Y47.000 E0.03642
G1 X42.672 Y46.391 E0.03642
G1 X42.437 Y45.824 E0.03642
G1 X42.063 Y45.337 E0.03642
G1 X41.576 Y44.963 E0.03642
G1 X41.364 Y44.875 E0.01360
G1 X41.410 Y44.646 E0.01389
G1 X44.095 Y44.646 E0.15925
G1 F6240.000
G1 X44.153 Y46.898 E-1.23500
G1 E-0.06500 F3600.00000
G1 X42.022 Y46.064 F7800.000
G1 E1.30000 F3600.00000
G1 F1080.000
G1 X42.209 Y46.515 E0.02900
G1 X42.272 Y47.000 E0.02900
G1 X42.209 Y47.485 E0.02899
G1 X42.022 Y47.936 E0.02900
G1 X41.724 Y48.324 E0.02899
G1 X41.336 Y48.621 E0.02899
G1 X40.885 Y48.809 E0.02900
G1 X40.400 Y48.872 E0.02899
G1 X39.916 Y48.809 E0.02900
G1 X39.464 Y48.621 E0.02900
G1 X39.076 Y48.324 E0.02899
G1 X38.779 Y47.936 E0.02899
G1 X38.592 Y47.485 E0.02900
G1 X38.528 Y47.000 E0.02899
G1 X38.592 Y46.515 E0.02900
G1 X38.779 Y46.064 E0.02900
G1 X39.076 Y45.676 E0.02899
G1 X39.464 Y45.379 E0.02899
G1 X39.916 Y45.191 E0.02900
G1 X40.400 Y45.128 E0.02900
G1 X40.885 Y45.191 E0.02899
G1 X41.336 Y45.379 E0.02900
G1 X41.724 Y45.676 E0.02899
G1 X41.985 Y46.016 E0.02544
G1 X42.022 Y46.064 F7800.000
G1 F6240.000
G1 X42.022 Y46.064 E-0.03289
G1 F6240.000
G1 X42.209 Y46.515 E-0.26789
G1 F6240.000
G1 X42.272 Y47.000 E-0.26789
G1 F6240.000
G1 X42.209 Y47.485 E-0.26789
G1 F6240.000
G1 X42.022 Y47.936 E-0.26789
G1 F6240.000
G1 X41.877 Y48.125 E-0.13056
G1 E-0.06500 F3600.00000
G1 X44.777 Y128.441 F7800.000
G1 E1.30000 F3600.00000
G1 F1080.000
G1 X47.623 Y128.441 E0.16888
G1 X48.503 Y131.148 E0.16887
G1 X46.200 Y132.822 E0.16888
G1 X43.897 Y131.148 E0.16888
G1 X44.758 Y128.498 E0.16532
G1 X45.122 Y128.916 F7800.000
G1 F1080.000
G1 X47.278 Y128.916 E0.12788
G1 X47.944 Y130.967 E0.12788
G1 X46.200 Y132.234 E0.12788
G1 X44.456 Y130.967 E0.12788
G1 X45.104 Y128.974 E0.12432
G1 X45.080 Y128.519 F7800.000
G1 F6240.000
G1 X47.278 Y128.916 E-1.19205
G1 F6240.000
G1 X47.302 Y128.991 E-0.04295
G1 E-0.06500 F3600.00000
G1 X47.354 Y135.354 F7800.000
G1 E1.30000 F3600.00000
G1 F1080.000
G1 X41.410 Y135.354 E0.35263
G1 X41.364 Y135.125 E0.01389
G1 X41.576 Y135.037 E0.01359
G1 X42.063 Y134.663 E0.03643
G1 X42.437 Y134.176 E0.03642
G1 X42.672 Y133.609 E0.03642
G1 X42.752 Y133.000 E0.03642
G1 X42.672 Y132.391 E0.03642
G1 X42.437 Y131.824 E0.03643
G1 X42.063 Y131.337 E0.03642
G1 X41.576 Y130.963 E0.03642
G1 X41.009 Y130.728 E0.03643
G1 X40.400 Y130.648 E0.03642
G1 X39.791 Y130.728 E0.03643
G1 X39.224 Y130.963 E0.03643
G1 X38.737 Y131.337 E0.03642
G1 X38.363 Y131.824 E0.03642
G1 X38.275 Y132.036 E0.01360
G1 X38.046 Y131.990 E0.01389
G1 X38.046 Y129.246 E0.16281
G1 X43.607 Y129.246 E0.32991
G1 X44.342 Y128.375 E0.06761
G1 X44.912 Y127.972 E0.04140
G1 X45.565 Y127.726 E0.04140
G1 X46.259 Y127.652 E0.04140
G1 X46.949 Y127.756 E0.04139
G1 X47.591 Y128.030 E0.04140
G1 X48.143 Y128.457 E0.04140
G1 X48.570 Y129.009 E0.04140
G1 X48.844 Y129.651 E0.04140
G1 X48.948 Y130.341 E0.04140
G1 X48.874 Y131.035 E0.04140
G1 X48.628 Y131.688 E0.04139
G1 X48.225 Y132.258 E0.04141
G1 X47.354 Y132.993 E0.06760
G1 X47.354 Y135.294 E0.13652
G1 F6240.000
G1 X45.101 Y135.317 E-1.23500
G1 E-0.06500 F3600.00000
G1 X42.209 Y133.485 F7800.000
G1 E1.30000 F3600.00000
G1 F1080.000
G1 X42.022 Y133.936 E0.02900
G1 X41.724 Y134.324 E0.02900
G1 X41.336 Y134.622 E0.02900
G1 X40.885 Y134.809 E0.02900
G1 X40.400 Y134.872 E0.02899
G1 X39.916 Y134.809 E0.02899
G1 X39.464 Y134.622 E0.02900
G1 X39.076 Y134.324 E0.02900
G1 X38.779 Y133.936 E0.02900
G1 X38.592 Y133.485 E0.02900
G1 X38.528 Y133.000 E0.02899
G1 X38.592 Y132.515 E0.02899
G1 X38.779 Y132.064 E0.02900
G1 X39.076 Y131.676 E0.02899
G1 X39.464 Y131.379 E0.02899
G1 X39.916 Y131.191 E0.02900
G1 X40.400 Y131.128 E0.02900
G1 X40.885 Y131.191 E0.02899
G1 X41.336 Y131.379 E0.02900
G1 X41.724 Y131.676 E0.02899
G1 X42.022 Y132.064 E0.02899
G1 X42.209 Y132.515 E0.02900
G1 X42.272 Y133.000 E0.02899
G1 X42.216 Y133.425 E0.02543
G1 X42.209 Y133.485 F7800.000
G1 F6240.000
G1 X42.209 Y133.485 E-0.03288
G1 F6240.000
G1 X42.022 Y133.936 E-0.26789
G1 F6240.000
G1 X41.724 Y134.324 E-0.26789
G1 F6240.000
G1 X41.336 Y134.622 E-0.26790
G1 F6240.000
G1 X40.885 Y134.809 E-0.26789
G1 F6240.000
G1 X40.649 Y134.840 E-0.13053
G1 E-0.06500 F3600.00000
G1 X47.830 Y134.970 F7800.000
G1 E1.30000 F3600.00000
G1 F1458.000
G1 X132.170 Y134.970 E5.00321
G1 X132.170 Y133.214 E0.10417
G1 X131.422 Y132.582 E0.05811
G1 X130.949 Y131.913 E0.04863
G1 X130.660 Y131.146 E0.04862
G1 X130.573 Y130.331 E0.04862
G1 X130.695 Y129.520 E0.04863
G1 X131.016 Y128.766 E0.04862
G1 X131.518 Y128.118 E0.04863
G1 X132.166 Y127.616 E0.04862
G1 X132.920 Y127.294 E0.04862
G1 X133.731 Y127.173 E0.04862
G1 X134.546 Y127.260 E0.04862
G1 X135.313 Y127.549 E0.04862
G1 X135.982 Y128.021 E0.04861
G1 X136.615 Y128.770 E0.05814
G1 X141.570 Y128.770 E0.29396
G1 X141.570 Y122.442 E0.37540
G1 X141.032 Y121.430 E0.06798
G1 X140.166 Y119.645 E0.11769
G1 X139.368 Y117.829 E0.11768
G1 X138.640 Y115.984 E0.11767
G1 X137.980 Y114.113 E0.11770
G1 X137.574 Y112.805 E0.08119
G1 X138.578 Y112.805 E0.05953
G1 X138.739 Y113.342 E0.03324
G1 X139.389 Y115.242 E0.11911
G1 X140.112 Y117.115 E0.11910
G1 X140.907 Y118.958 E0.11911
G1 X141.774 Y120.770 E0.11911
G1 X142.430 Y122.016 E0.08357
G1 X142.430 Y132.982 E0.65053
G1 X142.332 Y133.732 E0.04484
G1 X142.049 Y134.414 E0.04378
G1 X141.599 Y134.999 E0.04380
G1 X141.014 Y135.449 E0.04380
G1 X140.332 Y135.731 E0.04375
G1 X139.582 Y135.830 E0.04488
G1 X40.418 Y135.830 E5.88262
G1 X39.668 Y135.731 E0.04485
G1 X38.986 Y135.449 E0.04379
G1 X38.401 Y134.999 E0.04379
G1 X37.951 Y134.414 E0.04379
G1 X37.669 Y133.732 E0.04379
G1 X37.570 Y132.982 E0.04485
G1 X37.570 Y47.018 E5.09958
G1 X37.669 Y46.268 E0.04485
G1 X37.951 Y45.586 E0.04379
G1 X38.401 Y45.001 E0.04379
G1 X38.986 Y44.551 E0.04379
G1 X39.668 Y44.269 E0.04379
G1 X40.418 Y44.170 E0.04485
G1 X139.582 Y44.170 E5.88262
G1 X140.332 Y44.269 E0.04488
G1 X141.014 Y44.551 E0.04375
G1 X141.599 Y45.001 E0.04379
G1 X142.049 Y45.586 E0.04381
G1 X142.332 Y46.268 E0.04379
G1 X142.430 Y47.018 E0.04484
G1 X142.430 Y73.054 E1.54455
G1 X141.774 Y74.301 E0.08357
G1 X140.907 Y76.112 E0.11911
G1 X140.112 Y77.956 E0.11911
G1 X139.389 Y79.829 E0.11910
G1 X138.739 Y81.729 E0.11911
G1 X138.578 Y82.265 E0.03324
G1 X137.574 Y82.265 E0.05953
G1 X137.980 Y80.958 E0.08119
