; generated by Slic3r 1.2.9 on 2020-05-14 at 22:52:26

; external perimeters extrusion width = 0.40mm
; perimeters extrusion width = 0.56mm
; infill extrusion width = 0.56mm
; solid infill extrusion width = 0.56mm
; top infill extrusion width = 0.56mm

M107
M190 S60 ; set bed temperature
M104 S215 ; set temperature
G28 ; home all axes
G92 E0.0 ; reset extruder
M109 S215 ; wait for temperature to be reached
G21 ; set units to millimeters
G90 ; use absolute coordinates
M83 ; use relative distances for extrusion
G1 E-1.30000 F3600.00000
G1 Z0.300 F7800.000
G1 X90.017 Y88.315 F7800.000
G1 E1.30000 F3600.00000
M204 S500
G1 X90.884 Y87.448 E0.07266 F708.171
G1 X91.100 Y87.255 E0.01720
G1 X92.059 Y86.490 E0.07279
G1 X92.294 Y86.323 E0.01710
G1 X93.334 Y85.670 E0.07287
G1 X93.588 Y85.530 E0.01719
G1 X94.694 Y84.997 E0.07282
G1 X94.960 Y84.887 E0.01711
G1 X96.118 Y84.482 E0.07278
G1 X96.396 Y84.402 E0.01715
G1 X97.593 Y84.128 E0.07285
G1 X97.878 Y84.080 E0.01712
G1 X99.098 Y83.942 E0.07285
G1 X99.386 Y83.926 E0.01710
G1 X100.707 Y83.931 E0.07835
G1 X102.122 Y84.080 E0.08443 F708.171
G1 X102.407 Y84.128 E0.01711
G1 X103.604 Y84.402 E0.07288
G1 X103.881 Y84.481 E0.01710
G1 X105.039 Y84.887 E0.07278
G1 X105.306 Y84.997 E0.01714
G1 X106.412 Y85.530 E0.07284
G1 X106.665 Y85.669 E0.01711
G1 X107.704 Y86.322 E0.07277
G1 X107.942 Y86.491 E0.01732
G1 X108.901 Y87.256 E0.07276
G1 X109.116 Y87.448 E0.01710
G1 X109.983 Y88.315 E0.07276
G1 X110.175 Y88.530 E0.01711
G1 X110.941 Y89.491 E0.07290
G1 X111.109 Y89.726 E0.01715
G1 X111.762 Y90.766 E0.07283
G1 X111.901 Y91.018 E0.01710
G1 X112.434 Y92.125 E0.07287
G1 X112.545 Y92.393 E0.01720
G1 X112.950 Y93.550 E0.07272
G1 X113.030 Y93.829 E0.01723
G1 X113.303 Y95.024 E0.07268
G1 X113.351 Y95.308 E0.01711
G1 X113.489 Y96.528 E0.07281
G1 X113.522 Y97.431 E0.05365
G1 X113.522 Y102.569 E0.30474
G1 X113.489 Y103.470 E0.05350
G1 X113.336 Y104.782 E0.07836
G1 X113.030 Y106.171 E0.08441
G1 X112.950 Y106.449 E0.01710
G1 X112.545 Y107.607 E0.07283
G1 X112.435 Y107.874 E0.01710
G1 X111.901 Y108.981 E0.07291
G1 X111.762 Y109.234 E0.01711
G1 X111.108 Y110.274 E0.07291
G1 X110.941 Y110.510 E0.01716
G1 X110.177 Y111.468 E0.07266
G1 X109.983 Y111.685 E0.01730
G1 X109.116 Y112.551 E0.07267
G1 X108.901 Y112.744 E0.01711
G1 X107.939 Y113.511 E0.07301
G1 X107.704 Y113.678 E0.01710
G1 X106.666 Y114.330 E0.07275
G1 X106.412 Y114.470 E0.01717
G1 X105.307 Y115.002 E0.07276
G1 X105.041 Y115.113 E0.01711
G1 X103.793 Y115.544 E0.07834
G1 X102.408 Y115.872 E0.08444
G1 X102.123 Y115.920 E0.01710
G1 X100.904 Y116.057 E0.07280
G1 X100.612 Y116.074 E0.01734
G1 X99.387 Y116.074 E0.07270
G1 X99.099 Y116.058 E0.01710
G1 X97.787 Y115.905 E0.07834
G1 X96.397 Y115.599 E0.08445
G1 X96.120 Y115.519 E0.01710
G1 X94.961 Y115.113 E0.07284
G1 X94.692 Y115.002 E0.01724
G1 X93.587 Y114.470 E0.07274
G1 X93.335 Y114.331 E0.01711
G1 X92.296 Y113.678 E0.07278
G1 X92.061 Y113.511 E0.01712
G1 X91.099 Y112.744 E0.07298
G1 X90.883 Y112.551 E0.01715
G1 X90.017 Y111.684 E0.07272
G1 X89.824 Y111.469 E0.01711
G1 X89.059 Y110.510 E0.07281
G1 X88.892 Y110.275 E0.01710
G1 X88.238 Y109.234 E0.07291
G1 X88.098 Y108.981 E0.01715
G1 X87.566 Y107.875 E0.07285
G1 X87.455 Y107.607 E0.01719
G1 X87.050 Y106.451 E0.07264
G1 X86.970 Y106.174 E0.01711
G1 X86.697 Y104.974 E0.07301
G1 X86.648 Y104.689 E0.01715
G1 X86.511 Y103.473 E0.07262
G1 X86.478 Y102.569 E0.05367
G1 X86.478 Y97.431 E0.30474
G1 X86.511 Y96.530 E0.05350
G1 X86.648 Y95.311 E0.07280
G1 X86.696 Y95.026 E0.01710
G1 X86.970 Y93.827 E0.07299
G1 X87.050 Y93.548 E0.01719
G1 X87.455 Y92.393 E0.07264
G1 X87.565 Y92.126 E0.01710
G1 X88.099 Y91.019 E0.07293
G1 X88.238 Y90.766 E0.01714
G1 X88.892 Y89.726 E0.07283
G1 X89.058 Y89.491 E0.01710
G1 X89.978 Y88.359 E0.08648
G1 X90.372 Y88.632 F7800.000
G1 X91.201 Y87.803 E0.06951 F708.171
G1 X91.417 Y87.610 E0.01719
G1 X92.334 Y86.878 E0.06963
G1 X92.570 Y86.711 E0.01710
G1 X93.564 Y86.086 E0.06970
G1 X93.818 Y85.946 E0.01718
G1 X94.876 Y85.437 E0.06966
G1 X95.142 Y85.326 E0.01711
G1 X96.250 Y84.939 E0.06962
G1 X96.528 Y84.859 E0.01715
G1 X97.673 Y84.597 E0.06968
G1 X97.957 Y84.549 E0.01712
G1 X99.125 Y84.417 E0.06969
G1 X99.413 Y84.401 E0.01710
G1 X100.680 Y84.406 E0.07518
G1 X102.043 Y84.549 E0.08127 F708.171
G1 X102.327 Y84.597 E0.01711
G1 X103.473 Y84.859 E0.06971
G1 X103.750 Y84.938 E0.01710
G1 X104.857 Y85.326 E0.06962
G1 X105.124 Y85.437 E0.01714
G1 X106.182 Y85.946 E0.06967
G1 X106.435 Y86.086 E0.01711
G1 X107.428 Y86.710 E0.06961
G1 X107.666 Y86.879 E0.01731
G1 X108.584 Y87.610 E0.06960
G1 X108.799 Y87.802 E0.01710
G1 X109.628 Y88.632 E0.06960
G1 X109.821 Y88.847 E0.01711
G1 X110.553 Y89.766 E0.06973
G1 X110.721 Y90.002 E0.01714
G1 X111.346 Y90.996 E0.06967
G1 X111.485 Y91.248 E0.01710
G1 X111.995 Y92.307 E0.06970
G1 X112.106 Y92.575 E0.01719
G1 X112.493 Y93.682 E0.06957
G1 X112.573 Y93.961 E0.01723
G1 X112.834 Y95.103 E0.06952
G1 X112.882 Y95.388 E0.01711
G1 X113.014 Y96.554 E0.06965
G1 X113.047 Y97.431 E0.05206
G1 X113.047 Y102.569 E0.30474
G1 X113.014 Y103.443 E0.05192
G1 X112.867 Y104.702 E0.07520
G1 X112.573 Y106.040 E0.08124
G1 X112.493 Y106.317 E0.01710
G1 X112.106 Y107.425 E0.06967
G1 X111.995 Y107.692 E0.01710
G1 X111.485 Y108.751 E0.06975
G1 X111.346 Y109.004 E0.01711
G1 X110.720 Y109.999 E0.06974
G1 X110.553 Y110.235 E0.01716
G1 X109.822 Y111.151 E0.06951
G1 X109.628 Y111.368 E0.01729
G1 X108.799 Y112.197 E0.06952
G1 X108.584 Y112.389 E0.01711
G1 X107.664 Y113.123 E0.06984
G1 X107.429 Y113.290 E0.01710
G1 X106.436 Y113.914 E0.06959
G1 X106.182 Y114.054 E0.01716
G1 X105.125 Y114.563 E0.06960
G1 X104.859 Y114.673 E0.01711
G1 X103.661 Y115.087 E0.07517
G1 X102.328 Y115.403 E0.08127
G1 X102.044 Y115.451 E0.01710
G1 X100.877 Y115.583 E0.06964
G1 X100.586 Y115.599 E0.01733
G1 X99.413 Y115.599 E0.06954
G1 X99.125 Y115.583 E0.01710
G1 X97.867 Y115.436 E0.07518
G1 X96.528 Y115.142 E0.08129
G1 X96.251 Y115.062 E0.01710
G1 X95.143 Y114.674 E0.06968
G1 X94.874 Y114.563 E0.01724
G1 X93.817 Y114.054 E0.06958
G1 X93.565 Y113.914 E0.01711
G1 X92.571 Y113.290 E0.06962
G1 X92.336 Y113.123 E0.01712
G1 X91.416 Y112.389 E0.06981
G1 X91.200 Y112.197 E0.01715
G1 X90.371 Y111.367 E0.06956
G1 X90.179 Y111.152 E0.01711
G1 X89.447 Y110.235 E0.06964
G1 X89.280 Y110.000 E0.01710
G1 X88.655 Y109.004 E0.06975
G1 X88.515 Y108.751 E0.01715
G1 X88.005 Y107.693 E0.06969
G1 X87.894 Y107.425 E0.01718
G1 X87.507 Y106.319 E0.06949
G1 X87.427 Y106.042 E0.01711
G1 X87.165 Y104.894 E0.06984
G1 X87.117 Y104.609 E0.01715
G1 X86.986 Y103.446 E0.06947
G1 X86.953 Y102.569 E0.05208
G1 X86.953 Y97.431 E0.30474
G1 X86.986 Y96.557 E0.05192
G1 X87.117 Y95.390 E0.06964
G1 X87.165 Y95.106 E0.01710
G1 X87.427 Y93.959 E0.06982
G1 X87.507 Y93.680 E0.01719
G1 X87.894 Y92.575 E0.06948
G1 X88.005 Y92.308 E0.01710
G1 X88.515 Y91.249 E0.06977
G1 X88.655 Y90.996 E0.01714
G1 X89.279 Y90.001 E0.06967
G1 X89.446 Y89.766 E0.01710
G1 X90.332 Y88.676 E0.08332
G1 F6240
G1 X91.201 Y87.803 E-0.67503
G1 F6240
G1 X91.417 Y87.610 E-0.15886
G1 F6240
G1 X91.989 Y87.154 E-0.40112
G1 E-0.06500 F3600.00000
G1 X101.290 Y103.859 F7800.000
G1 E1.30000 F3600.00000
G1 X100.971 Y104.113 E0.02423 F600.000
G1 X100.603 Y104.291 E0.02424
G1 X100.406 Y104.347 E0.01213
G1 X100.010 Y104.392 E0.02363
G1 X99.714 Y104.368 E0.01763
G1 X99.397 Y104.291 E0.01933
G1 X99.208 Y104.212 E0.01214
G1 X98.863 Y103.995 E0.02423
G1 X98.574 Y103.706 E0.02424
G1 X98.356 Y103.360 E0.02423
G1 X98.221 Y102.974 E0.02424
G1 X98.187 Y102.773 E0.01213
G1 X98.174 Y97.452 E0.31562
G1 X98.221 Y97.025 E0.02547
G1 X98.356 Y96.640 E0.02424
G1 X98.455 Y96.461 E0.01213
G1 X98.710 Y96.141 E0.02424
G1 X99.029 Y95.887 E0.02424
G1 X99.208 Y95.788 E0.01214
G1 X99.594 Y95.653 E0.02424
G1 X99.786 Y95.620 E0.01153
G1 X100.204 Y95.619 E0.02483
G1 X100.406 Y95.653 E0.01214 F600.000
G1 X100.792 Y95.788 E0.02424
G1 X100.971 Y95.887 E0.01214
G1 X101.282 Y96.135 E0.02363
G1 X101.474 Y96.362 E0.01763
G1 X101.644 Y96.640 E0.01933
G1 X101.722 Y96.829 E0.01213
G1 X101.813 Y97.227 E0.02424
G1 X101.826 Y97.452 E0.01338
G1 X101.813 Y102.773 E0.31562
G1 X101.722 Y103.171 E0.02424
G1 X101.644 Y103.360 E0.01213
G1 X101.545 Y103.539 E0.01213
G1 X101.330 Y103.814 E0.02069
G1 X101.607 Y104.213 F7800.000
G1 X101.434 Y104.367 E0.01372 F600.000
G1 X101.224 Y104.517 E0.01530
G1 X100.998 Y104.641 E0.01531
G1 X100.760 Y104.740 E0.01531
G1 X100.512 Y104.812 E0.01530
G1 X100.258 Y104.855 E0.01531
G1 X100.004 Y104.869 E0.01509
G1 X99.654 Y104.840 E0.02080
G1 X99.240 Y104.740 E0.02527
G1 X99.002 Y104.641 E0.01531
G1 X98.776 Y104.517 E0.01531
G1 X98.566 Y104.367 E0.01530
G1 X98.373 Y104.195 E0.01531
G1 X98.201 Y104.003 E0.01531
G1 X98.052 Y103.793 E0.01530
G1 X97.927 Y103.567 E0.01531
G1 X97.828 Y103.328 E0.01531
G1 X97.757 Y103.080 E0.01531
G1 X97.714 Y102.826 E0.01530
G1 X97.699 Y102.561 E0.01576
G1 X97.699 Y97.439 E0.30384
G1 X97.714 Y97.174 E0.01576
G1 X97.757 Y96.919 E0.01530
G1 X97.828 Y96.672 E0.01531
G1 X97.927 Y96.433 E0.01531
G1 X98.052 Y96.207 E0.01530
G1 X98.201 Y95.997 E0.01531
G1 X98.373 Y95.805 E0.01531
G1 X98.566 Y95.633 E0.01531
G1 X98.776 Y95.483 E0.01530
G1 X99.002 Y95.359 E0.01531
G1 X99.240 Y95.260 E0.01531
G1 X99.488 Y95.188 E0.01530
G1 X99.739 Y95.146 E0.01508
G1 X100.258 Y95.145 E0.03078
G1 X100.512 Y95.188 E0.01531 F600.000
G1 X100.760 Y95.260 E0.01530
G1 X100.998 Y95.359 E0.01531
G1 X101.224 Y95.483 E0.01531
G1 X101.434 Y95.633 E0.01530
G1 X101.624 Y95.802 E0.01509
G1 X101.851 Y96.070 E0.02080
G1 X102.073 Y96.433 E0.02527
G1 X102.172 Y96.672 E0.01530
G1 X102.243 Y96.919 E0.01531
G1 X102.286 Y97.174 E0.01531
G1 X102.301 Y97.439 E0.01575
G1 X102.301 Y102.561 E0.30384
G1 X102.286 Y102.826 E0.01575
G1 X102.243 Y103.080 E0.01531
G1 X102.172 Y103.328 E0.01531
G1 X102.073 Y103.567 E0.01530
G1 X101.948 Y103.793 E0.01531
G1 X101.799 Y104.003 E0.01530
G1 X101.649 Y104.171 E0.01333
G1 X101.385 Y104.148 F7800.000
G1 X99.281 Y103.841 F7800.000
G1 X98.698 Y103.259 E0.05104 F600.000
G1 X98.458 Y102.316 E0.06032
G1 X100.234 Y104.092 E0.15571
G1 X100.777 Y103.932 E0.03505
G1 X98.458 Y101.613 E0.20324
G1 X98.458 Y100.910 E0.04355
G1 X101.162 Y103.615 E0.23702
G1 X101.437 Y103.187 E0.03151
G1 X98.458 Y100.208 E0.26113
G1 X98.458 Y99.505 E0.04355
G1 X101.542 Y102.589 E0.27032
G1 X101.542 Y101.887 E0.04355
G1 X98.458 Y98.802 E0.27032
G1 X98.458 Y98.100 E0.04355
G1 X101.542 Y101.184 E0.27033
G1 X101.542 Y100.481 E0.04355
G1 X98.458 Y97.397 E0.27033
G1 X98.567 Y96.804 E0.03739
G1 X101.542 Y99.779 E0.26074
G1 X101.542 Y99.076 E0.04355
G1 X98.846 Y96.379 E0.23634
G1 X99.234 Y96.065 E0.03097
G1 X101.542 Y98.373 E0.20229
G1 X101.542 Y97.671 E0.04355
G1 X99.775 Y95.903 E0.15489
G1 X100.756 Y96.182 E0.06321
G1 X101.220 Y96.646 E0.04068
M106 S255
M140 S50 ; wait for bed temperature to be reached
G1 F6240
G1 X100.756 Y96.182 E-0.35977
G1 F6240
G1 X99.775 Y95.903 E-0.55904
G1 F6240
G1 X100.183 Y96.311 E-0.31620
G1 E-0.06500 F3600.00000
G1 Z0.550 F7800.000
G1 X101.508 Y104.103 F7800.000
G1 E1.30000 F3600.00000
G1 X101.342 Y104.251 E0.01165 F600.000
G1 X101.145 Y104.391 E0.01261
G1 X100.934 Y104.508 E0.01261
G1 X100.711 Y104.600 E0.01261
G1 X100.479 Y104.667 E0.01261
G1 X100.241 Y104.707 E0.01261
G1 X100.000 Y104.721 E0.01261
G1 X99.759 Y104.707 E0.01261
G1 X99.287 Y104.599 E0.02532
G1 X99.066 Y104.508 E0.01246
G1 X98.855 Y104.391 E0.01261
G1 X98.678 Y104.265 E0.01135
G1 X98.476 Y104.088 E0.01401
G1 X98.317 Y103.911 E0.01246
G1 X98.177 Y103.714 E0.01261
G1 X98.061 Y103.502 E0.01261
G1 X97.968 Y103.279 E0.01261
G1 X97.902 Y103.047 E0.01261
G1 X97.865 Y102.833 E0.01135
G1 X97.847 Y102.548 E0.01492
G1 X97.847 Y97.449 E0.26641
G1 X97.861 Y97.190 E0.01353
G1 X97.902 Y96.953 E0.01261
G1 X97.968 Y96.721 E0.01261
G1 X98.061 Y96.498 E0.01261
G1 X98.177 Y96.286 E0.01261
G1 X98.317 Y96.089 E0.01261
G1 X98.478 Y95.909 E0.01261
G1 X98.658 Y95.749 E0.01261
G1 X98.855 Y95.609 E0.01261
G1 X99.066 Y95.492 E0.01261
G1 X99.289 Y95.400 E0.01261
G1 X99.521 Y95.333 E0.01261
G1 X99.759 Y95.293 E0.01261
G1 X100.000 Y95.279 E0.01261
G1 X100.217 Y95.291 E0.01135
G1 X100.482 Y95.334 E0.01401 F600.000
G1 X100.711 Y95.400 E0.01246
G1 X100.934 Y95.492 E0.01261
G1 X101.344 Y95.750 E0.02532
G1 X101.522 Y95.909 E0.01247
G1 X101.683 Y96.089 E0.01261
G1 X101.809 Y96.267 E0.01135
G1 X101.940 Y96.500 E0.01400
G1 X102.032 Y96.721 E0.01247
G1 X102.098 Y96.953 E0.01261
G1 X102.139 Y97.190 E0.01261
G1 X102.153 Y97.449 E0.01353
G1 X102.153 Y102.551 E0.26656
G1 X102.139 Y102.810 E0.01353
G1 X102.098 Y103.047 E0.01261
G1 X102.032 Y103.279 E0.01261
G1 X101.939 Y103.502 E0.01261
G1 X101.823 Y103.714 E0.01261
G1 X101.550 Y104.059 E0.02301
G1 X101.791 Y104.419 F7800.000
G1 X101.607 Y104.584 E0.00889 F600.000
G1 X101.371 Y104.751 E0.01040
G1 X101.118 Y104.891 E0.01041
G1 X100.851 Y105.001 E0.01041
G1 X100.574 Y105.082 E0.01040
G1 X100.289 Y105.130 E0.01041
G1 X100.000 Y105.146 E0.01041
G1 X99.711 Y105.130 E0.01041
G1 X99.452 Y105.086 E0.00947
G1 X99.148 Y105.001 E0.01137
G1 X98.882 Y104.891 E0.01037
G1 X98.629 Y104.751 E0.01041
G1 X98.414 Y104.599 E0.00947
G1 X98.177 Y104.391 E0.01137
G1 X97.985 Y104.176 E0.01037
G1 X97.817 Y103.940 E0.01041
G1 X97.678 Y103.687 E0.01041
G1 X97.567 Y103.420 E0.01040
G1 X97.487 Y103.142 E0.01041
G1 X97.443 Y102.883 E0.00947
G1 X97.422 Y102.562 E0.01157
G1 X97.422 Y97.437 E0.18449
G1 X97.439 Y97.143 E0.01061
G1 X97.487 Y96.858 E0.01041
G1 X97.567 Y96.580 E0.01041
G1 X97.678 Y96.313 E0.01041
G1 X97.817 Y96.060 E0.01040
G1 X97.985 Y95.824 E0.01041
G1 X98.177 Y95.609 E0.01041
G1 X98.393 Y95.416 E0.01041
G1 X98.629 Y95.249 E0.01040
G1 X98.882 Y95.109 E0.01040
G1 X99.149 Y94.998 E0.01041
G1 X99.426 Y94.918 E0.01040
G1 X99.711 Y94.870 E0.01041
G1 X100.000 Y94.854 E0.01040
G1 X100.263 Y94.869 E0.00947
G1 X100.574 Y94.919 E0.01137 F600.000
G1 X100.851 Y94.998 E0.01037
G1 X101.118 Y95.109 E0.01041
G1 X101.349 Y95.236 E0.00947
G1 X101.608 Y95.417 E0.01137
G1 X101.823 Y95.609 E0.01037
G1 X102.015 Y95.824 E0.01041
G1 X102.167 Y96.039 E0.00947
G1 X102.323 Y96.314 E0.01137
G1 X102.433 Y96.580 E0.01037
G1 X102.513 Y96.858 E0.01041
G1 X102.561 Y97.143 E0.01040
G1 X102.578 Y97.437 E0.01061
G1 X102.578 Y102.563 E0.18453
G1 X102.561 Y102.857 E0.01061
G1 X102.513 Y103.142 E0.01040
G1 X102.433 Y103.420 E0.01041
G1 X102.322 Y103.687 E0.01040
G1 X102.183 Y103.940 E0.01041
G1 X102.015 Y104.176 E0.01041
G1 X101.834 Y104.378 E0.00977
G1 X101.554 Y104.350 F7800.000
G1 X100.937 Y104.070 F7800.000
G1 X101.502 Y103.506 E0.04198 F600.000
G1 X101.852 Y102.440 E0.05900
G1 X99.873 Y104.419 E0.14713
G1 X99.273 Y104.304 E0.03214
G1 X101.853 Y101.724 E0.19180
G1 X101.853 Y101.009 E0.03761
G1 X98.821 Y104.041 E0.22545
G1 X98.469 Y103.677 E0.02660
G1 X101.853 Y100.293 E0.25161
G1 X101.853 Y99.578 E0.03761
G1 X98.232 Y103.199 E0.26923
G1 X98.147 Y102.568 E0.03346
G1 X101.853 Y98.863 E0.27551
G1 X101.853 Y98.147 E0.03761
G1 X98.147 Y101.853 E0.27551
G1 X98.147 Y101.137 E0.03761
G1 X101.853 Y97.432 E0.27551
G1 X101.768 Y96.801 E0.03347
G1 X98.147 Y100.422 E0.26924
G1 X98.147 Y99.707 E0.03761
G1 X101.531 Y96.323 E0.25161
G1 X101.180 Y95.959 E0.02660
G1 X98.147 Y98.991 E0.22547
G1 X98.147 Y98.276 E0.03761
G1 X100.727 Y95.696 E0.19180
G1 X100.127 Y95.581 E0.03214
G1 X98.148 Y97.560 E0.14714
G1 X98.498 Y96.494 E0.05900
G1 X99.063 Y95.930 E0.04199
G1 F6240
G1 X98.498 Y96.494 E-0.43774
G1 F6240
G1 X98.148 Y97.560 E-0.61505
G1 F6240
G1 X98.383 Y97.325 E-0.18221
G1 E-0.06500 F3600.00000
G1 Z0.800 F7800.000
G1 X101.523 Y104.119 F7800.000
G1 E1.30000 F3600.00000
G1 X101.356 Y104.269 E0.01171 F600.000
G1 X101.157 Y104.410 E0.01274
G1 X100.943 Y104.528 E0.01274
G1 X100.718 Y104.621 E0.01274
G1 X100.484 Y104.689 E0.01274
G1 X100.249 Y104.728 E0.01246
G1 X99.999 Y104.743 E0.01306
G1 X99.757 Y104.729 E0.01271
G1 X99.516 Y104.689 E0.01274
G1 X99.282 Y104.621 E0.01274
G1 X99.057 Y104.528 E0.01274
G1 X98.843 Y104.410 E0.01274
G1 X98.649 Y104.272 E0.01246
G1 X98.462 Y104.106 E0.01305
G1 X98.300 Y103.924 E0.01270
G1 X98.159 Y103.725 E0.01274
G1 X98.043 Y103.517 E0.01246
G1 X97.947 Y103.286 E0.01305
G1 X97.880 Y103.052 E0.01270
G1 X97.840 Y102.817 E0.01246
