; generated by Slic3r 1.3.1-dev (Build 2d100c4) on 2020-05-15 at 13:15:20

; external perimeters extrusion width = 0.44mm (3.91mm^3/s)
; perimeters extrusion width = 0.56mm (5.65mm^3/s)
; infill extrusion width = 0.50mm (5.02mm^3/s)
; solid infill extrusion width = 0.56mm (5.65mm^3/s)
; top infill extrusion width = 0.56mm (5.65mm^3/s)

M107
M190 S60 ; set bed temperature and wait for it to be reached
M104 S215 ; set temperature
G28 ; home all axes
G92 E0.0 ; reset extruder
; Filament gcode

M109 S215 ; set temperature and wait for it to be reached
G21 ; set units to millimeters
G90 ; use absolute coordinates
M83 ; use relative distances for extrusion
G1 E-1.30000 F3600.00000
G1 Z0.300 F7800.000
G1 X80.017 Y78.315 F7800.000
G1 E1.30000 F3600.00000
M201 X500 Y500
M204 P500 T500
G1 F624.551
G1 X80.884 Y77.448 E0.07277
G1 X81.099 Y77.256 E0.01710
G1 X82.059 Y76.490 E0.07283
G1 X82.294 Y76.323 E0.01710
G1 X83.335 Y75.669 E0.07292
G1 X83.588 Y75.530 E0.01711
G1 X84.694 Y74.997 E0.07284
G1 X84.960 Y74.887 E0.01711
G1 X86.119 Y74.481 E0.07281
G1 X86.396 Y74.402 E0.01710
G1 X87.594 Y74.128 E0.07288
G1 X87.878 Y74.080 E0.01710
G1 X89.098 Y73.942 E0.07284
G1 X89.386 Y73.926 E0.01710
G1 X90.614 Y73.926 E0.07285
G1 X90.902 Y73.942 E0.01710
G1 X92.122 Y74.080 E0.07285
G1 X92.406 Y74.128 E0.01710
G1 X93.604 Y74.402 E0.07288
G1 X93.881 Y74.481 E0.01710
G1 X95.040 Y74.887 E0.07281
G1 X95.306 Y74.997 E0.01711
G1 X96.412 Y75.530 E0.07284
G1 X96.665 Y75.669 E0.01711
G1 X97.706 Y76.323 E0.07292
G1 X97.941 Y76.490 E0.01710
G1 X98.901 Y77.256 E0.07282
G1 X99.116 Y77.448 E0.01710
G1 X99.983 Y78.315 E0.07278
G1 X100.175 Y78.530 E0.01711
G1 X100.942 Y79.491 E0.07291
G1 X101.108 Y79.726 E0.01710
G1 X101.762 Y80.766 E0.07285
G1 X101.901 Y81.018 E0.01710
G1 X102.435 Y82.126 E0.07293
G1 X102.545 Y82.392 E0.01710
G1 X102.950 Y83.551 E0.07283
G1 X103.030 Y83.828 E0.01710
G1 X103.303 Y85.024 E0.07273
G1 X103.351 Y85.308 E0.01710
G1 X103.489 Y86.530 E0.07296
G1 X103.522 Y87.431 E0.05350
G1 X103.522 Y92.569 E0.30474
G1 X103.489 Y93.470 E0.05350
G1 X103.351 Y94.692 E0.07296
G1 X103.303 Y94.976 E0.01710
G1 X103.030 Y96.171 E0.07273
G1 X102.950 Y96.449 E0.01710
G1 X102.545 Y97.607 E0.07284
G1 X102.435 Y97.874 E0.01710
G1 X101.901 Y98.981 E0.07291
G1 X101.762 Y99.234 E0.01711
G1 X101.108 Y100.275 E0.07295
G1 X100.941 Y100.510 E0.01710
G1 X100.176 Y101.469 E0.07281
G1 X99.983 Y101.684 E0.01711
G1 X99.116 Y102.551 E0.07273
G1 X98.901 Y102.744 E0.01711
G1 X97.939 Y103.511 E0.07302
G1 X97.704 Y103.678 E0.01710
G1 X96.665 Y104.330 E0.07279
G1 X96.413 Y104.470 E0.01711
G1 X95.307 Y105.002 E0.07278
G1 X95.041 Y105.113 E0.01711
G1 X93.880 Y105.519 E0.07293
G1 X93.603 Y105.599 E0.01710
G1 X92.408 Y105.872 E0.07276
G1 X92.123 Y105.920 E0.01710
G1 X90.901 Y106.058 E0.07295
G1 X90.613 Y106.074 E0.01710
G1 X89.387 Y106.074 E0.07278
G1 X89.099 Y106.058 E0.01710
G1 X87.877 Y105.920 E0.07295
G1 X87.592 Y105.872 E0.01710
G1 X86.397 Y105.599 E0.07276
G1 X86.120 Y105.519 E0.01710
G1 X84.959 Y105.113 E0.07293
G1 X84.693 Y105.002 E0.01711
G1 X83.587 Y104.470 E0.07278
G1 X83.335 Y104.330 E0.01711
G1 X82.296 Y103.678 E0.07279
G1 X82.061 Y103.511 E0.01710
G1 X81.099 Y102.744 E0.07302
G1 X80.884 Y102.551 E0.01711
G1 X80.017 Y101.684 E0.07273
G1 X79.824 Y101.469 E0.01711
G1 X79.059 Y100.510 E0.07281
G1 X78.892 Y100.275 E0.01710
G1 X78.238 Y99.234 E0.07295
G1 X78.099 Y98.981 E0.01711
G1 X77.565 Y97.874 E0.07292
G1 X77.455 Y97.607 E0.01710
G1 X77.050 Y96.451 E0.07267
G1 X76.970 Y96.174 E0.01711
G1 X76.696 Y94.974 E0.07304
G1 X76.648 Y94.689 E0.01710
G1 X76.511 Y93.470 E0.07280
G1 X76.478 Y92.569 E0.05350
G1 X76.478 Y87.431 E0.30474
G1 X76.495 Y86.818 E0.03640
G1 X76.511 Y86.530 E0.01710
G1 X76.648 Y85.311 E0.07279
G1 X76.696 Y85.026 E0.01710
G1 X76.970 Y83.826 E0.07305
G1 X77.050 Y83.549 E0.01711
G1 X77.455 Y82.393 E0.07267
G1 X77.565 Y82.126 E0.01710
G1 X78.099 Y81.018 E0.07295
G1 X78.238 Y80.766 E0.01710
G1 X78.892 Y79.726 E0.07285
G1 X79.058 Y79.491 E0.01710
G1 X79.977 Y78.360 E0.08643
G1 X80.372 Y78.632 F7800.000
G1 F624.551
G1 X81.201 Y77.802 E0.06961
G1 X81.416 Y77.610 E0.01710
G1 X82.334 Y76.878 E0.06966
G1 X82.570 Y76.711 E0.01710
G1 X83.565 Y76.086 E0.06976
G1 X83.818 Y75.946 E0.01711
G1 X84.876 Y75.437 E0.06968
G1 X85.142 Y75.326 E0.01711
G1 X86.250 Y74.938 E0.06965
G1 X86.527 Y74.859 E0.01710
G1 X87.673 Y74.597 E0.06971
G1 X87.957 Y74.549 E0.01710
G1 X89.125 Y74.417 E0.06968
G1 X89.413 Y74.401 E0.01710
G1 X90.587 Y74.401 E0.06969
G1 X90.875 Y74.417 E0.01710
G1 X92.043 Y74.549 E0.06968
G1 X92.327 Y74.597 E0.01710
G1 X93.473 Y74.859 E0.06971
G1 X93.750 Y74.938 E0.01710
G1 X94.858 Y75.326 E0.06965
G1 X95.124 Y75.437 E0.01711
G1 X96.182 Y75.946 E0.06968
G1 X96.435 Y76.086 E0.01711
G1 X97.430 Y76.711 E0.06975
G1 X97.666 Y76.878 E0.01710
G1 X98.584 Y77.610 E0.06966
G1 X98.799 Y77.802 E0.01710
G1 X99.628 Y78.632 E0.06962
G1 X99.821 Y78.847 E0.01711
G1 X100.554 Y79.766 E0.06974
G1 X100.721 Y80.001 E0.01710
G1 X101.346 Y80.996 E0.06969
G1 X101.485 Y81.248 E0.01710
G1 X101.995 Y82.308 E0.06976
G1 X102.106 Y82.574 E0.01710
G1 X102.493 Y83.683 E0.06967
G1 X102.573 Y83.960 E0.01710
G1 X102.834 Y85.103 E0.06957
G1 X102.882 Y85.388 E0.01710
G1 X103.014 Y86.557 E0.06979
G1 X103.047 Y87.431 E0.05192
G1 X103.047 Y92.569 E0.30474
G1 X103.014 Y93.443 E0.05192
G1 X102.882 Y94.612 E0.06979
G1 X102.834 Y94.896 E0.01710
G1 X102.573 Y96.040 E0.06957
G1 X102.493 Y96.317 E0.01710
G1 X102.106 Y97.425 E0.06967
G1 X101.995 Y97.692 E0.01710
G1 X101.485 Y98.751 E0.06974
G1 X101.346 Y99.004 E0.01711
G1 X100.720 Y100.000 E0.06978
G1 X100.553 Y100.235 E0.01710
G1 X99.821 Y101.152 E0.06965
G1 X99.629 Y101.367 E0.01711
G1 X98.799 Y102.197 E0.06958
G1 X98.584 Y102.389 E0.01711
G1 X97.664 Y103.123 E0.06984
G1 X97.429 Y103.290 E0.01710
G1 X96.435 Y103.914 E0.06962
G1 X96.183 Y104.054 E0.01711
G1 X95.125 Y104.563 E0.06962
G1 X94.859 Y104.673 E0.01711
G1 X93.749 Y105.062 E0.06977
G1 X93.472 Y105.142 E0.01710
G1 X92.328 Y105.403 E0.06960
G1 X92.044 Y105.451 E0.01710
G1 X90.875 Y105.583 E0.06978
G1 X90.587 Y105.599 E0.01710
G1 X89.413 Y105.599 E0.06962
G1 X89.125 Y105.583 E0.01710
G1 X87.956 Y105.451 E0.06979
G1 X87.672 Y105.403 E0.01710
G1 X86.528 Y105.142 E0.06960
G1 X86.251 Y105.062 E0.01710
G1 X85.141 Y104.673 E0.06977
G1 X84.875 Y104.563 E0.01711
G1 X83.817 Y104.054 E0.06962
G1 X83.565 Y103.914 E0.01711
G1 X82.571 Y103.290 E0.06963
G1 X82.336 Y103.123 E0.01710
G1 X81.415 Y102.389 E0.06985
G1 X81.201 Y102.197 E0.01711
G1 X80.371 Y101.367 E0.06957
G1 X80.179 Y101.152 E0.01711
G1 X79.447 Y100.235 E0.06964
G1 X79.280 Y100.000 E0.01710
G1 X78.654 Y99.004 E0.06978
G1 X78.515 Y98.751 E0.01711
G1 X78.005 Y97.692 E0.06975
G1 X77.894 Y97.425 E0.01710
G1 X77.507 Y96.319 E0.06951
G1 X77.427 Y96.042 E0.01711
G1 X77.165 Y94.894 E0.06987
G1 X77.117 Y94.610 E0.01710
G1 X76.986 Y93.443 E0.06964
G1 X76.953 Y92.569 E0.05192
G1 X76.953 Y87.431 E0.30474
G1 X76.970 Y86.845 E0.03482
G1 X76.986 Y86.557 E0.01710
G1 X77.117 Y85.390 E0.06963
G1 X77.165 Y85.106 E0.01710
G1 X77.428 Y83.958 E0.06988
G1 X77.507 Y83.681 E0.01711
G1 X77.894 Y82.575 E0.06951
G1 X78.005 Y82.308 E0.01710
G1 X78.515 Y81.248 E0.06978
G1 X78.654 Y80.996 E0.01710
G1 X79.279 Y80.001 E0.06969
G1 X79.446 Y79.766 E0.01710
G1 X80.332 Y78.677 E0.08327
G1 F6240.000
G1 X81.201 Y77.802 E-0.67600
G1 F6240.000
G1 X81.416 Y77.610 E-0.15802
G1 F6240.000
G1 X81.988 Y77.154 E-0.40098
G1 E-0.06500 F3600.00000
G1 X91.290 Y93.859 F7800.000
G1 E1.30000 F3600.00000
G1 F600.000
G1 X90.971 Y94.113 E0.02423
G1 X90.603 Y94.291 E0.02424
G1 X90.406 Y94.347 E0.01213
G1 X90.204 Y94.381 E0.01214
G1 X89.796 Y94.381 E0.02423
G1 X89.397 Y94.291 E0.02423
G1 X89.208 Y94.212 E0.01214
G1 X88.863 Y93.995 E0.02423
G1 X88.574 Y93.706 E0.02424
G1 X88.356 Y93.360 E0.02423
G1 X88.221 Y92.974 E0.02424
G1 X88.174 Y92.548 E0.02547
G1 X88.174 Y87.452 E0.30226
G1 X88.221 Y87.025 E0.02547
G1 X88.356 Y86.640 E0.02424
G1 X88.455 Y86.461 E0.01213
G1 X88.710 Y86.141 E0.02424
G1 X89.029 Y85.887 E0.02424
G1 X89.208 Y85.788 E0.01214
G1 X89.594 Y85.653 E0.02424
G1 X90.000 Y85.607 E0.02423
G1 X90.406 Y85.653 E0.02423
G1 X90.792 Y85.788 E0.02424
G1 X90.971 Y85.887 E0.01214
G1 X91.290 Y86.141 E0.02424
G1 X91.545 Y86.461 E0.02424
G1 X91.644 Y86.640 E0.01213
G1 X91.779 Y87.025 E0.02424
G1 X91.826 Y87.452 E0.02547
G1 X91.813 Y92.773 E0.31562
G1 X91.722 Y93.171 E0.02424
G1 X91.644 Y93.360 E0.01213
G1 X91.545 Y93.539 E0.01213
G1 X91.330 Y93.814 E0.02069
G1 X91.645 Y94.176 F7800.000
G1 F1080.000
G1 X91.434 Y94.367 E0.01688
G1 X91.224 Y94.517 E0.01530
G1 X90.998 Y94.641 E0.01531
G1 X90.760 Y94.740 E0.01531
G1 X90.512 Y94.812 E0.01530
G1 X90.258 Y94.855 E0.01531
G1 X90.000 Y94.869 E0.01531
G1 X89.742 Y94.855 E0.01531
G1 X89.488 Y94.812 E0.01531
G1 X89.240 Y94.740 E0.01530
G1 X89.002 Y94.641 E0.01531
G1 X88.776 Y94.517 E0.01531
G1 X88.566 Y94.367 E0.01530
G1 X88.373 Y94.195 E0.01531
G1 X88.201 Y94.003 E0.01531
G1 X88.052 Y93.793 E0.01530
G1 X87.927 Y93.567 E0.01531
G1 X87.828 Y93.328 E0.01531
G1 X87.757 Y93.080 E0.01531
G1 X87.714 Y92.826 E0.01530
G1 X87.699 Y92.561 E0.01576
G1 X87.699 Y87.439 E0.30384
G1 X87.714 Y87.174 E0.01576
G1 X87.757 Y86.919 E0.01530
G1 X87.828 Y86.672 E0.01531
G1 X87.927 Y86.433 E0.01531
G1 X88.052 Y86.207 E0.01530
G1 X88.201 Y85.997 E0.01531
G1 X88.373 Y85.805 E0.01531
G1 X88.566 Y85.633 E0.01531
G1 X88.776 Y85.483 E0.01530
G1 X89.002 Y85.359 E0.01531
G1 X89.240 Y85.260 E0.01531
G1 X89.488 Y85.188 E0.01530
G1 X89.742 Y85.145 E0.01530
G1 X90.000 Y85.131 E0.01531
G1 X90.258 Y85.145 E0.01531
G1 X90.512 Y85.188 E0.01530
G1 X90.760 Y85.260 E0.01530
G1 X90.998 Y85.359 E0.01531
G1 X91.224 Y85.483 E0.01531
G1 X91.434 Y85.633 E0.01530
G1 X91.627 Y85.805 E0.01531
G1 X91.799 Y85.997 E0.01531
G1 X91.948 Y86.207 E0.01531
G1 X92.073 Y86.433 E0.01530
G1 X92.172 Y86.672 E0.01530
G1 X92.243 Y86.919 E0.01531
G1 X92.286 Y87.174 E0.01531
G1 X92.301 Y87.439 E0.01575
G1 X92.301 Y92.561 E0.30384
G1 X92.286 Y92.826 E0.01575
G1 X92.243 Y93.080 E0.01531
G1 X92.172 Y93.328 E0.01531
G1 X92.073 Y93.567 E0.01530
G1 X91.948 Y93.793 E0.01531
G1 X91.685 Y94.131 E0.02543
G1 X91.618 Y94.171 F7800.000
G1 X90.900 Y93.571 F7800.000
G1 F600.000
G1 X91.190 Y93.234 E0.02696
G1 X91.321 Y92.963 E0.01828
G1 X91.391 Y92.656 E0.01911
G1 X91.400 Y92.383 E0.01653
G1 X89.824 Y93.960 E0.13529
G1 X89.492 Y93.886 E0.02061
G1 X89.303 Y93.792 E0.01279
G1 X91.400 Y91.695 E0.17993
G1 X91.400 Y91.007 E0.04174
G1 X88.924 Y93.484 E0.21252
G1 X88.741 Y93.216 E0.01969
G1 X88.680 Y93.040 E0.01130
G1 X91.400 Y90.319 E0.23342
G1 X91.400 Y89.631 E0.04174
G1 X88.600 Y92.432 E0.24032
G1 X88.600 Y91.744 E0.04174
G1 X91.400 Y88.944 E0.24032
G1 X91.400 Y88.256 E0.04174
G1 X88.600 Y91.056 E0.24032
G1 X88.600 Y90.368 E0.04174
G1 X91.400 Y87.568 E0.24032
G1 X91.362 Y87.081 E0.02963
G1 X91.320 Y86.960 E0.00776
G1 X88.600 Y89.681 E0.23342
G1 X88.600 Y88.993 E0.04174
G1 X91.076 Y86.516 E0.21252
G1 X90.889 Y86.329 E0.01604
G1 X90.697 Y86.208 E0.01382
G1 X88.600 Y88.305 E0.17993
G1 X88.600 Y87.617 E0.04174
G1 X90.173 Y86.044 E0.13497
G1 X89.900 Y86.044 E0.01656
G1 X89.606 Y86.111 E0.01828
G1 X89.334 Y86.241 E0.01829
G1 X88.999 Y86.530 E0.02684
M106 S255
M140 S50 ; set bed temperature
G1 F6240.000
G1 X89.334 Y86.241 E-0.24249
G1 F6240.000
G1 X89.606 Y86.111 E-0.16518
G1 F6240.000
G1 X89.900 Y86.044 E-0.16515
G1 F6240.000
G1 X90.173 Y86.044 E-0.14957
G1 F6240.000
G1 X89.511 Y86.705 E-0.51261
G1 E-0.06500 F3600.00000
G1 Z0.550 F7800.000
G1 X91.504 Y94.050 F7800.000
G1 E1.30000 F3600.00000
G1 F600.000
G1 X91.317 Y94.220 E0.01321
G1 X91.124 Y94.357 E0.01238
G1 X90.917 Y94.472 E0.01238
G1 X90.698 Y94.562 E0.01238
G1 X90.470 Y94.628 E0.01237
G1 X90.237 Y94.668 E0.01238
G1 X90.000 Y94.681 E0.01238
G1 X89.763 Y94.668 E0.01238
G1 X89.530 Y94.628 E0.01238
G1 X89.302 Y94.562 E0.01237
G1 X89.083 Y94.472 E0.01238
G1 X88.876 Y94.357 E0.01238
G1 X88.683 Y94.220 E0.01238
G1 X88.506 Y94.062 E0.01237
G1 X88.349 Y93.886 E0.01238
G1 X88.211 Y93.692 E0.01238
G1 X88.097 Y93.485 E0.01238
G1 X88.006 Y93.266 E0.01237
G1 X87.941 Y93.039 E0.01238
G1 X87.901 Y92.805 E0.01238
G1 X87.887 Y92.550 E0.01335
G1 X87.887 Y87.450 E0.26644
G1 X87.901 Y87.195 E0.01335
G1 X87.941 Y86.961 E0.01238
G1 X88.006 Y86.734 E0.01238
G1 X88.097 Y86.515 E0.01238
G1 X88.211 Y86.308 E0.01237
G1 X88.348 Y86.114 E0.01238
G1 X88.506 Y85.938 E0.01237
G1 X88.683 Y85.780 E0.01238
G1 X88.876 Y85.643 E0.01237
G1 X89.083 Y85.528 E0.01237
G1 X89.302 Y85.438 E0.01238
G1 X89.530 Y85.372 E0.01237
G1 X89.764 Y85.332 E0.01238
G1 X90.000 Y85.319 E0.01237
G1 X90.236 Y85.332 E0.01237
G1 X90.470 Y85.372 E0.01238
G1 X90.698 Y85.438 E0.01237
G1 X90.917 Y85.528 E0.01238
G1 X91.124 Y85.643 E0.01237
G1 X91.317 Y85.780 E0.01237
G1 X91.494 Y85.938 E0.01238
G1 X91.652 Y86.114 E0.01238
G1 X91.789 Y86.308 E0.01238
G1 X91.903 Y86.515 E0.01237
G1 X91.994 Y86.734 E0.01238
G1 X92.059 Y86.961 E0.01238
G1 X92.099 Y87.195 E0.01237
G1 X92.113 Y87.450 E0.01335
G1 X92.113 Y92.550 E0.26645
G1 X92.099 Y92.805 E0.01335
G1 X92.059 Y93.039 E0.01237
G1 X91.994 Y93.266 E0.01238
G1 X91.903 Y93.485 E0.01237
G1 X91.789 Y93.692 E0.01238
G1 X91.544 Y94.005 E0.02075
G1 X91.836 Y94.346 F7800.000
G1 F1800.000
G1 X91.595 Y94.568 E0.01316
G1 X91.361 Y94.734 E0.01151
G1 X91.110 Y94.873 E0.01152
G1 X90.845 Y94.983 E0.01152
G1 X90.569 Y95.062 E0.01152
G1 X90.286 Y95.110 E0.01152
G1 X90.000 Y95.126 E0.01152
G1 X89.714 Y95.110 E0.01152
G1 X89.431 Y95.062 E0.01152
G1 X89.155 Y94.983 E0.01152
G1 X88.890 Y94.873 E0.01152
G1 X88.639 Y94.734 E0.01152
G1 X88.405 Y94.568 E0.01151
G1 X88.192 Y94.377 E0.01152
G1 X88.000 Y94.163 E0.01152
G1 X87.834 Y93.929 E0.01152
G1 X87.696 Y93.678 E0.01152
G1 X87.586 Y93.413 E0.01151
G1 X87.507 Y93.138 E0.01152
G1 X87.458 Y92.855 E0.01152
G1 X87.442 Y92.562 E0.01177
G1 X87.442 Y87.438 E0.20579
G1 X87.458 Y87.145 E0.01176
G1 X87.507 Y86.862 E0.01152
G1 X87.586 Y86.587 E0.01152
G1 X87.696 Y86.322 E0.01152
G1 X87.834 Y86.071 E0.01152
G1 X88.000 Y85.837 E0.01152
G1 X88.192 Y85.623 E0.01152
G1 X88.405 Y85.432 E0.01152
G1 X88.639 Y85.266 E0.01152
G1 X88.890 Y85.127 E0.01152
G1 X89.155 Y85.017 E0.01152
G1 X89.431 Y84.938 E0.01152
G1 X89.714 Y84.890 E0.01152
G1 X90.000 Y84.874 E0.01152
G1 X90.286 Y84.890 E0.01152
G1 X90.569 Y84.938 E0.01152
G1 X90.845 Y85.017 E0.01152
G1 X91.110 Y85.127 E0.01152
G1 X91.361 Y85.266 E0.01152
G1 X91.595 Y85.432 E0.01151
G1 X91.808 Y85.623 E0.01152
G1 X92.000 Y85.837 E0.01152
G1 X92.166 Y86.071 E0.01152
G1 X92.304 Y86.322 E0.01152
G1 X92.414 Y86.587 E0.01152
G1 X92.493 Y86.862 E0.01152
G1 X92.542 Y87.145 E0.01152
G1 X92.558 Y87.438 E0.01176
G1 X92.558 Y92.562 E0.20579
G1 X92.542 Y92.855 E0.01176
G1 X92.493 Y93.138 E0.01152
G1 X92.414 Y93.413 E0.01152
G1 X92.304 Y93.678 E0.01151
G1 X92.166 Y93.929 E0.01152
G1 X92.000 Y94.163 E0.01152
G1 X91.876 Y94.302 E0.00746
G1 X91.795 Y94.339 F7800.000
G1 X88.808 Y93.651 F7800.000
G1 F600.000
G1 X89.050 Y93.880 E0.01823
G1 X89.355 Y94.071 E0.01974
G1 X89.695 Y94.190 E0.01972
G1 X89.873 Y94.221 E0.00988
G1 X90.128 Y94.227 E0.01396
G1 X88.336 Y92.434 E0.13881
G1 X88.336 Y91.689 E0.04081
G1 X90.728 Y94.081 E0.18527
G1 X90.909 Y93.984 E0.01127
G1 X91.170 Y93.778 E0.01820
G1 X88.336 Y90.944 E0.21952
G1 X88.336 Y90.199 E0.04081
G1 X91.487 Y93.350 E0.24403
G1 X91.572 Y93.153 E0.01172
G1 X91.654 Y92.772 E0.02137
G1 X88.336 Y89.454 E0.25699
G1 X88.336 Y88.708 E0.04081
G1 X91.664 Y92.037 E0.25778
G1 X91.664 Y91.291 E0.04081
G1 X88.336 Y87.963 E0.25778
G1 X88.346 Y87.228 E0.04026
G1 X91.664 Y90.546 E0.25699
G1 X91.664 Y89.801 E0.04081
G1 X88.513 Y86.650 E0.24403
G1 X88.689 Y86.375 E0.01788
G1 X88.830 Y86.222 E0.01141
G1 X91.664 Y89.056 E0.21951
G1 X91.664 Y88.311 E0.04081
G1 X89.272 Y85.919 E0.18526
G1 X89.589 Y85.810 E0.01833
G1 X89.872 Y85.773 E0.01565
G1 X91.664 Y87.565 E0.13880
G1 X91.192 Y86.348 F7800.000
G1 F600.000
G1 X91.086 Y86.242 E0.00826
G1 F6240.000
G1 X91.192 Y86.348 E-0.08265
G1 E-1.21735 F3600.00000
G1 Z0.800 F7800.000
G1 X91.521 Y94.065 F7800.000
G1 E1.30000 F3600.00000
G1 F600.000
G1 X91.331 Y94.237 E0.01340
G1 X91.136 Y94.376 E0.01251
G1 X90.926 Y94.492 E0.01251
