; generated by Slic3r 1.3.1-dev (Build 2d100c4) on 2020-05-15 at 13:15:55

; external perimeters extrusion width = 0.44mm (3.91mm^3/s)
; perimeters extrusion width = 0.56mm (5.65mm^3/s)
; infill extrusion width = 0.50mm (5.02mm^3/s)
; solid infill extrusion width = 0.56mm (5.65mm^3/s)
; top infill extrusion width = 0.56mm (5.65mm^3/s)

M107
M190 S60 ; set bed temperature and wait for it to be reached
M104 S215 ; set temperature
G28 ; home all axes
G92 E0.0 ; reset extruder
; Filament gcode

M109 S215 ; set temperature and wait for it to be reached
G21 ; set units to millimeters
G90 ; use absolute coordinates
M83 ; use relative distances for extrusion
G1 E-1.30000 F3600.00000
G1 Z0.300 F7800.000
G1 X67.461 Y67.057 F7800.000
G1 E1.30000 F3600.00000
M201 X500 Y500
M204 P500 T500
G1 F2160.000
G1 X69.857 Y65.331 E0.17519
G1 X72.628 Y64.309 E0.17519
G1 X75.000 Y64.049 E0.14158
G1 X105.000 Y64.049 E1.77966
G1 X107.926 Y64.447 E0.17519
G1 X110.640 Y65.613 E0.17519
G1 X112.943 Y67.461 E0.17519
G1 X114.669 Y69.857 E0.17519
G1 X115.691 Y72.628 E0.17519
G1 X115.951 Y75.000 E0.14158
G1 X115.951 Y105.000 E1.77966
G1 X115.553 Y107.926 E0.17519
G1 X114.387 Y110.640 E0.17519
G1 X112.539 Y112.943 E0.17519
G1 X110.143 Y114.669 E0.17519
G1 X107.372 Y115.691 E0.17519
G1 X105.000 Y115.951 E0.14158
G1 X75.000 Y115.951 E1.77966
G1 X72.074 Y115.553 E0.17519
G1 X69.360 Y114.387 E0.17519
G1 X67.057 Y112.539 E0.17519
G1 X65.331 Y110.143 E0.17519
G1 X64.309 Y107.372 E0.17519
G1 X64.049 Y105.000 E0.14158
G1 X64.049 Y75.000 E1.77966
G1 X64.447 Y72.074 E0.17519
G1 X65.613 Y69.360 E0.17519
G1 X67.423 Y67.104 E0.17163
G1 X67.928 Y67.272 F7800.000
G1 F2160.000
G1 X70.307 Y65.634 E0.17132
G1 X73.043 Y64.709 E0.17132
G1 X75.000 Y64.524 E0.11663
G1 X105.000 Y64.524 E1.77966
G1 X107.860 Y64.922 E0.17132
G1 X110.503 Y66.086 E0.17132
G1 X112.728 Y67.928 E0.17132
G1 X114.366 Y70.307 E0.17132
G1 X115.291 Y73.043 E0.17132
G1 X115.476 Y75.000 E0.11663
G1 X115.476 Y105.000 E1.77966
G1 X115.078 Y107.860 E0.17132
G1 X113.914 Y110.503 E0.17132
G1 X112.072 Y112.728 E0.17132
G1 X109.693 Y114.366 E0.17132
G1 X106.957 Y115.291 E0.17132
G1 X105.000 Y115.476 E0.11663
G1 X75.000 Y115.476 E1.77966
G1 X72.140 Y115.078 E0.17132
G1 X69.497 Y113.914 E0.17132
G1 X67.272 Y112.072 E0.17132
G1 X65.634 Y109.693 E0.17132
G1 X64.709 Y106.957 E0.17132
G1 X64.524 Y105.000 E0.11663
G1 X64.524 Y75.000 E1.77966
G1 X64.922 Y72.140 E0.17132
G1 X66.086 Y69.497 E0.17132
G1 X67.890 Y67.318 E0.16776
G1 F6240.000
G1 X69.739 Y66.030 E-1.23500
G1 E-0.06500 F3600.00000
G1 X94.426 Y94.426 F7800.000
G1 E1.30000 F3600.00000
G1 F1080.000
G1 X85.574 Y94.426 E0.52507
G1 X85.574 Y85.574 E0.52507
G1 X94.426 Y85.574 E0.52507
G1 X94.426 Y94.366 E0.52151
G1 X93.950 Y93.950 F7800.000
G1 F1080.000
G1 X86.050 Y93.950 E0.46864
G1 X86.050 Y86.050 E0.46864
G1 X93.950 Y86.050 E0.46864
G1 X93.950 Y93.890 E0.46508
G1 X94.054 Y94.336 F7800.000
G1 F6240.000
G1 X91.697 Y93.907 E-1.23500
G1 E-0.06500 F3600.00000
G1 X104.254 Y104.254 F7800.000
G1 E1.30000 F3600.00000
G1 F1620.000
G1 X75.746 Y104.254 E1.69119
G1 X75.746 Y75.746 E1.69119
G1 X104.254 Y75.746 E1.69119
G1 X104.254 Y104.194 E1.68763
G1 X104.730 Y104.730 F7800.000
G1 F1458.000
G1 X75.270 Y104.730 E1.74762
G1 X75.270 Y75.270 E1.74762
G1 X104.730 Y75.270 E1.74762
G1 X104.730 Y104.670 E1.74406
G1 X104.344 Y104.626 F7800.000
G1 X103.728 Y103.829 F7800.000
G1 F1620.000
G1 X103.829 Y103.728 E0.00857
G1 X103.829 Y103.048 E0.04083
G1 X103.048 Y103.829 E0.06632
G1 X102.367 Y103.829 E0.04083
G1 X103.829 Y102.367 E0.12407
G1 X103.829 Y101.687 E0.04083
G1 X101.687 Y103.829 E0.18181
G1 X101.006 Y103.829 E0.04083
G1 X103.829 Y101.006 E0.23956
G1 X103.829 Y100.326 E0.04083
G1 X100.326 Y103.829 E0.29730
G1 X99.646 Y103.829 E0.04083
G1 X103.829 Y99.646 E0.35505
G1 X103.829 Y98.965 E0.04083
G1 X98.965 Y103.829 E0.41280
G1 X98.285 Y103.829 E0.04083
G1 X103.829 Y98.285 E0.47054
G1 X103.829 Y97.604 E0.04083
G1 X97.604 Y103.829 E0.52829
G1 X96.924 Y103.829 E0.04083
G1 X103.829 Y96.924 E0.58603
G1 X103.829 Y96.243 E0.04083
G1 X96.243 Y103.829 E0.64378
G1 X95.563 Y103.829 E0.04083
G1 X103.829 Y95.563 E0.70152
G1 X103.829 Y94.883 E0.04083
G1 X94.883 Y103.829 E0.75927
G1 X94.202 Y103.829 E0.04083
G1 X103.829 Y94.202 E0.81702
G1 X103.829 Y93.522 E0.04083
G1 X93.522 Y103.829 E0.87476
G1 X92.841 Y103.829 E0.04083
G1 X103.829 Y92.841 E0.93251
G1 X103.829 Y92.161 E0.04083
G1 X92.161 Y103.829 E0.99025
G1 X91.480 Y103.829 E0.04083
G1 X103.829 Y91.480 E1.04800
G1 X103.829 Y90.800 E0.04083
G1 X90.800 Y103.829 E1.10575
G1 X90.120 Y103.829 E0.04083
G1 X103.829 Y90.120 E1.16349
G1 X103.829 Y89.439 E0.04083
G1 X89.439 Y103.829 E1.22124
G1 X88.759 Y103.829 E0.04083
G1 X103.829 Y88.759 E1.27898
G1 X103.829 Y88.078 E0.04083
G1 X88.078 Y103.829 E1.33673
G1 X87.398 Y103.829 E0.04083
G1 X103.829 Y87.398 E1.39448
G1 X103.829 Y86.717 E0.04083
G1 X86.717 Y103.829 E1.45222
G1 X86.037 Y103.829 E0.04083
G1 X103.829 Y86.037 E1.50997
G1 X103.829 Y85.357 E0.04083
G1 X94.851 Y94.335 E0.76197
G1 X94.851 Y93.655 E0.04083
G1 X103.829 Y84.676 E0.76197
G1 X103.829 Y83.996 E0.04083
G1 X94.851 Y92.974 E0.76197
G1 X94.851 Y92.294 E0.04083
G1 X103.829 Y83.315 E0.76197
G1 X103.829 Y82.635 E0.04083
G1 X94.851 Y91.613 E0.76197
G1 X94.851 Y90.933 E0.04083
G1 X103.829 Y81.954 E0.76197
G1 X103.829 Y81.274 E0.04083
G1 X94.851 Y90.252 E0.76197
G1 X94.851 Y89.572 E0.04083
G1 X103.829 Y80.594 E0.76197
G1 X103.829 Y79.913 E0.04083
G1 X94.851 Y88.892 E0.76197
G1 X94.851 Y88.211 E0.04083
G1 X103.829 Y79.233 E0.76197
G1 X103.829 Y78.552 E0.04083
G1 X94.851 Y87.531 E0.76197
G1 X94.851 Y86.850 E0.04083
G1 X103.829 Y77.872 E0.76197
G1 X103.829 Y77.191 E0.04083
G1 X94.851 Y86.170 E0.76197
G1 X94.851 Y85.489 E0.04083
G1 X103.829 Y76.511 E0.76197
G1 X103.829 Y76.171 E0.02042
G1 X103.489 Y76.171 E0.02041
G1 X94.511 Y85.149 E0.76197
G1 X93.830 Y85.149 E0.04083
G1 X102.809 Y76.171 E0.76197
G1 X102.128 Y76.171 E0.04083
G1 X93.150 Y85.149 E0.76197
G1 X92.469 Y85.149 E0.04083
G1 X101.448 Y76.171 E0.76197
G1 X100.767 Y76.171 E0.04083
G1 X91.789 Y85.149 E0.76197
G1 X91.108 Y85.149 E0.04083
G1 X100.087 Y76.171 E0.76197
G1 X99.406 Y76.171 E0.04083
G1 X90.428 Y85.149 E0.76197
G1 X89.748 Y85.149 E0.04083
G1 X98.726 Y76.171 E0.76197
G1 X98.046 Y76.171 E0.04083
G1 X89.067 Y85.149 E0.76197
G1 X88.387 Y85.149 E0.04083
G1 X97.365 Y76.171 E0.76197
G1 X96.685 Y76.171 E0.04083
G1 X87.706 Y85.149 E0.76197
G1 X87.026 Y85.149 E0.04083
G1 X96.004 Y76.171 E0.76197
G1 X95.324 Y76.171 E0.04083
G1 X86.345 Y85.149 E0.76197
G1 X85.665 Y85.149 E0.04083
G1 X94.643 Y76.171 E0.76197
G1 X93.963 Y76.171 E0.04083
G1 X76.171 Y93.963 E1.50998
G1 X76.171 Y93.283 E0.04083
G1 X93.283 Y76.171 E1.45223
G1 X92.602 Y76.171 E0.04083
G1 X76.171 Y92.602 E1.39448
G1 X76.171 Y91.922 E0.04083
G1 X91.922 Y76.171 E1.33674
G1 X91.241 Y76.171 E0.04083
G1 X76.171 Y91.241 E1.27899
G1 X76.171 Y90.561 E0.04083
G1 X90.561 Y76.171 E1.22125
G1 X89.880 Y76.171 E0.04083
G1 X76.171 Y89.880 E1.16350
G1 X76.171 Y89.200 E0.04083
G1 X89.200 Y76.171 E1.10575
G1 X88.520 Y76.171 E0.04083
G1 X76.171 Y88.520 E1.04801
G1 X76.171 Y87.839 E0.04083
G1 X87.839 Y76.171 E0.99026
G1 X87.159 Y76.171 E0.04083
G1 X76.171 Y87.159 E0.93252
G1 X76.171 Y86.478 E0.04083
G1 X86.478 Y76.171 E0.87477
G1 X85.798 Y76.171 E0.04083
G1 X76.171 Y85.798 E0.81702
G1 X76.171 Y85.117 E0.04083
G1 X85.117 Y76.171 E0.75928
G1 X84.437 Y76.171 E0.04083
G1 X76.171 Y84.437 E0.70153
G1 X76.171 Y83.757 E0.04083
G1 X83.757 Y76.171 E0.64379
G1 X83.076 Y76.171 E0.04083
G1 X76.171 Y83.076 E0.58604
G1 X76.171 Y82.396 E0.04083
G1 X82.396 Y76.171 E0.52830
G1 X81.715 Y76.171 E0.04083
G1 X76.171 Y81.715 E0.47055
G1 X76.171 Y81.035 E0.04083
G1 X81.035 Y76.171 E0.41280
G1 X80.354 Y76.171 E0.04083
G1 X76.171 Y80.354 E0.35506
G1 X76.171 Y79.674 E0.04083
G1 X79.674 Y76.171 E0.29731
G1 X78.994 Y76.171 E0.04083
G1 X76.171 Y78.994 E0.23957
G1 X76.171 Y78.313 E0.04083
G1 X78.313 Y76.171 E0.18182
G1 X77.633 Y76.171 E0.04083
G1 X76.171 Y77.633 E0.12407
G1 X76.171 Y76.952 E0.04083
G1 X76.952 Y76.171 E0.06633
G1 X76.272 Y76.171 E0.04083
G1 X76.171 Y76.272 E0.00856
G1 F6240.000
G1 X76.272 Y76.171 E-0.07820
G1 F6240.000
G1 X76.952 Y76.171 E-0.37293
G1 F6240.000
G1 X76.171 Y76.952 E-0.60578
G1 F6240.000
G1 X76.171 Y77.277 E-0.17809
G1 E-0.06500 F3600.00000
G1 X76.171 Y93.963 F7800.000
G1 E1.30000 F3600.00000
G1 F1620.000
G1 X76.171 Y94.643 E0.04083
G1 X85.149 Y85.665 E0.76197
G1 X85.149 Y86.345 E0.04083
G1 X76.171 Y95.324 E0.76197
G1 X76.171 Y96.004 E0.04083
G1 X85.149 Y87.026 E0.76197
G1 X85.149 Y87.706 E0.04083
G1 X76.171 Y96.685 E0.76197
G1 X76.171 Y97.365 E0.04083
G1 X85.149 Y88.387 E0.76197
G1 X85.149 Y89.067 E0.04083
G1 X76.171 Y98.046 E0.76197
G1 X76.171 Y98.726 E0.04083
G1 X85.149 Y89.748 E0.76197
G1 X85.149 Y90.428 E0.04083
G1 X76.171 Y99.406 E0.76197
G1 X76.171 Y100.087 E0.04083
G1 X85.149 Y91.108 E0.76197
G1 X85.149 Y91.789 E0.04083
G1 X76.171 Y100.767 E0.76197
G1 X76.171 Y101.448 E0.04083
G1 X85.149 Y92.469 E0.76197
G1 X85.149 Y93.150 E0.04083
G1 X76.171 Y102.128 E0.76197
G1 X76.171 Y102.809 E0.04083
G1 X85.149 Y93.830 E0.76197
G1 X85.149 Y94.511 E0.04083
G1 X76.171 Y103.489 E0.76197
G1 X76.171 Y103.829 E0.02041
G1 X76.511 Y103.829 E0.02042
G1 X85.489 Y94.851 E0.76197
G1 X86.170 Y94.851 E0.04083
G1 X77.191 Y103.829 E0.76197
G1 X77.872 Y103.829 E0.04083
G1 X86.850 Y94.851 E0.76197
G1 X87.531 Y94.851 E0.04083
G1 X78.552 Y103.829 E0.76197
G1 X79.233 Y103.829 E0.04083
G1 X88.211 Y94.851 E0.76197
G1 X88.892 Y94.851 E0.04083
G1 X79.913 Y103.829 E0.76197
G1 X80.594 Y103.829 E0.04083
G1 X89.572 Y94.851 E0.76197
G1 X90.252 Y94.851 E0.04083
G1 X81.274 Y103.829 E0.76197
G1 X81.954 Y103.829 E0.04083
G1 X90.933 Y94.851 E0.76197
G1 X91.613 Y94.851 E0.04083
G1 X82.635 Y103.829 E0.76197
G1 X83.315 Y103.829 E0.04083
G1 X92.294 Y94.851 E0.76197
G1 X92.974 Y94.851 E0.04083
G1 X83.996 Y103.829 E0.76197
G1 X84.676 Y103.829 E0.04083
G1 X93.655 Y94.851 E0.76197
G1 X94.335 Y94.851 E0.04083
G1 X85.357 Y103.829 E0.76197
M106 S255
M140 S50 ; set bed temperature
G1 F6240.000
G1 X86.950 Y102.236 E-1.23500
G1 E-0.06500 F3600.00000
G1 Z0.550 F7800.000
G1 X94.345 Y94.345 F7800.000
G1 E1.30000 F3600.00000
G1 F1800.000
G1 X85.655 Y94.345 E0.45396
G1 X85.655 Y85.655 E0.45396
G1 X94.345 Y85.655 E0.45396
G1 X94.345 Y94.285 E0.45082
G1 X93.900 Y93.900 F7800.000
G1 F1800.000
G1 X86.100 Y93.900 E0.31322
G1 X86.100 Y86.100 E0.31322
G1 X93.900 Y86.100 E0.31322
G1 X93.900 Y93.840 E0.31081
G1 X94.004 Y94.286 F7800.000
G1 X104.335 Y104.335 F7800.000
G1 F2700.000
G1 X75.665 Y104.335 E1.49791
G1 X75.665 Y75.665 E1.49791
G1 X104.335 Y75.665 E1.49791
G1 X104.335 Y104.275 E1.49478
G1 X104.780 Y104.780 F7800.000
G1 F2430.000
G1 X75.220 Y104.780 E1.18702
G1 X75.220 Y75.220 E1.18702
G1 X104.780 Y75.220 E1.18702
G1 X104.780 Y104.720 E1.18461
G1 X104.394 Y104.676 F7800.000
G1 X85.918 Y94.900 F7800.000
G1 F2700.000
G1 X85.206 Y94.900 E0.03760
G1 X85.206 Y94.188 E0.03760
G1 X76.114 Y85.096 E0.67909
G1 X76.114 Y84.377 E0.03795
G1 X85.206 Y93.470 E0.67909
G1 X85.206 Y92.751 E0.03795
G1 X76.114 Y83.659 E0.67909
G1 X76.114 Y82.940 E0.03795
G1 X85.206 Y92.033 E0.67909
G1 X85.206 Y91.314 E0.03795
G1 X76.114 Y82.222 E0.67909
G1 X76.114 Y81.503 E0.03795
G1 X85.206 Y90.596 E0.67909
G1 X85.206 Y89.877 E0.03795
G1 X76.114 Y80.785 E0.67909
G1 X76.114 Y80.066 E0.03795
G1 X85.206 Y89.158 E0.67909
G1 X85.206 Y88.440 E0.03795
G1 X76.114 Y79.347 E0.67909
G1 X76.114 Y78.629 E0.03795
G1 X85.206 Y87.721 E0.67909
G1 X85.206 Y87.003 E0.03795
G1 X76.114 Y77.910 E0.67909
G1 X76.114 Y77.192 E0.03795
G1 X85.206 Y86.284 E0.67909
G1 X85.206 Y85.565 E0.03795
G1 X76.114 Y76.473 E0.67909
G1 X76.114 Y76.114 E0.01897
G1 X76.473 Y76.114 E0.01898
G1 X85.566 Y85.206 E0.67909
G1 X86.284 Y85.206 E0.03795
G1 X77.192 Y76.114 E0.67909
G1 X77.910 Y76.114 E0.03795
G1 X87.003 Y85.206 E0.67909
G1 X87.721 Y85.206 E0.03795
G1 X78.629 Y76.114 E0.67909
G1 X79.347 Y76.114 E0.03795
G1 X88.440 Y85.206 E0.67909
G1 X89.158 Y85.206 E0.03795
G1 X80.066 Y76.114 E0.67909
G1 X80.785 Y76.114 E0.03795
G1 X89.877 Y85.206 E0.67909
G1 X90.596 Y85.206 E0.03795
G1 X81.503 Y76.114 E0.67909
G1 X82.222 Y76.114 E0.03795
G1 X91.314 Y85.206 E0.67909
G1 X92.033 Y85.206 E0.03795
G1 X82.940 Y76.114 E0.67909
G1 X83.659 Y76.114 E0.03795
G1 X92.751 Y85.206 E0.67909
G1 X93.470 Y85.206 E0.03795
G1 X84.378 Y76.114 E0.67909
G1 X85.096 Y76.114 E0.03795
G1 X94.189 Y85.206 E0.67909
G1 X103.886 Y76.221 F7800.000
G1 F2700.000
G1 X103.779 Y76.114 E0.00797
G1 X103.061 Y76.114 E0.03795
G1 X103.886 Y76.939 E0.06164
G1 X103.886 Y77.658 E0.03795
G1 X102.342 Y76.114 E0.11531
G1 X101.624 Y76.114 E0.03795
G1 X103.886 Y78.376 E0.16898
G1 X103.886 Y79.095 E0.03795
G1 X100.905 Y76.114 E0.22265
G1 X100.186 Y76.114 E0.03795
G1 X103.886 Y79.814 E0.27632
G1 X103.886 Y80.532 E0.03795
G1 X99.468 Y76.114 E0.32999
G1 X98.749 Y76.114 E0.03795
G1 X103.886 Y81.251 E0.38366
G1 X103.886 Y81.969 E0.03795
G1 X98.031 Y76.114 E0.43733
G1 X97.312 Y76.114 E0.03795
G1 X103.886 Y82.688 E0.49100
G1 X103.886 Y83.406 E0.03795
G1 X96.594 Y76.114 E0.54467
G1 X95.875 Y76.114 E0.03795
G1 X103.886 Y84.125 E0.59834
G1 X103.886 Y84.844 E0.03795
G1 X95.156 Y76.114 E0.65201
G1 X94.438 Y76.114 E0.03795
G1 X103.886 Y85.562 E0.70568
G1 X103.886 Y86.281 E0.03795
G1 X93.719 Y76.114 E0.75935
G1 X93.001 Y76.114 E0.03795
G1 X103.886 Y86.999 E0.81302
G1 X103.886 Y87.718 E0.03795
G1 X92.282 Y76.114 E0.86669
G1 X91.563 Y76.114 E0.03795
G1 X103.886 Y88.437 E0.92036
G1 X103.886 Y89.155 E0.03795
G1 X90.845 Y76.114 E0.97403
G1 X90.126 Y76.114 E0.03795
G1 X103.886 Y89.874 E1.02770
G1 X103.886 Y90.592 E0.03795
G1 X89.408 Y76.114 E1.08137
G1 X88.689 Y76.114 E0.03795
G1 X103.886 Y91.311 E1.13504
G1 X103.886 Y92.029 E0.03795
G1 X87.971 Y76.114 E1.18871
G1 X87.252 Y76.114 E0.03795
G1 X103.886 Y92.748 E1.24238
G1 X103.886 Y93.467 E0.03795
G1 X86.533 Y76.114 E1.29605
G1 X85.815 Y76.114 E0.03795
G1 X103.886 Y94.185 E1.34972
G1 X103.886 Y94.904 E0.03795
G1 X94.794 Y85.811 E0.67909
G1 X94.794 Y86.530 E0.03795
G1 X103.886 Y95.622 E0.67909
G1 X103.886 Y96.341 E0.03795
G1 X94.794 Y87.249 E0.67909
G1 X94.794 Y87.967 E0.03795
G1 X103.886 Y97.060 E0.67909
G1 X103.886 Y97.778 E0.03795
G1 X94.794 Y88.686 E0.67909
G1 X94.794 Y89.404 E0.03795
G1 X103.886 Y98.497 E0.67909
G1 X103.886 Y99.215 E0.03795
G1 X94.794 Y90.123 E0.67909
G1 X94.794 Y90.842 E0.03795
G1 X103.886 Y99.934 E0.67909
G1 X103.886 Y100.653 E0.03795
G1 X94.794 Y91.560 E0.67909
G1 X94.794 Y92.279 E0.03795
G1 X103.886 Y101.371 E0.67909
G1 X103.886 Y102.090 E0.03795
G1 X94.794 Y92.997 E0.67909
G1 X94.794 Y93.716 E0.03795
G1 X103.886 Y102.808 E0.67909
G1 X103.886 Y103.527 E0.03795
G1 X94.794 Y94.434 E0.67909
G1 X94.794 Y94.794 E0.01898
G1 X94.435 Y94.794 E0.01897
G1 X103.527 Y103.886 E0.67909
G1 X102.808 Y103.886 E0.03795
G1 X93.716 Y94.794 E0.67909
G1 X92.997 Y94.794 E0.03795
G1 X102.090 Y103.886 E0.67909
G1 X101.371 Y103.886 E0.03795
G1 X92.279 Y94.794 E0.67909
G1 X91.560 Y94.794 E0.03795
G1 X100.653 Y103.886 E0.67909
G1 X99.934 Y103.886 E0.03795
G1 X90.842 Y94.794 E0.67909
G1 X90.123 Y94.794 E0.03795
G1 X99.215 Y103.886 E0.67909
G1 X98.497 Y103.886 E0.03795
G1 X89.404 Y94.794 E0.67909
G1 X88.686 Y94.794 E0.03795
G1 X97.778 Y103.886 E0.67909
G1 X97.060 Y103.886 E0.03795
G1 X87.967 Y94.794 E0.67909
G1 X87.249 Y94.794 E0.03795
G1 X96.341 Y103.886 E0.67909
G1 X95.622 Y103.886 E0.03795
G1 X86.530 Y94.794 E0.67909
G1 X85.812 Y94.794 E0.03795
G1 X94.904 Y103.886 E0.67909
G1 X94.185 Y103.886 E0.03795
G1 X76.114 Y85.815 E1.34973
G1 X76.114 Y86.533 E0.03795
G1 X93.467 Y103.886 E1.29606
G1 X92.748 Y103.886 E0.03795
G1 X76.114 Y87.252 E1.24239
G1 X76.114 Y87.970 E0.03795
G1 X92.030 Y103.886 E1.18872
G1 X91.311 Y103.886 E0.03795
G1 X76.114 Y88.689 E1.13505
G1 X76.114 Y89.408 E0.03795
G1 X90.592 Y103.886 E1.08138
G1 X89.874 Y103.886 E0.03795
G1 X76.114 Y90.126 E1.02771
G1 X76.114 Y90.845 E0.03795
G1 X89.155 Y103.886 E0.97404
G1 X88.437 Y103.886 E0.03795
G1 X76.114 Y91.563 E0.92037
G1 X76.114 Y92.282 E0.03795
G1 X87.718 Y103.886 E0.86670
G1 X86.999 Y103.886 E0.03795
G1 X76.114 Y93.001 E0.81303
