; generated by Slic3r 1.2.9 on 2020-05-13 at 11:58:30

; external perimeters extrusion width = 0.40mm
; perimeters extrusion width = 0.56mm
; infill extrusion width = 0.56mm
; solid infill extrusion width = 0.56mm
; top infill extrusion width = 0.56mm

M107
M190 S60 ; set bed temperature
M104 S215 ; set temperature
G28 ; home all axes
G92 E0.0 ; reset extruder
M109 S215 ; wait for temperature to be reached
G21 ; set units to millimeters
G90 ; use absolute coordinates
M83 ; use relative distances for extrusion
G1 E-1.30000 F3600.00000
G1 Z0.300 F7800.000
G1 X77.461 Y77.057 F7800.000
G1 E1.30000 F3600.00000
M204 S500
G1 X79.857 Y75.331 E0.17519 F2160.000
G1 X82.628 Y74.309 E0.17519
G1 X85.000 Y74.049 E0.14158
G1 X115.000 Y74.049 E1.77966
G1 X117.926 Y74.447 E0.17519
G1 X120.640 Y75.613 E0.17519 F2160.000
G1 X122.943 Y77.461 E0.17519
G1 X124.669 Y79.857 E0.17519
G1 X125.691 Y82.628 E0.17519
G1 X125.951 Y85.000 E0.14158
G1 X125.951 Y115.000 E1.77966
G1 X125.553 Y117.926 E0.17519
G1 X124.387 Y120.640 E0.17519
G1 X122.539 Y122.943 E0.17519
G1 X120.143 Y124.669 E0.17519
G1 X117.372 Y125.691 E0.17519
G1 X115.000 Y125.951 E0.14158
G1 X85.000 Y125.951 E1.77966
G1 X82.074 Y125.553 E0.17519
G1 X79.360 Y124.387 E0.17519
G1 X77.057 Y122.539 E0.17519
G1 X75.331 Y120.143 E0.17519
G1 X74.309 Y117.372 E0.17519
G1 X74.049 Y115.000 E0.14158
G1 X74.049 Y85.000 E1.77966
G1 X74.447 Y82.074 E0.17519
G1 X75.613 Y79.360 E0.17519
G1 X77.423 Y77.104 E0.17163
G1 X77.843 Y77.374 F7800.000
G1 X77.928 Y77.272 E0.00786 F2160.000
G1 X80.307 Y75.634 E0.17132
G1 X83.043 Y74.709 E0.17132
G1 X85.000 Y74.524 E0.11663
G1 X115.000 Y74.524 E1.77966
G1 X117.860 Y74.922 E0.17132
G1 X120.503 Y76.086 E0.17132 F2160.000
G1 X122.728 Y77.928 E0.17132
G1 X124.366 Y80.307 E0.17132
G1 X125.291 Y83.043 E0.17132
G1 X125.476 Y85.000 E0.11663
G1 X125.476 Y115.000 E1.77966
G1 X125.078 Y117.860 E0.17132
G1 X123.914 Y120.503 E0.17132
G1 X122.072 Y122.728 E0.17132
G1 X119.693 Y124.366 E0.17132
G1 X116.957 Y125.291 E0.17132
G1 X115.000 Y125.476 E0.11663
G1 X85.000 Y125.476 E1.77966
G1 X82.140 Y125.078 E0.17132
G1 X79.497 Y123.914 E0.17132
G1 X77.272 Y122.072 E0.17132
G1 X75.634 Y119.693 E0.17132
G1 X74.709 Y116.957 E0.17132
G1 X74.524 Y115.000 E0.11663
G1 X74.524 Y85.000 E1.77966
G1 X74.922 Y82.140 E0.17132
G1 X76.086 Y79.497 E0.17132
G1 X77.805 Y77.420 E0.15990
G1 F6240
G1 X77.928 Y77.272 E-0.10555
G1 F6240
G1 X79.625 Y76.103 E-1.12945
G1 E-0.06500 F3600.00000
G1 X104.426 Y104.426 F7800.000
G1 E1.30000 F3600.00000
G1 X95.574 Y104.426 E0.52507 F1080.000
G1 X95.574 Y95.574 E0.52507
G1 X104.426 Y95.574 E0.52507
G1 X104.426 Y104.366 E0.52151
G1 X103.950 Y103.950 F7800.000
G1 X96.050 Y103.950 E0.46864 F1080.000
G1 X96.050 Y96.050 E0.46864
G1 X103.950 Y96.050 E0.46864
G1 X103.950 Y103.890 E0.46508
G1 X103.950 Y104.350 F7800.000
G1 X114.254 Y114.254 F7800.000
G1 X85.746 Y114.254 E1.69119 F1620.000
G1 X85.746 Y85.746 E1.69119
G1 X114.254 Y85.746 E1.69119
G1 X114.254 Y114.194 E1.68763
G1 X114.730 Y114.730 F7800.000
G1 X85.270 Y114.730 E1.74762 F1458.000
G1 X85.270 Y85.270 E1.74762
G1 X114.730 Y85.270 E1.74762
G1 X114.730 Y114.670 E1.74406
G1 X114.384 Y114.530 F7800.000
G1 X113.971 Y86.271 F7800.000
G1 X113.729 Y86.029 E0.02037 F1620.000
G1 X113.054 Y86.029 E0.04026
G1 X113.971 Y86.946 E0.07731
G1 X113.971 Y87.622 E0.04026
G1 X112.378 Y86.029 E0.13424
G1 X111.702 Y86.029 E0.04026
G1 X113.971 Y88.298 E0.19117
G1 X113.971 Y88.973 E0.04026
G1 X111.027 Y86.029 E0.24810
G1 X110.351 Y86.029 E0.04026
G1 X113.971 Y89.649 E0.30503
G1 X113.971 Y90.324 E0.04026
G1 X109.676 Y86.029 E0.36197
G1 X109.000 Y86.029 E0.04026
G1 X113.971 Y91.000 E0.41890
G1 X113.971 Y91.676 E0.04026
G1 X108.324 Y86.029 E0.47583
G1 X107.649 Y86.029 E0.04026
G1 X113.971 Y92.351 E0.53276
G1 X113.971 Y93.027 E0.04026
G1 X106.973 Y86.029 E0.58969
G1 X106.297 Y86.029 E0.04026
G1 X113.971 Y93.703 E0.64663
G1 X113.971 Y94.378 E0.04026
G1 X105.622 Y86.029 E0.70356
G1 X104.946 Y86.029 E0.04026
G1 X113.971 Y95.054 E0.76049
G1 X113.971 Y95.729 E0.04026
G1 X104.271 Y86.029 E0.81742
G1 X103.595 Y86.029 E0.04026
G1 X113.971 Y96.405 E0.87435
G1 X113.971 Y97.081 E0.04026
G1 X102.919 Y86.029 E0.93129
G1 X102.244 Y86.029 E0.04026
G1 X113.971 Y97.756 E0.98822
G1 X113.971 Y98.432 E0.04026
G1 X101.568 Y86.029 E1.04515
G1 X100.893 Y86.029 E0.04026
G1 X113.971 Y99.107 E1.10208
G1 X113.971 Y99.783 E0.04026
G1 X100.217 Y86.029 E1.15901
G1 X99.541 Y86.029 E0.04026
G1 X113.971 Y100.459 E1.21594
G1 X113.971 Y101.134 E0.04026
G1 X98.866 Y86.029 E1.27288
G1 X98.190 Y86.029 E0.04026
G1 X113.971 Y101.810 E1.32981
G1 X113.971 Y102.486 E0.04026
G1 X97.514 Y86.029 E1.38674
G1 X96.839 Y86.029 E0.04026
G1 X113.971 Y103.161 E1.44367
G1 X113.971 Y103.837 E0.04026
G1 X96.163 Y86.029 E1.50060
G1 X95.488 Y86.029 E0.04026
G1 X113.971 Y104.512 E1.55754
G1 X113.971 Y105.188 E0.04026
G1 X104.709 Y95.926 E0.78048
G1 X104.709 Y96.602 E0.04026
G1 X113.971 Y105.864 E0.78048
G1 X113.971 Y106.539 E0.04026
G1 X104.709 Y97.277 E0.78048
G1 X104.709 Y97.953 E0.04026
G1 X113.971 Y107.215 E0.78048
G1 X113.971 Y107.890 E0.04026
G1 X104.709 Y98.628 E0.78048
G1 X104.709 Y99.304 E0.04026
G1 X113.971 Y108.566 E0.78048
G1 X113.971 Y109.242 E0.04026
G1 X104.709 Y99.980 E0.78048
G1 X104.709 Y100.655 E0.04026
G1 X113.971 Y109.917 E0.78048
G1 X113.971 Y110.593 E0.04026
G1 X104.709 Y101.331 E0.78048
G1 X104.709 Y102.007 E0.04026
G1 X113.971 Y111.269 E0.78048
G1 X113.971 Y111.944 E0.04026
G1 X104.709 Y102.682 E0.78048
G1 X104.709 Y103.358 E0.04026
G1 X113.971 Y112.620 E0.78048
G1 X113.971 Y113.295 E0.04026
G1 X104.709 Y104.033 E0.78048
G1 X104.709 Y104.709 E0.04026
G1 X113.951 Y113.951 E0.77880
G1 X113.295 Y113.971 E0.03908
G1 X104.033 Y104.709 E0.78048
G1 X103.358 Y104.709 E0.04026
G1 X112.620 Y113.971 E0.78048
G1 X111.944 Y113.971 E0.04026
G1 X102.682 Y104.709 E0.78048
G1 X102.006 Y104.709 E0.04026
G1 X111.269 Y113.971 E0.78048
G1 X110.593 Y113.971 E0.04026
G1 X101.331 Y104.709 E0.78048
G1 X100.655 Y104.709 E0.04026
G1 X109.917 Y113.971 E0.78048
G1 X109.242 Y113.971 E0.04026
G1 X99.980 Y104.709 E0.78048
G1 X99.304 Y104.709 E0.04026
G1 X108.566 Y113.971 E0.78048
G1 X107.890 Y113.971 E0.04026
G1 X98.628 Y104.709 E0.78048
G1 X97.953 Y104.709 E0.04026
G1 X107.215 Y113.971 E0.78048
G1 X106.539 Y113.971 E0.04026
G1 X97.277 Y104.709 E0.78048
G1 X96.602 Y104.709 E0.04026
G1 X105.864 Y113.971 E0.78048
G1 X105.188 Y113.971 E0.04026
G1 X95.926 Y104.709 E0.78048
G1 X95.291 Y104.750 E0.03791
G1 X86.029 Y95.488 E0.78048
G1 X86.029 Y96.163 E0.04026
G1 X103.837 Y113.971 E1.50060
G1 X104.512 Y113.971 E0.04026
G1 X95.250 Y104.709 E0.78048
G1 X95.291 Y104.074 E0.03791
G1 X86.029 Y94.812 E0.78048
G1 X86.029 Y94.136 E0.04026
G1 X95.291 Y103.398 E0.78048
G1 X95.291 Y102.723 E0.04026
G1 X86.029 Y93.461 E0.78048
G1 X86.029 Y92.785 E0.04026
G1 X95.291 Y102.047 E0.78048
G1 X95.291 Y101.372 E0.04026
G1 X86.029 Y92.110 E0.78048
G1 X86.029 Y91.434 E0.04026
G1 X95.291 Y100.696 E0.78048
G1 X95.291 Y100.020 E0.04026
G1 X86.029 Y90.758 E0.78048
G1 X86.029 Y90.083 E0.04026
G1 X95.291 Y99.345 E0.78048
G1 X95.291 Y98.669 E0.04026
G1 X86.029 Y89.407 E0.78048
G1 X86.029 Y88.731 E0.04026
G1 X95.291 Y97.994 E0.78048
G1 X95.291 Y97.318 E0.04026
G1 X86.029 Y88.056 E0.78048
G1 X86.029 Y87.380 E0.04026
G1 X95.291 Y96.642 E0.78048
G1 X95.291 Y95.967 E0.04026
G1 X86.029 Y86.705 E0.78048
G1 X86.049 Y86.049 E0.03908
G1 X95.291 Y95.291 E0.77880
G1 X95.967 Y95.291 E0.04026
G1 X86.705 Y86.029 E0.78048
G1 X87.380 Y86.029 E0.04026
G1 X96.642 Y95.291 E0.78048
G1 X97.318 Y95.291 E0.04026
G1 X88.056 Y86.029 E0.78048
G1 X88.731 Y86.029 E0.04026
G1 X97.993 Y95.291 E0.78048
G1 X98.669 Y95.291 E0.04026
G1 X89.407 Y86.029 E0.78048
G1 X90.083 Y86.029 E0.04026
G1 X99.345 Y95.291 E0.78048
G1 X100.020 Y95.291 E0.04026
G1 X90.758 Y86.029 E0.78048
G1 X91.434 Y86.029 E0.04026
G1 X100.696 Y95.291 E0.78048
G1 X101.372 Y95.291 E0.04026
G1 X92.110 Y86.029 E0.78048
G1 X92.785 Y86.029 E0.04026
G1 X102.047 Y95.291 E0.78048
G1 X102.723 Y95.291 E0.04026
G1 X93.461 Y86.029 E0.78048
G1 X94.136 Y86.029 E0.04026
G1 X103.398 Y95.291 E0.78048
G1 X104.074 Y95.291 E0.04026
G1 X94.812 Y86.029 E0.78048
G1 X86.029 Y96.839 F7800.000
G1 X103.161 Y113.971 E1.44367 F1620.000
G1 X102.486 Y113.971 E0.04026
G1 X86.029 Y97.514 E1.38674
G1 X86.029 Y98.190 E0.04026
G1 X101.810 Y113.971 E1.32980
G1 X101.134 Y113.971 E0.04026
G1 X86.029 Y98.866 E1.27287
G1 X86.029 Y99.541 E0.04026
G1 X100.459 Y113.971 E1.21594
G1 X99.783 Y113.971 E0.04026
G1 X86.029 Y100.217 E1.15901
G1 X86.029 Y100.893 E0.04026
G1 X99.107 Y113.971 E1.10208
G1 X98.432 Y113.971 E0.04026
G1 X86.029 Y101.568 E1.04514
G1 X86.029 Y102.244 E0.04026
G1 X97.756 Y113.971 E0.98821
G1 X97.081 Y113.971 E0.04026
G1 X86.029 Y102.919 E0.93128
G1 X86.029 Y103.595 E0.04026
G1 X96.405 Y113.971 E0.87435
G1 X95.729 Y113.971 E0.04026
G1 X86.029 Y104.271 E0.81742
G1 X86.029 Y104.946 E0.04026
G1 X95.054 Y113.971 E0.76048
G1 X94.378 Y113.971 E0.04026
G1 X86.029 Y105.622 E0.70355
G1 X86.029 Y106.298 E0.04026
G1 X93.702 Y113.971 E0.64662
G1 X93.027 Y113.971 E0.04026
G1 X86.029 Y106.973 E0.58969
G1 X86.029 Y107.649 E0.04026
G1 X92.351 Y113.971 E0.53276
G1 X91.676 Y113.971 E0.04026
G1 X86.029 Y108.324 E0.47583
G1 X86.029 Y109.000 E0.04026
G1 X91.000 Y113.971 E0.41889
G1 X90.324 Y113.971 E0.04026
G1 X86.029 Y109.676 E0.36196
G1 X86.029 Y110.351 E0.04026
G1 X89.649 Y113.971 E0.30503
G1 X88.973 Y113.971 E0.04026
G1 X86.029 Y111.027 E0.24810
G1 X86.029 Y111.702 E0.04026
G1 X88.298 Y113.971 E0.19117
G1 X87.622 Y113.971 E0.04026
G1 X86.029 Y112.378 E0.13423
G1 X86.029 Y113.054 E0.04026
G1 X86.946 Y113.971 E0.07730
G1 X86.271 Y113.971 E0.04026
G1 X86.029 Y113.729 E0.02037
M106 S255
M140 S50 ; wait for bed temperature to be reached
G1 F6240
G1 X86.271 Y113.971 E-0.18737
G1 F6240
G1 X86.946 Y113.971 E-0.37029
G1 F6240
G1 X86.072 Y113.097 E-0.67734
G1 E-0.06500 F3600.00000
G1 Z0.550 F7800.000
G1 X104.305 Y104.305 F7800.000
G1 E1.30000 F3600.00000
G1 X95.695 Y104.305 E0.44978 F1800.000
G1 X95.695 Y95.695 E0.44978
G1 X104.305 Y95.695 E0.44978
G1 X104.305 Y104.245 E0.44664
G1 X103.880 Y103.880 F7800.000
G1 X96.120 Y103.880 E0.27935 F1800.000
G1 X96.120 Y96.120 E0.27935
G1 X103.880 Y96.120 E0.27935
G1 X103.880 Y103.820 E0.27719
G1 X103.880 Y104.280 F7800.000
G1 X114.375 Y114.375 F7800.000
G1 X85.625 Y114.375 E1.50209 F2700.000
G1 X85.625 Y85.625 E1.50209
G1 X114.375 Y85.625 E1.50209
G1 X114.375 Y114.315 E1.49896
G1 X114.800 Y114.800 F7800.000
G1 X85.200 Y114.800 E1.06557 F2430.000
G1 X85.200 Y85.200 E1.06557
G1 X114.800 Y85.200 E1.06557
G1 X114.800 Y114.740 E1.06341
G1 X114.454 Y114.600 F7800.000
G1 X113.822 Y114.075 F7800.000
G1 X114.075 Y113.822 E0.01883 F2700.000
G1 X114.075 Y113.106 E0.03760
G1 X113.106 Y114.075 E0.07201
G1 X112.391 Y114.075 E0.03760
G1 X114.075 Y112.391 E0.12519
G1 X114.075 Y111.676 E0.03760
G1 X111.676 Y114.075 E0.17837
G1 X110.960 Y114.075 E0.03760
G1 X114.075 Y110.960 E0.23155
G1 X114.075 Y110.245 E0.03760
G1 X110.245 Y114.075 E0.28473
G1 X109.530 Y114.075 E0.03760
G1 X114.075 Y109.530 E0.33791
G1 X114.075 Y108.815 E0.03760
G1 X108.815 Y114.075 E0.39109
G1 X108.099 Y114.075 E0.03760
G1 X114.075 Y108.099 E0.44427
G1 X114.075 Y107.384 E0.03760
G1 X107.384 Y114.075 E0.49745
G1 X106.669 Y114.075 E0.03760
G1 X114.075 Y106.669 E0.55063
G1 X114.075 Y105.953 E0.03760
G1 X105.953 Y114.075 E0.60381
G1 X105.238 Y114.075 E0.03760
G1 X114.075 Y105.238 E0.65699
G1 X114.075 Y104.523 E0.03760
G1 X104.523 Y114.075 E0.71017
G1 X103.807 Y114.075 E0.03760
G1 X114.075 Y103.807 E0.76335
G1 X114.075 Y103.092 E0.03760
G1 X103.092 Y114.075 E0.81653
G1 X102.377 Y114.075 E0.03760
G1 X114.075 Y102.377 E0.86971
G1 X114.075 Y101.662 E0.03760
G1 X101.662 Y114.075 E0.92289
G1 X100.946 Y114.075 E0.03760
G1 X114.075 Y100.946 E0.97607
G1 X114.075 Y100.231 E0.03760
G1 X100.231 Y114.075 E1.02925
G1 X99.516 Y114.075 E0.03760
G1 X114.075 Y99.516 E1.08243
G1 X114.075 Y98.800 E0.03760
G1 X98.800 Y114.075 E1.13561
G1 X98.085 Y114.075 E0.03760
G1 X114.075 Y98.085 E1.18879
G1 X114.075 Y97.370 E0.03760
G1 X97.370 Y114.075 E1.24197
G1 X96.655 Y114.075 E0.03760
G1 X114.075 Y96.655 E1.29515
G1 X114.075 Y95.939 E0.03760
G1 X95.939 Y114.075 E1.34833
G1 X95.224 Y114.075 E0.03760
G1 X114.075 Y95.224 E1.40151
G1 X114.075 Y94.509 E0.03760
G1 X104.605 Y103.978 E0.70405
G1 X104.605 Y103.263 E0.03760
G1 X114.075 Y93.793 E0.70405
G1 X114.075 Y93.078 E0.03760
G1 X104.605 Y102.548 E0.70405
G1 X104.605 Y101.833 E0.03760
G1 X114.075 Y92.363 E0.70405
G1 X114.075 Y91.647 E0.03760
G1 X104.605 Y101.117 E0.70405
G1 X104.605 Y100.402 E0.03760
G1 X114.075 Y90.932 E0.70405
G1 X114.075 Y90.217 E0.03760
G1 X104.605 Y99.687 E0.70405
G1 X104.605 Y98.971 E0.03760
G1 X114.075 Y89.502 E0.70405
G1 X114.075 Y88.786 E0.03760
G1 X104.605 Y98.256 E0.70405
G1 X104.605 Y97.541 E0.03760
G1 X114.075 Y88.071 E0.70405
G1 X114.075 Y87.356 E0.03760
G1 X104.605 Y96.825 E0.70405
G1 X104.605 Y96.110 E0.03760
G1 X114.075 Y86.640 E0.70405
G1 X114.055 Y85.945 E0.03657
G1 X104.605 Y95.395 E0.70256
G1 X103.890 Y95.395 E0.03760
G1 X113.360 Y85.925 E0.70405
G1 X112.644 Y85.925 E0.03760
G1 X103.174 Y95.395 E0.70405
G1 X102.459 Y95.395 E0.03760
G1 X111.929 Y85.925 E0.70405
G1 X111.214 Y85.925 E0.03760
G1 X101.744 Y95.395 E0.70405
G1 X101.029 Y95.395 E0.03760
G1 X110.498 Y85.925 E0.70405
G1 X109.783 Y85.925 E0.03760
G1 X100.313 Y95.395 E0.70405
G1 X99.598 Y95.395 E0.03760
G1 X109.068 Y85.925 E0.70405
G1 X108.352 Y85.925 E0.03760
G1 X98.883 Y95.395 E0.70405
G1 X98.167 Y95.395 E0.03760
G1 X107.637 Y85.925 E0.70405
G1 X106.922 Y85.925 E0.03760
G1 X97.452 Y95.395 E0.70405
G1 X96.737 Y95.395 E0.03760
G1 X106.207 Y85.925 E0.70405
G1 X105.491 Y85.925 E0.03760
G1 X96.021 Y95.395 E0.70405
G1 X95.395 Y95.306 E0.03327
G1 X85.925 Y104.776 E0.70405
G1 X85.925 Y105.491 E0.03760
G1 X95.395 Y96.021 E0.70405
G1 X95.306 Y95.395 E0.03327
G1 X104.776 Y85.925 E0.70405
G1 X104.061 Y85.925 E0.03760
G1 X85.925 Y104.061 E1.34832
G1 X85.925 Y103.345 E0.03760
G1 X103.345 Y85.925 E1.29514
G1 X102.630 Y85.925 E0.03760
G1 X85.925 Y102.630 E1.24196
G1 X85.925 Y101.915 E0.03760
G1 X101.915 Y85.925 E1.18878
G1 X101.199 Y85.925 E0.03760
G1 X85.925 Y101.199 E1.13560
G1 X85.925 Y100.484 E0.03760
G1 X100.484 Y85.925 E1.08242
G1 X99.769 Y85.925 E0.03760
G1 X85.925 Y99.769 E1.02924
G1 X85.925 Y99.054 E0.03760
G1 X99.054 Y85.925 E0.97606
G1 X98.338 Y85.925 E0.03760
G1 X85.925 Y98.338 E0.92288
G1 X85.925 Y97.623 E0.03760
G1 X97.623 Y85.925 E0.86970
G1 X96.908 Y85.925 E0.03760
G1 X85.925 Y96.908 E0.81652
G1 X85.925 Y96.192 E0.03760
G1 X96.192 Y85.925 E0.76334
G1 X95.477 Y85.925 E0.03760
G1 X85.925 Y95.477 E0.71016
G1 X85.925 Y94.762 E0.03760
G1 X94.762 Y85.925 E0.65698
G1 X94.047 Y85.925 E0.03760
G1 X85.925 Y94.047 E0.60380
G1 X85.925 Y93.331 E0.03760
G1 X93.331 Y85.925 E0.55062
G1 X92.616 Y85.925 E0.03760
G1 X85.925 Y92.616 E0.49744
G1 X85.925 Y91.901 E0.03760
G1 X91.901 Y85.925 E0.44426
G1 X91.185 Y85.925 E0.03760
G1 X85.925 Y91.185 E0.39108
G1 X85.925 Y90.470 E0.03760
G1 X90.470 Y85.925 E0.33790
G1 X89.755 Y85.925 E0.03760
G1 X85.925 Y89.755 E0.28472
G1 X85.925 Y89.039 E0.03760
G1 X89.039 Y85.925 E0.23154
G1 X88.324 Y85.925 E0.03760
G1 X85.925 Y88.324 E0.17836
G1 X85.925 Y87.609 E0.03760
G1 X87.609 Y85.925 E0.12518
G1 X86.894 Y85.925 E0.03760
G1 X85.925 Y86.894 E0.07200
G1 X85.925 Y86.178 E0.03760
G1 X86.178 Y85.925 E0.01882
G1 X95.395 Y96.737 F7800.000
G1 X85.925 Y106.207 E0.70405 F2700.000
G1 X85.925 Y106.922 E0.03760
G1 X95.395 Y97.452 E0.70405
G1 X95.395 Y98.167 E0.03760
G1 X85.925 Y107.637 E0.70405
G1 X85.925 Y108.352 E0.03760
G1 X95.395 Y98.883 E0.70405
G1 X95.395 Y99.598 E0.03760
G1 X85.925 Y109.068 E0.70405
G1 X85.925 Y109.783 E0.03760
G1 X95.395 Y100.313 E0.70405
G1 X95.395 Y101.029 E0.03760
G1 X85.925 Y110.498 E0.70405
G1 X85.925 Y111.214 E0.03760
G1 X95.395 Y101.744 E0.70405
G1 X95.395 Y102.459 E0.03760
G1 X85.925 Y111.929 E0.70405
G1 X85.925 Y112.644 E0.03760
G1 X95.395 Y103.174 E0.70405
G1 X95.395 Y103.890 E0.03760
G1 X85.925 Y113.360 E0.70405
G1 X85.945 Y114.055 E0.03657
G1 X95.395 Y104.605 E0.70256
G1 X96.110 Y104.605 E0.03760
