; generated by Slic3r 1.2.9 on 2020-05-14 at 22:51:24

; external perimeters extrusion width = 0.40mm
; perimeters extrusion width = 0.56mm
; infill extrusion width = 0.56mm
; solid infill extrusion width = 0.56mm
; top infill extrusion width = 0.56mm

M107
M190 S60 ; set bed temperature
M104 S215 ; set temperature
G28 ; home all axes
G92 E0.0 ; reset extruder
M109 S215 ; wait for temperature to be reached
G21 ; set units to millimeters
G90 ; use absolute coordinates
M83 ; use relative distances for extrusion
G1 E-1.30000 F3600.00000
G1 Z0.300 F7800.000
G1 X81.122 Y75.088 F7800.000
G1 E1.30000 F3600.00000
M204 S500
G1 X83.158 Y72.949 E0.17519 F2160.000
G1 X85.692 Y71.432 E0.17519
G1 X90.000 Y70.549 E0.26089
G1 X109.000 Y70.549 E1.12712
G1 X111.926 Y70.947 E0.17519
G1 X114.640 Y72.113 E0.17519 F2160.000
G1 X116.943 Y73.961 E0.17519
G1 X118.287 Y75.696 E0.13019
G1 X130.787 Y95.696 E1.39910
G1 X132.000 Y98.388 E0.17519
G1 X132.451 Y101.500 E0.18653
G1 X132.451 Y116.500 E0.88983
G1 X132.053 Y119.426 E0.17519
G1 X130.887 Y122.140 E0.17519
G1 X129.039 Y124.443 E0.17519
G1 X126.643 Y126.169 E0.17519
G1 X122.646 Y127.391 E0.24792
G1 X103.646 Y129.391 E1.13334
G1 X102.500 Y129.451 E0.06810
G1 X94.500 Y129.451 E0.47458
G1 X93.142 Y129.367 E0.08073
G1 X77.142 Y127.367 E0.95654
G1 X74.287 Y126.609 E0.17519
G1 X71.740 Y125.116 E0.17519
G1 X69.683 Y122.996 E0.17519
G1 X68.268 Y120.404 E0.17519
G1 X67.549 Y116.500 E0.23549
G1 X67.549 Y101.500 E0.88983
G1 X67.947 Y98.574 E0.17519
G1 X68.530 Y96.968 E0.10133
G1 X73.530 Y85.968 E0.71679
G1 X74.622 Y84.088 E0.12897
G1 X81.087 Y75.137 E0.65502
G1 X81.508 Y75.367 F7800.000
G1 X83.505 Y73.281 E0.17132 F2160.000
G1 X85.996 Y71.820 E0.17132
G1 X90.000 Y71.024 E0.24215
G1 X109.000 Y71.024 E1.12712
G1 X111.860 Y71.422 E0.17132
G1 X114.503 Y72.586 E0.17132 F2160.000
G1 X116.728 Y74.428 E0.17132
G1 X117.883 Y75.948 E0.11325
G1 X130.383 Y95.948 E1.39910
G1 X131.562 Y98.585 E0.17132
G1 X131.976 Y101.500 E0.17468
G1 X131.976 Y116.500 E0.88983
G1 X131.578 Y119.360 E0.17132
G1 X130.414 Y122.003 E0.17132
G1 X128.572 Y124.228 E0.17132
G1 X126.193 Y125.866 E0.17132
G1 X122.597 Y126.918 E0.22230
G1 X103.597 Y128.918 E1.13334
G1 X102.500 Y128.976 E0.06514
G1 X94.500 Y128.976 E0.47458
G1 X93.201 Y128.895 E0.07723
G1 X77.201 Y126.895 E0.95654
G1 X74.412 Y126.145 E0.17132
G1 X71.933 Y124.662 E0.17132
G1 X69.954 Y122.559 E0.17132
G1 X68.625 Y119.995 E0.17132
G1 X68.024 Y116.500 E0.21038
G1 X68.024 Y101.500 E0.88983
G1 X68.422 Y98.640 E0.17132
G1 X68.963 Y97.165 E0.09316
G1 X73.963 Y86.165 E0.71679
G1 X75.008 Y84.367 E0.12337
G1 X81.473 Y75.415 E0.65502
G1 F6240
G1 X83.026 Y73.783 E-1.23500
G1 E-0.06500 F3600.00000
G1 X120.270 Y106.670 F7800.000
G1 E1.30000 F3600.00000
G1 X79.730 Y106.670 E2.40491 F1458.000
G1 X79.730 Y104.230 E0.14475
G1 X120.270 Y104.230 E2.40491
G1 X120.270 Y106.610 E0.14119
G1 X120.270 Y107.070 F7800.000
G1 X120.754 Y103.754 F7800.000
G1 X79.246 Y103.754 E2.46238 F1620.000
G1 X79.246 Y102.246 E0.08950
G1 X120.754 Y102.246 E2.46238
G1 X120.754 Y103.694 E0.08594
G1 F6240
G1 X118.501 Y103.698 E-1.23500
G1 E-0.06500 F3600.00000
G1 X101.754 Y115.754 F7800.000
G1 E1.30000 F3600.00000
G1 X101.754 Y117.754 E0.11864 F1620.000
G1 X95.246 Y117.754 E0.38611
G1 X95.246 Y115.754 E0.11864
G1 X79.246 Y115.754 E0.94915
G1 X79.246 Y107.146 E0.51069
G1 X120.754 Y107.146 E2.46238
G1 X120.754 Y115.754 E0.51069
G1 X101.814 Y115.754 E1.12356
G1 X102.230 Y116.230 F7800.000
G1 X102.230 Y118.230 E0.11864 F1458.000
G1 X94.770 Y118.230 E0.44254
G1 X94.770 Y116.230 E0.11864
G1 X78.770 Y116.230 E0.94915
G1 X78.770 Y101.770 E0.85779
G1 X121.230 Y101.770 E2.51881
G1 X121.230 Y116.230 E0.85779
G1 X102.290 Y116.230 E1.12356
G1 X101.830 Y116.230 F7800.000
G1 X95.917 Y117.471 F7800.000
G1 X95.529 Y117.083 E0.03258 F1620.000
G1 X95.529 Y116.410 E0.04002
G1 X96.590 Y117.471 E0.08917
G1 X97.264 Y117.471 E0.04002
G1 X95.529 Y115.736 E0.14577
G1 X95.264 Y115.471 F7800.000
G1 X87.222 Y107.429 E0.67567 F1620.000
G1 X87.896 Y107.429 E0.04002
G1 X97.938 Y117.471 E0.84371
G1 X98.611 Y117.471 E0.04002
G1 X88.569 Y107.429 E0.84371
G1 X89.243 Y107.429 E0.04002
G1 X99.285 Y117.471 E0.84371
G1 X99.958 Y117.471 E0.04002
G1 X89.916 Y107.429 E0.84371
G1 X90.590 Y107.429 E0.04002
G1 X100.632 Y117.471 E0.84371
G1 X101.306 Y117.471 E0.04002
G1 X91.264 Y107.429 E0.84371
G1 X91.937 Y107.429 E0.04002
G1 X101.471 Y116.963 E0.80100
G1 X101.471 Y116.289 E0.04002
G1 X92.611 Y107.429 E0.74441
G1 X93.284 Y107.429 E0.04002
G1 X101.471 Y115.616 E0.68781
G1 X102.000 Y115.471 E0.03259
G1 X93.958 Y107.429 E0.67567
G1 X94.632 Y107.429 E0.04002
G1 X102.674 Y115.471 E0.67567
G1 X103.347 Y115.471 E0.04002
G1 X95.305 Y107.429 E0.67567
G1 X95.979 Y107.429 E0.04002
G1 X104.021 Y115.471 E0.67567
G1 X104.695 Y115.471 E0.04002
G1 X96.653 Y107.429 E0.67567
G1 X97.326 Y107.429 E0.04002
G1 X105.368 Y115.471 E0.67567
G1 X106.042 Y115.471 E0.04002
G1 X98.000 Y107.429 E0.67567
G1 X98.673 Y107.429 E0.04002
G1 X106.715 Y115.471 E0.67567
G1 X107.389 Y115.471 E0.04002
G1 X99.347 Y107.429 E0.67567
G1 X100.021 Y107.429 E0.04002
G1 X108.063 Y115.471 E0.67567
G1 X108.736 Y115.471 E0.04002
G1 X100.694 Y107.429 E0.67567
G1 X101.368 Y107.429 E0.04002
G1 X109.410 Y115.471 E0.67567
G1 X110.084 Y115.471 E0.04002
G1 X102.042 Y107.429 E0.67567
G1 X102.715 Y107.429 E0.04002
G1 X110.757 Y115.471 E0.67567
G1 X111.431 Y115.471 E0.04002
G1 X103.389 Y107.429 E0.67567
G1 X104.062 Y107.429 E0.04002
G1 X112.104 Y115.471 E0.67567
G1 X112.778 Y115.471 E0.04002
G1 X104.736 Y107.429 E0.67567
G1 X105.410 Y107.429 E0.04002
G1 X113.452 Y115.471 E0.67567
G1 X114.125 Y115.471 E0.04002
G1 X106.083 Y107.429 E0.67567
G1 X106.757 Y107.429 E0.04002
G1 X114.799 Y115.471 E0.67567
G1 X115.473 Y115.471 E0.04002
G1 X107.430 Y107.429 E0.67567
G1 X108.104 Y107.429 E0.04002
G1 X116.146 Y115.471 E0.67567
G1 X116.820 Y115.471 E0.04002
G1 X108.778 Y107.429 E0.67567
G1 X109.451 Y107.429 E0.04002
G1 X117.493 Y115.471 E0.67567
G1 X118.167 Y115.471 E0.04002
G1 X110.125 Y107.429 E0.67567
G1 X110.799 Y107.429 E0.04002
G1 X118.841 Y115.471 E0.67567
G1 X119.514 Y115.471 E0.04002
G1 X111.472 Y107.429 E0.67567
G1 X112.146 Y107.429 E0.04002
G1 X120.188 Y115.471 E0.67567
G1 X120.471 Y115.081 E0.02865
G1 X112.819 Y107.429 E0.64287
G1 X113.493 Y107.429 E0.04002
G1 X120.471 Y114.407 E0.58627
G1 X120.471 Y113.733 E0.04002
G1 X114.167 Y107.429 E0.52968
G1 X114.840 Y107.429 E0.04002
G1 X120.471 Y113.060 E0.47308
G1 X120.471 Y112.386 E0.04002
G1 X115.514 Y107.429 E0.41648
G1 X116.188 Y107.429 E0.04002
G1 X120.471 Y111.712 E0.35989
G1 X120.471 Y111.039 E0.04002
G1 X116.861 Y107.429 E0.30329
G1 X117.535 Y107.429 E0.04002
G1 X120.471 Y110.365 E0.24670
G1 X120.471 Y109.692 E0.04002
G1 X118.208 Y107.429 E0.19010
G1 X118.882 Y107.429 E0.04002
G1 X120.471 Y109.018 E0.13351
G1 X120.471 Y108.344 E0.04002
G1 X119.556 Y107.429 E0.07691
G1 X120.229 Y107.429 E0.04002
G1 X120.471 Y107.671 E0.02031
G1 X94.590 Y115.471 F7800.000
G1 X86.548 Y107.429 E0.67567 F1620.000
G1 X85.875 Y107.429 E0.04002
G1 X93.917 Y115.471 E0.67567
G1 X93.243 Y115.471 E0.04002
G1 X85.201 Y107.429 E0.67567
G1 X84.527 Y107.429 E0.04002
G1 X92.569 Y115.471 E0.67567
G1 X91.896 Y115.471 E0.04002
G1 X83.854 Y107.429 E0.67567
G1 X83.180 Y107.429 E0.04002
G1 X91.222 Y115.471 E0.67567
G1 X90.549 Y115.471 E0.04002
G1 X82.507 Y107.429 E0.67567
G1 X81.833 Y107.429 E0.04002
G1 X89.875 Y115.471 E0.67567
G1 X89.201 Y115.471 E0.04002
G1 X81.159 Y107.429 E0.67567
G1 X80.486 Y107.429 E0.04002
G1 X88.528 Y115.471 E0.67567
G1 X87.854 Y115.471 E0.04002
G1 X79.812 Y107.429 E0.67567
G1 X79.529 Y107.819 E0.02866
G1 X87.181 Y115.471 E0.64286
G1 X86.507 Y115.471 E0.04002
G1 X79.529 Y108.493 E0.58627
G1 X79.529 Y109.167 E0.04002
G1 X85.833 Y115.471 E0.52967
G1 X85.160 Y115.471 E0.04002
G1 X79.529 Y109.840 E0.47308
G1 X79.529 Y110.514 E0.04002
G1 X84.486 Y115.471 E0.41648
G1 X83.812 Y115.471 E0.04002
G1 X79.529 Y111.188 E0.35988
G1 X79.529 Y111.861 E0.04002
G1 X83.139 Y115.471 E0.30329
G1 X82.465 Y115.471 E0.04002
G1 X79.529 Y112.535 E0.24669
G1 X79.529 Y113.208 E0.04002
G1 X81.792 Y115.471 E0.19010
G1 X81.118 Y115.471 E0.04002
G1 X79.529 Y113.882 E0.13350
G1 X79.529 Y114.556 E0.04002
G1 X80.444 Y115.471 E0.07691
G1 X79.771 Y115.471 E0.04002
G1 X79.529 Y115.229 E0.02031
G1 X79.250 Y106.908 F7800.000
G1 X79.250 Y103.992 E0.36933 F360.000
G1 X79.771 Y103.471 F7800.000
G1 X79.529 Y103.229 E0.02046 F1620.000
G1 X79.538 Y102.560 E0.04008
G1 X80.449 Y103.471 E0.07714
G1 X81.128 Y103.471 E0.04062
G1 X80.186 Y102.529 E0.07974
G1 X80.865 Y102.529 E0.04062
G1 X81.807 Y103.471 E0.07974
G1 X82.486 Y103.471 E0.04062
G1 X81.543 Y102.529 E0.07974
G1 X82.222 Y102.529 E0.04062
G1 X83.164 Y103.471 E0.07974
G1 X83.843 Y103.471 E0.04062
G1 X82.901 Y102.529 E0.07974
G1 X83.580 Y102.529 E0.04062
G1 X84.522 Y103.471 E0.07974
G1 X85.200 Y103.471 E0.04062
G1 X84.258 Y102.529 E0.07974
G1 X84.937 Y102.529 E0.04062
G1 X85.879 Y103.471 E0.07974
G1 X86.558 Y103.471 E0.04062
G1 X85.616 Y102.529 E0.07974
G1 X86.294 Y102.529 E0.04062
G1 X87.236 Y103.471 E0.07974
G1 X87.915 Y103.471 E0.04063
G1 X86.973 Y102.529 E0.07974
G1 X87.652 Y102.529 E0.04062
G1 X88.594 Y103.471 E0.07974
G1 X89.272 Y103.471 E0.04062
G1 X88.330 Y102.529 E0.07974
G1 X89.009 Y102.529 E0.04062
G1 X89.951 Y103.471 E0.07974
G1 X90.630 Y103.471 E0.04062
G1 X89.688 Y102.529 E0.07974
G1 X90.367 Y102.529 E0.04062
G1 X91.309 Y103.471 E0.07974
G1 X91.987 Y103.471 E0.04062
G1 X91.045 Y102.529 E0.07974
G1 X91.724 Y102.529 E0.04062
G1 X92.666 Y103.471 E0.07974
G1 X93.345 Y103.471 E0.04062
G1 X92.403 Y102.529 E0.07974
G1 X93.081 Y102.529 E0.04062
G1 X94.023 Y103.471 E0.07974
G1 X94.702 Y103.471 E0.04062
G1 X93.760 Y102.529 E0.07974
G1 X94.439 Y102.529 E0.04062
G1 X95.381 Y103.471 E0.07974
G1 X96.059 Y103.471 E0.04062
G1 X95.117 Y102.529 E0.07974
G1 X95.796 Y102.529 E0.04062
G1 X96.738 Y103.471 E0.07974
G1 X97.417 Y103.471 E0.04062
G1 X96.475 Y102.529 E0.07974
G1 X97.154 Y102.529 E0.04062
G1 X98.096 Y103.471 E0.07974
G1 X98.774 Y103.471 E0.04062
G1 X97.832 Y102.529 E0.07974
G1 X98.511 Y102.529 E0.04062
G1 X99.453 Y103.471 E0.07974
G1 X100.132 Y103.471 E0.04063
G1 X99.190 Y102.529 E0.07974
G1 X99.868 Y102.529 E0.04062
G1 X100.810 Y103.471 E0.07974
G1 X101.489 Y103.471 E0.04062
G1 X100.547 Y102.529 E0.07974
G1 X101.226 Y102.529 E0.04062
G1 X102.168 Y103.471 E0.07974
G1 X102.846 Y103.471 E0.04062
G1 X101.904 Y102.529 E0.07974
G1 X102.583 Y102.529 E0.04062
G1 X103.525 Y103.471 E0.07974
G1 X104.204 Y103.471 E0.04062
G1 X103.262 Y102.529 E0.07974
G1 X103.940 Y102.529 E0.04062
G1 X104.883 Y103.471 E0.07974
G1 X105.561 Y103.471 E0.04062
G1 X104.619 Y102.529 E0.07974
G1 X105.298 Y102.529 E0.04062
G1 X106.240 Y103.471 E0.07974
G1 X106.919 Y103.471 E0.04062
G1 X105.977 Y102.529 E0.07974
G1 X106.655 Y102.529 E0.04062
G1 X107.597 Y103.471 E0.07974
G1 X108.276 Y103.471 E0.04062
G1 X107.334 Y102.529 E0.07974
G1 X108.013 Y102.529 E0.04062
G1 X108.955 Y103.471 E0.07974
G1 X109.633 Y103.471 E0.04062
G1 X108.691 Y102.529 E0.07974
G1 X109.370 Y102.529 E0.04062
G1 X110.312 Y103.471 E0.07974
G1 X110.991 Y103.471 E0.04062
G1 X110.049 Y102.529 E0.07974
G1 X110.727 Y102.529 E0.04062
G1 X111.670 Y103.471 E0.07974
G1 X112.348 Y103.471 E0.04062
G1 X111.406 Y102.529 E0.07974
G1 X112.085 Y102.529 E0.04062
G1 X113.027 Y103.471 E0.07974
G1 X113.706 Y103.471 E0.04062
G1 X112.764 Y102.529 E0.07974
G1 X113.442 Y102.529 E0.04062
G1 X114.384 Y103.471 E0.07974
G1 X115.063 Y103.471 E0.04062
G1 X114.121 Y102.529 E0.07974
G1 X114.800 Y102.529 E0.04062
G1 X115.742 Y103.471 E0.07974
G1 X116.420 Y103.471 E0.04062
G1 X115.478 Y102.529 E0.07974
G1 X116.157 Y102.529 E0.04062
G1 X117.099 Y103.471 E0.07974
G1 X117.778 Y103.471 E0.04062
G1 X116.836 Y102.529 E0.07974
G1 X117.514 Y102.529 E0.04062
G1 X118.456 Y103.471 E0.07974
G1 X119.135 Y103.471 E0.04062
G1 X118.193 Y102.529 E0.07974
G1 X118.872 Y102.529 E0.04062
G1 X119.814 Y103.471 E0.07974
G1 X120.462 Y103.440 E0.03883
G1 X119.551 Y102.529 E0.07714
G1 X120.229 Y102.529 E0.04062
G1 X120.471 Y102.771 E0.02047
G1 X120.750 Y103.992 F7800.000
G1 X120.750 Y106.908 E0.36933 F360.000
G1 F6240
G1 X120.750 Y104.654 E-1.23500
G1 E-0.06500 F3600.00000
G1 X101.754 Y95.754 F7800.000
G1 E1.30000 F3600.00000
G1 X101.754 Y97.754 E0.11864 F1620.000
G1 X95.246 Y97.754 E0.38611
G1 X95.246 Y95.754 E0.11864
G1 X84.246 Y95.754 E0.65254
G1 X84.246 Y91.246 E0.26747
G1 X90.746 Y91.246 E0.38559
G1 X90.746 Y82.246 E0.53390
G1 X108.254 Y82.246 E1.03865
G1 X108.254 Y91.246 E0.53390
G1 X112.754 Y91.246 E0.26695
G1 X112.754 Y95.754 E0.26747
G1 X101.814 Y95.754 E0.64898
G1 X102.230 Y96.230 F7800.000
G1 X102.230 Y98.230 E0.11864 F1458.000
G1 X94.770 Y98.230 E0.44254
G1 X94.770 Y96.230 E0.11864
G1 X83.770 Y96.230 E0.65254
G1 X83.770 Y90.770 E0.32390
G1 X90.270 Y90.770 E0.38559
G1 X90.270 Y81.770 E0.53390
G1 X108.730 Y81.770 E1.09508
G1 X108.730 Y90.770 E0.53390
G1 X113.230 Y90.770 E0.26695
G1 X113.230 Y96.230 E0.32390
G1 X102.290 Y96.230 E0.64898
G1 X101.830 Y96.230 F7800.000
G1 X96.254 Y97.471 F7800.000
G1 X95.529 Y96.746 E0.06124 F1620.000
G1 X95.529 Y96.069 E0.04047
G1 X96.931 Y97.471 E0.11847
G1 X97.609 Y97.471 E0.04047
G1 X91.029 Y90.891 E0.55588
G1 X91.029 Y90.214 E0.04047
G1 X98.286 Y97.471 E0.61311
G1 X98.963 Y97.471 E0.04047
G1 X91.029 Y89.537 E0.67034
G1 X91.029 Y88.859 E0.04047
G1 X99.641 Y97.471 E0.72757
G1 X100.318 Y97.471 E0.04047
G1 X91.029 Y88.182 E0.78479
G1 X91.029 Y87.505 E0.04047
G1 X100.995 Y97.471 E0.84202
G1 X101.471 Y97.269 E0.03086
G1 X91.029 Y86.827 E0.88220
G1 X91.029 Y86.150 E0.04047
G1 X101.471 Y96.592 E0.88220
G1 X101.471 Y95.914 E0.04047
G1 X91.029 Y85.472 E0.88220
G1 X91.029 Y84.795 E0.04047
G1 X101.705 Y95.471 E0.90196
G1 X102.382 Y95.471 E0.04047
G1 X91.029 Y84.118 E0.95919
G1 X91.029 Y83.440 E0.04047
G1 X103.060 Y95.471 E1.01642
G1 X103.737 Y95.471 E0.04047
G1 X91.029 Y82.763 E1.07364
G1 X91.472 Y82.529 E0.02995
G1 X104.414 Y95.471 E1.09341
G1 X105.092 Y95.471 E0.04047
G1 X92.150 Y82.529 E1.09341
G1 X92.827 Y82.529 E0.04047
G1 X105.769 Y95.471 E1.09341
G1 X106.447 Y95.471 E0.04047
G1 X93.504 Y82.529 E1.09341
G1 X94.182 Y82.529 E0.04047
G1 X107.124 Y95.471 E1.09341
G1 X107.801 Y95.471 E0.04047
G1 X94.859 Y82.529 E1.09341
G1 X95.537 Y82.529 E0.04047
G1 X108.479 Y95.471 E1.09341
G1 X109.156 Y95.471 E0.04047
G1 X96.214 Y82.529 E1.09341
G1 X96.891 Y82.529 E0.04047
G1 X109.833 Y95.471 E1.09341
G1 X110.511 Y95.471 E0.04047
G1 X97.569 Y82.529 E1.09341
G1 X98.246 Y82.529 E0.04047
G1 X111.188 Y95.471 E1.09341
G1 X112.471 Y92.012 F7800.000
G1 X111.988 Y91.529 E0.04084 F1620.000
G1 X111.310 Y91.529 E0.04047
G1 X112.471 Y92.690 E0.09806
G1 X112.471 Y93.367 E0.04047
G1 X110.633 Y91.529 E0.15529
G1 X109.956 Y91.529 E0.04047
G1 X112.471 Y94.044 E0.21252
G1 X112.471 Y94.722 E0.04047
G1 X109.278 Y91.529 E0.26975
G1 X108.601 Y91.529 E0.04047
G1 X112.471 Y95.399 E0.32698
G1 X111.865 Y95.471 E0.03643
G1 X98.923 Y82.529 E1.09341
G1 X99.601 Y82.529 E0.04047
G1 X107.971 Y90.899 E0.70716
G1 X107.971 Y90.222 E0.04047
G1 X100.278 Y82.529 E0.64993
G1 X100.956 Y82.529 E0.04047
G1 X107.971 Y89.544 E0.59270
G1 X107.971 Y88.867 E0.04047
G1 X101.633 Y82.529 E0.53548
G1 X102.310 Y82.529 E0.04047
G1 X107.971 Y88.190 E0.47825
G1 X107.971 Y87.512 E0.04047
G1 X102.988 Y82.529 E0.42102
G1 X103.665 Y82.529 E0.04047
G1 X107.971 Y86.835 E0.36379
G1 X107.971 Y86.158 E0.04047
G1 X104.342 Y82.529 E0.30657
G1 X105.020 Y82.529 E0.04047
G1 X107.971 Y85.480 E0.24934
G1 X107.971 Y84.803 E0.04047
G1 X105.697 Y82.529 E0.19211
G1 X106.374 Y82.529 E0.04047
G1 X107.971 Y84.126 E0.13488
G1 X107.971 Y83.448 E0.04047
G1 X107.052 Y82.529 E0.07766
G1 X107.729 Y82.529 E0.04047
G1 X107.971 Y82.771 E0.02043
G1 X94.931 Y95.471 F7800.000
G1 X90.989 Y91.529 E0.33304 F1620.000
G1 X90.312 Y91.529 E0.04047
G1 X94.254 Y95.471 E0.33304
G1 X93.577 Y95.471 E0.04047
G1 X89.634 Y91.529 E0.33304
G1 X88.957 Y91.529 E0.04047
G1 X92.899 Y95.471 E0.33304
G1 X92.222 Y95.471 E0.04047
G1 X88.280 Y91.529 E0.33304
G1 X87.602 Y91.529 E0.04047
G1 X91.544 Y95.471 E0.33304
G1 X90.867 Y95.471 E0.04047
G1 X86.925 Y91.529 E0.33304
