; generated by Slic3r 1.3.1-dev (Build 2d100c4) on 2020-05-15 at 06:24:12

; external perimeters extrusion width = 0.44mm (3.91mm^3/s)
; perimeters extrusion width = 0.56mm (5.65mm^3/s)
; infill extrusion width = 0.50mm (5.02mm^3/s)
; solid infill extrusion width = 0.56mm (5.65mm^3/s)
; top infill extrusion width = 0.56mm (5.65mm^3/s)

M107
M190 S60 ; set bed temperature and wait for it to be reached
M104 S215 ; set temperature
G28 ; home all axes
G92 E0.0 ; reset extruder
; Filament gcode

M109 S215 ; set temperature and wait for it to be reached
G21 ; set units to millimeters
G90 ; use absolute coordinates
M83 ; use relative distances for extrusion
G1 E-1.30000 F3600.00000
G1 Z0.300 F7800.000
G1 X71.122 Y65.088 F7800.000
G1 E1.30000 F3600.00000
M201 X500 Y500
M204 P500 T500
G1 F2160.000
G1 X73.158 Y62.949 E0.17519
G1 X75.692 Y61.432 E0.17519
G1 X80.000 Y60.549 E0.26089
G1 X99.000 Y60.549 E1.12712
G1 X101.926 Y60.947 E0.17519
G1 X104.640 Y62.113 E0.17519
G1 X106.943 Y63.961 E0.17519
G1 X108.287 Y65.696 E0.13019
G1 X120.787 Y85.696 E1.39910
G1 X122.000 Y88.388 E0.17519
G1 X122.451 Y91.500 E0.18653
G1 X122.451 Y106.500 E0.88983
G1 X122.053 Y109.426 E0.17519
G1 X120.887 Y112.140 E0.17519
G1 X119.039 Y114.443 E0.17519
G1 X116.643 Y116.169 E0.17519
G1 X112.646 Y117.391 E0.24792
G1 X93.646 Y119.391 E1.13334
G1 X92.500 Y119.451 E0.06810
G1 X84.500 Y119.451 E0.47458
G1 X83.142 Y119.367 E0.08073
G1 X67.142 Y117.367 E0.95654
G1 X64.287 Y116.609 E0.17519
G1 X61.740 Y115.116 E0.17519
G1 X59.683 Y112.996 E0.17519
G1 X58.268 Y110.404 E0.17519
G1 X57.549 Y106.500 E0.23549
G1 X57.549 Y91.500 E0.88983
G1 X57.947 Y88.574 E0.17519
G1 X58.530 Y86.968 E0.10133
G1 X63.530 Y75.968 E0.71679
G1 X64.622 Y74.088 E0.12897
G1 X71.087 Y65.137 E0.65502
G1 X71.508 Y65.367 F7800.000
G1 F2160.000
G1 X73.505 Y63.281 E0.17132
G1 X75.996 Y61.820 E0.17132
G1 X80.000 Y61.024 E0.24215
G1 X99.000 Y61.024 E1.12712
G1 X101.860 Y61.422 E0.17132
G1 X104.503 Y62.586 E0.17132
G1 X106.728 Y64.428 E0.17132
G1 X107.883 Y65.948 E0.11325
G1 X120.383 Y85.948 E1.39910
G1 X121.562 Y88.585 E0.17132
G1 X121.976 Y91.500 E0.17468
G1 X121.976 Y106.500 E0.88983
G1 X121.578 Y109.360 E0.17132
G1 X120.414 Y112.003 E0.17132
G1 X118.572 Y114.228 E0.17132
G1 X116.193 Y115.866 E0.17132
G1 X112.597 Y116.918 E0.22230
G1 X93.597 Y118.918 E1.13334
G1 X92.500 Y118.976 E0.06514
G1 X84.500 Y118.976 E0.47458
G1 X83.201 Y118.895 E0.07723
G1 X67.201 Y116.895 E0.95654
G1 X64.412 Y116.145 E0.17132
G1 X61.933 Y114.662 E0.17132
G1 X59.954 Y112.559 E0.17132
G1 X58.625 Y109.995 E0.17132
G1 X58.024 Y106.500 E0.21038
G1 X58.024 Y91.500 E0.88983
G1 X58.422 Y88.640 E0.17132
G1 X58.963 Y87.165 E0.09316
G1 X63.963 Y76.165 E0.71679
G1 X65.008 Y74.367 E0.12337
G1 X71.473 Y65.415 E0.65502
G1 F6240.000
G1 X73.026 Y63.783 E-1.23500
G1 E-0.06500 F3600.00000
G1 X110.270 Y96.670 F7800.000
G1 E1.30000 F3600.00000
G1 F1458.000
G1 X69.730 Y96.670 E2.40491
G1 X69.730 Y94.230 E0.14475
G1 X110.270 Y94.230 E2.40491
G1 X110.270 Y96.610 E0.14119
G1 X110.463 Y97.020 F7800.000
G1 F6240.000
G1 X108.017 Y96.613 E-1.23500
G1 E-0.06500 F3600.00000
G1 X110.754 Y93.754 F7800.000
G1 E1.30000 F3600.00000
G1 F1620.000
G1 X69.246 Y93.754 E2.46238
G1 X69.246 Y92.246 E0.08950
G1 X110.754 Y92.246 E2.46238
G1 X110.754 Y93.694 E0.08594
G1 F6240.000
G1 X108.501 Y93.698 E-1.23500
G1 E-0.06500 F3600.00000
G1 X91.754 Y105.754 F7800.000
G1 E1.30000 F3600.00000
G1 F1620.000
G1 X91.754 Y107.754 E0.11864
G1 X85.246 Y107.754 E0.38611
G1 X85.246 Y105.754 E0.11864
G1 X69.246 Y105.754 E0.94915
G1 X69.246 Y97.146 E0.51069
G1 X110.754 Y97.146 E2.46238
G1 X110.754 Y105.754 E0.51069
G1 X91.814 Y105.754 E1.12356
G1 X92.230 Y106.230 F7800.000
G1 F1458.000
G1 X92.230 Y108.230 E0.11864
G1 X84.770 Y108.230 E0.44254
G1 X84.770 Y106.230 E0.11864
G1 X68.770 Y106.230 E0.94915
G1 X68.770 Y91.770 E0.85779
G1 X111.230 Y91.770 E2.51881
G1 X111.230 Y106.230 E0.85779
G1 X92.290 Y106.230 E1.12356
G1 X91.839 Y106.316 F7800.000
G1 X91.329 Y105.893 F7800.000
G1 F1620.000
G1 X91.329 Y106.572 E0.04067
G1 X90.572 Y107.329 E0.06413
G1 F6240.000
G1 X91.329 Y106.572 E-0.58687
G1 F6240.000
G1 X91.329 Y105.893 E-0.37219
G1 E-0.34094 F3600.00000
G1 X110.228 Y105.329 F7800.000
G1 E1.30000 F3600.00000
G1 F1620.000
G1 X110.329 Y105.228 E0.00856
G1 X110.329 Y104.549 E0.04067
G1 X109.549 Y105.329 E0.06607
G1 X108.870 Y105.329 E0.04067
G1 X110.329 Y103.870 E0.12359
G1 X110.329 Y103.191 E0.04067
G1 X108.191 Y105.329 E0.18111
G1 X107.512 Y105.329 E0.04067
G1 X110.329 Y102.512 E0.23863
G1 X110.329 Y101.833 E0.04067
G1 X106.833 Y105.329 E0.29614
G1 X106.154 Y105.329 E0.04067
G1 X110.329 Y101.154 E0.35366
G1 X110.329 Y100.475 E0.04067
G1 X105.475 Y105.329 E0.41118
G1 X104.796 Y105.329 E0.04067
G1 X110.329 Y99.796 E0.46870
G1 X110.329 Y99.116 E0.04067
G1 X104.116 Y105.329 E0.52621
G1 X103.437 Y105.329 E0.04067
G1 X110.329 Y98.437 E0.58373
G1 X110.329 Y97.758 E0.04067
G1 X102.758 Y105.329 E0.64125
G1 X102.079 Y105.329 E0.04067
G1 X109.838 Y97.571 E0.65713
G1 X109.159 Y97.571 E0.04067
G1 X101.400 Y105.329 E0.65713
G1 X100.721 Y105.329 E0.04067
G1 X108.480 Y97.571 E0.65713
G1 X107.800 Y97.571 E0.04067
G1 X100.042 Y105.329 E0.65713
G1 X99.363 Y105.329 E0.04067
G1 X107.121 Y97.571 E0.65713
G1 X106.442 Y97.571 E0.04067
G1 X98.684 Y105.329 E0.65713
G1 X98.005 Y105.329 E0.04067
G1 X105.763 Y97.571 E0.65713
G1 X105.084 Y97.571 E0.04067
G1 X97.326 Y105.329 E0.65713
G1 X96.647 Y105.329 E0.04067
G1 X104.405 Y97.571 E0.65713
G1 X103.726 Y97.571 E0.04067
G1 X95.967 Y105.329 E0.65713
G1 X95.288 Y105.329 E0.04067
G1 X103.047 Y97.571 E0.65713
G1 X102.368 Y97.571 E0.04067
G1 X94.609 Y105.329 E0.65713
G1 X93.930 Y105.329 E0.04067
G1 X101.689 Y97.571 E0.65713
G1 X101.010 Y97.571 E0.04067
G1 X93.251 Y105.329 E0.65713
G1 X92.572 Y105.329 E0.04067
G1 X100.331 Y97.571 E0.65713
G1 X99.651 Y97.571 E0.04067
G1 X91.893 Y105.329 E0.65713
G1 X91.228 Y105.329 E0.03981
G1 X91.228 Y105.994 E0.03981
G1 X89.893 Y107.329 E0.11310
G1 X89.214 Y107.329 E0.04067
G1 X98.972 Y97.571 E0.82653
G1 X98.293 Y97.571 E0.04067
G1 X88.535 Y107.329 E0.82653
G1 X87.856 Y107.329 E0.04067
G1 X97.614 Y97.571 E0.82653
G1 X96.935 Y97.571 E0.04067
G1 X87.177 Y107.329 E0.82653
G1 X86.498 Y107.329 E0.04067
G1 X96.256 Y97.571 E0.82653
G1 X95.577 Y97.571 E0.04067
G1 X85.819 Y107.329 E0.82653
G1 X85.671 Y107.329 E0.00885
G1 X85.671 Y106.798 E0.03182
G1 X94.898 Y97.571 E0.78153
G1 X94.219 Y97.571 E0.04067
G1 X85.671 Y106.119 E0.72401
G1 X85.671 Y105.440 E0.04067
G1 X93.540 Y97.571 E0.66649
G1 X92.861 Y97.571 E0.04067
G1 X85.102 Y105.329 E0.65713
G1 X84.423 Y105.329 E0.04067
G1 X92.182 Y97.571 E0.65713
G1 X91.502 Y97.571 E0.04067
G1 X83.744 Y105.329 E0.65713
G1 X83.065 Y105.329 E0.04067
G1 X90.823 Y97.571 E0.65713
G1 X90.144 Y97.571 E0.04067
G1 X82.386 Y105.329 E0.65713
G1 X81.707 Y105.329 E0.04067
G1 X89.465 Y97.571 E0.65713
G1 X88.786 Y97.571 E0.04067
G1 X81.028 Y105.329 E0.65713
G1 X80.349 Y105.329 E0.04067
G1 X88.107 Y97.571 E0.65713
G1 X87.428 Y97.571 E0.04067
G1 X79.670 Y105.329 E0.65713
G1 X78.990 Y105.329 E0.04067
G1 X86.749 Y97.571 E0.65713
G1 X86.070 Y97.571 E0.04067
G1 X78.311 Y105.329 E0.65713
G1 X77.632 Y105.329 E0.04067
G1 X85.391 Y97.571 E0.65713
G1 X84.712 Y97.571 E0.04067
G1 X76.953 Y105.329 E0.65713
G1 X76.274 Y105.329 E0.04067
G1 X84.033 Y97.571 E0.65713
G1 X83.354 Y97.571 E0.04067
G1 X75.595 Y105.329 E0.65713
G1 X74.916 Y105.329 E0.04067
G1 X82.674 Y97.571 E0.65713
G1 X81.995 Y97.571 E0.04067
G1 X74.237 Y105.329 E0.65713
G1 X73.558 Y105.329 E0.04067
G1 X81.316 Y97.571 E0.65713
G1 X80.637 Y97.571 E0.04067
G1 X72.879 Y105.329 E0.65713
G1 X72.200 Y105.329 E0.04067
G1 X79.958 Y97.571 E0.65713
G1 X79.279 Y97.571 E0.04067
G1 X71.521 Y105.329 E0.65713
G1 X70.841 Y105.329 E0.04067
G1 X78.600 Y97.571 E0.65713
G1 X77.921 Y97.571 E0.04067
G1 X70.162 Y105.329 E0.65713
G1 X69.671 Y105.329 E0.02944
G1 X69.671 Y105.142 E0.01123
G1 X77.242 Y97.571 E0.64125
G1 X76.563 Y97.571 E0.04067
G1 X69.671 Y104.463 E0.58374
G1 X69.671 Y103.784 E0.04067
G1 X75.884 Y97.571 E0.52622
G1 X75.205 Y97.571 E0.04067
G1 X69.671 Y103.105 E0.46870
G1 X69.671 Y102.425 E0.04067
G1 X74.525 Y97.571 E0.41118
G1 X73.846 Y97.571 E0.04067
G1 X69.671 Y101.746 E0.35367
G1 X69.671 Y101.067 E0.04067
G1 X73.167 Y97.571 E0.29615
G1 X72.488 Y97.571 E0.04067
G1 X69.671 Y100.388 E0.23863
G1 X69.671 Y99.709 E0.04067
G1 X71.809 Y97.571 E0.18112
G1 X71.130 Y97.571 E0.04067
G1 X69.671 Y99.030 E0.12360
G1 X69.671 Y98.351 E0.04067
G1 X70.451 Y97.571 E0.06608
G1 X69.772 Y97.571 E0.04067
G1 X69.671 Y97.672 E0.00855
G1 F6240.000
G1 X69.772 Y97.571 E-0.07820
G1 F6240.000
G1 X70.451 Y97.571 E-0.37219
G1 F6240.000
G1 X69.671 Y98.351 E-0.60472
G1 F6240.000
G1 X69.671 Y98.679 E-0.17989
G1 E-0.06500 F3600.00000
G1 X110.750 Y96.908 F7800.000
G1 E1.30000 F3600.00000
G1 F360.000
G1 X110.750 Y93.992 E0.15273
G1 X110.228 Y93.329 F7800.000
G1 F1620.000
G1 X110.329 Y93.228 E0.00849
G1 X110.329 Y92.671 E0.03314
G1 X110.213 Y92.671 E0.00693
G1 X109.554 Y93.329 E0.05535
G1 X108.880 Y93.329 E0.04007
G1 X109.539 Y92.671 E0.05535
G1 X108.865 Y92.671 E0.04007
G1 X108.206 Y93.329 E0.05535
G1 X107.532 Y93.329 E0.04007
G1 X108.191 Y92.671 E0.05535
G1 X107.517 Y92.671 E0.04007
G1 X106.858 Y93.329 E0.05535
G1 X106.184 Y93.329 E0.04007
G1 X106.843 Y92.671 E0.05535
G1 X106.169 Y92.671 E0.04007
G1 X105.510 Y93.329 E0.05535
G1 X104.836 Y93.329 E0.04007
G1 X105.495 Y92.671 E0.05535
G1 X104.821 Y92.671 E0.04007
G1 X104.162 Y93.329 E0.05535
G1 X103.488 Y93.329 E0.04007
G1 X104.147 Y92.671 E0.05535
G1 X103.473 Y92.671 E0.04007
G1 X102.814 Y93.329 E0.05535
G1 X102.140 Y93.329 E0.04007
G1 X102.798 Y92.671 E0.05535
G1 X102.124 Y92.671 E0.04007
G1 X101.466 Y93.329 E0.05535
G1 X100.792 Y93.329 E0.04007
G1 X101.450 Y92.671 E0.05535
G1 X100.776 Y92.671 E0.04007
G1 X100.118 Y93.329 E0.05535
G1 X99.444 Y93.329 E0.04007
G1 X100.102 Y92.671 E0.05535
G1 X99.428 Y92.671 E0.04007
G1 X98.770 Y93.329 E0.05535
G1 X98.096 Y93.329 E0.04007
G1 X98.754 Y92.671 E0.05535
G1 X98.080 Y92.671 E0.04007
G1 X97.422 Y93.329 E0.05535
G1 X96.748 Y93.329 E0.04007
G1 X97.406 Y92.671 E0.05535
G1 X96.732 Y92.671 E0.04007
G1 X96.074 Y93.329 E0.05535
G1 X95.400 Y93.329 E0.04007
G1 X96.058 Y92.671 E0.05535
G1 X95.384 Y92.671 E0.04007
G1 X94.726 Y93.329 E0.05535
G1 X94.052 Y93.329 E0.04007
G1 X94.710 Y92.671 E0.05535
G1 X94.036 Y92.671 E0.04007
G1 X93.378 Y93.329 E0.05535
G1 X92.704 Y93.329 E0.04007
G1 X93.362 Y92.671 E0.05535
G1 X92.688 Y92.671 E0.04007
G1 X92.030 Y93.329 E0.05535
G1 X91.356 Y93.329 E0.04007
G1 X92.014 Y92.671 E0.05535
G1 X91.340 Y92.671 E0.04007
G1 X90.682 Y93.329 E0.05535
G1 X90.008 Y93.329 E0.04007
G1 X90.666 Y92.671 E0.05535
G1 X89.992 Y92.671 E0.04007
G1 X89.334 Y93.329 E0.05535
G1 X88.660 Y93.329 E0.04007
G1 X89.318 Y92.671 E0.05535
G1 X88.644 Y92.671 E0.04007
G1 X87.986 Y93.329 E0.05535
G1 X87.312 Y93.329 E0.04007
G1 X87.970 Y92.671 E0.05535
G1 X87.296 Y92.671 E0.04007
G1 X86.638 Y93.329 E0.05535
G1 X85.964 Y93.329 E0.04007
G1 X86.622 Y92.671 E0.05535
G1 X85.948 Y92.671 E0.04007
G1 X85.290 Y93.329 E0.05535
G1 X84.616 Y93.329 E0.04007
G1 X85.274 Y92.671 E0.05535
G1 X84.600 Y92.671 E0.04007
G1 X83.942 Y93.329 E0.05535
G1 X83.268 Y93.329 E0.04007
G1 X83.926 Y92.671 E0.05535
G1 X83.252 Y92.671 E0.04007
G1 X82.594 Y93.329 E0.05535
G1 X81.920 Y93.329 E0.04007
G1 X82.578 Y92.671 E0.05535
G1 X81.904 Y92.671 E0.04007
G1 X81.246 Y93.329 E0.05535
G1 X80.572 Y93.329 E0.04007
G1 X81.230 Y92.671 E0.05535
G1 X80.556 Y92.671 E0.04007
G1 X79.898 Y93.329 E0.05535
G1 X79.224 Y93.329 E0.04007
G1 X79.882 Y92.671 E0.05535
G1 X79.208 Y92.671 E0.04007
G1 X78.550 Y93.329 E0.05535
G1 X77.876 Y93.329 E0.04007
G1 X78.534 Y92.671 E0.05535
G1 X77.860 Y92.671 E0.04007
G1 X77.202 Y93.329 E0.05535
G1 X76.528 Y93.329 E0.04007
G1 X77.186 Y92.671 E0.05535
G1 X76.512 Y92.671 E0.04007
G1 X75.854 Y93.329 E0.05535
G1 X75.180 Y93.329 E0.04007
G1 X75.838 Y92.671 E0.05535
G1 X75.164 Y92.671 E0.04007
G1 X74.506 Y93.329 E0.05535
G1 X73.832 Y93.329 E0.04007
G1 X74.490 Y92.671 E0.05535
G1 X73.816 Y92.671 E0.04007
G1 X73.157 Y93.329 E0.05535
G1 X72.483 Y93.329 E0.04007
G1 X73.142 Y92.671 E0.05535
G1 X72.468 Y92.671 E0.04007
G1 X71.809 Y93.329 E0.05535
G1 X71.135 Y93.329 E0.04007
G1 X71.794 Y92.671 E0.05535
G1 X71.120 Y92.671 E0.04007
G1 X70.461 Y93.329 E0.05535
G1 X69.787 Y93.329 E0.04007
G1 X70.446 Y92.671 E0.05535
G1 X69.772 Y92.671 E0.04007
G1 X69.671 Y92.772 E0.00848
G1 X69.250 Y93.992 F7800.000
G1 F360.000
G1 X69.250 Y96.908 E0.15273
G1 F6240.000
G1 X69.250 Y94.654 E-1.23500
G1 E-0.06500 F3600.00000
G1 X91.754 Y85.754 F7800.000
G1 E1.30000 F3600.00000
G1 F1620.000
G1 X91.754 Y87.754 E0.11864
G1 X85.246 Y87.754 E0.38611
G1 X85.246 Y85.754 E0.11864
G1 X74.246 Y85.754 E0.65254
G1 X74.246 Y81.246 E0.26747
G1 X80.746 Y81.246 E0.38559
G1 X80.746 Y72.246 E0.53390
G1 X98.254 Y72.246 E1.03865
G1 X98.254 Y81.246 E0.53390
G1 X102.754 Y81.246 E0.26695
G1 X102.754 Y85.754 E0.26747
G1 X91.814 Y85.754 E0.64898
G1 X92.230 Y86.230 F7800.000
G1 F1458.000
G1 X92.230 Y88.230 E0.11864
G1 X84.770 Y88.230 E0.44254
G1 X84.770 Y86.230 E0.11864
G1 X73.770 Y86.230 E0.65254
G1 X73.770 Y80.770 E0.32390
G1 X80.270 Y80.770 E0.38559
G1 X80.270 Y71.770 E0.53390
G1 X98.730 Y71.770 E1.09508
G1 X98.730 Y80.770 E0.53390
G1 X103.230 Y80.770 E0.26695
G1 X103.230 Y86.230 E0.32390
G1 X92.290 Y86.230 E0.64898
G1 X91.835 Y86.291 F7800.000
G1 X91.329 Y85.252 F7800.000
G1 F1620.000
G1 X89.252 Y87.329 E0.17774
G1 X89.938 Y87.329 E0.04151
G1 X91.329 Y85.938 E0.11904
G1 X91.329 Y86.624 E0.04151
G1 X90.624 Y87.329 E0.06035
G1 F6240.000
G1 X91.329 Y86.624 E-0.54665
G1 F6240.000
G1 X91.329 Y85.938 E-0.37599
G1 F6240.000
G1 X90.926 Y86.341 E-0.31236
G1 E-0.06500 F3600.00000
G1 X81.171 Y81.690 F7800.000
G1 E1.30000 F3600.00000
G1 F1620.000
G1 X90.190 Y72.671 E0.77172
G1 X89.504 Y72.671 E0.04151
G1 X81.171 Y81.004 E0.71303
G1 X81.171 Y80.318 E0.04151
G1 X88.818 Y72.671 E0.65433
G1 X88.132 Y72.671 E0.04151
G1 X81.171 Y79.632 E0.59563
G1 X81.171 Y78.946 E0.04151
G1 X87.446 Y72.671 E0.53693
G1 X86.760 Y72.671 E0.04151
G1 X81.171 Y78.260 E0.47823
G1 X81.171 Y77.574 E0.04151
G1 X86.074 Y72.671 E0.41953
G1 X85.388 Y72.671 E0.04151
G1 X81.171 Y76.888 E0.36084
G1 X81.171 Y76.202 E0.04151
G1 X84.702 Y72.671 E0.30214
G1 X84.016 Y72.671 E0.04151
G1 X81.171 Y75.516 E0.24344
G1 X81.171 Y74.830 E0.04151
G1 X83.330 Y72.671 E0.18474
G1 X82.644 Y72.671 E0.04151
G1 X81.171 Y74.144 E0.12604
G1 X81.171 Y73.458 E0.04151
G1 X81.958 Y72.671 E0.06735
G1 X81.272 Y72.671 E0.04151
G1 X81.171 Y72.772 E0.00863
G1 F6240.000
G1 X81.272 Y72.671 E-0.07820
G1 F6240.000
G1 X81.958 Y72.671 E-0.37599
G1 F6240.000
G1 X81.171 Y73.458 E-0.61007
G1 F6240.000
G1 X81.171 Y73.769 E-0.17074
G1 E-0.06500 F3600.00000
G1 X74.915 Y81.772 F7800.000
G1 E1.30000 F3600.00000
G1 F1620.000
G1 X74.671 Y81.772 E0.01478
G1 X74.671 Y82.016 E0.01478
G1 X75.016 Y81.671 E0.02953
G1 X75.702 Y81.671 E0.04151
G1 X74.671 Y82.702 E0.08823
G1 X74.671 Y83.388 E0.04151
G1 X76.388 Y81.671 E0.14693
G1 X77.074 Y81.671 E0.04151
G1 X74.671 Y84.074 E0.20563
G1 X74.671 Y84.760 E0.04151
G1 X77.760 Y81.671 E0.26432
G1 X78.446 Y81.671 E0.04151
G1 X74.788 Y85.329 E0.31303
G1 X75.474 Y85.329 E0.04151
G1 X79.132 Y81.671 E0.31303
G1 X79.818 Y81.671 E0.04151
G1 X76.160 Y85.329 E0.31303
G1 X76.846 Y85.329 E0.04151
G1 X80.504 Y81.671 E0.31303
G1 X81.190 Y81.671 E0.04151
G1 X77.532 Y85.329 E0.31303
G1 X78.218 Y85.329 E0.04151
G1 X90.876 Y72.671 E1.08311
G1 X91.562 Y72.671 E0.04151
G1 X78.904 Y85.329 E1.08311
G1 X79.590 Y85.329 E0.04151
G1 X92.248 Y72.671 E1.08311
G1 X92.934 Y72.671 E0.04151
G1 X80.276 Y85.329 E1.08311
G1 X80.962 Y85.329 E0.04151
G1 X93.620 Y72.671 E1.08311
G1 X94.306 Y72.671 E0.04151
G1 X81.648 Y85.329 E1.08311
G1 X82.334 Y85.329 E0.04151
G1 X94.992 Y72.671 E1.08311
G1 X95.678 Y72.671 E0.04151
G1 X83.020 Y85.329 E1.08311
G1 X83.706 Y85.329 E0.04151
G1 X96.364 Y72.671 E1.08311
G1 X97.050 Y72.671 E0.04151
G1 X84.392 Y85.329 E1.08311
G1 X85.078 Y85.329 E0.04151
G1 X97.736 Y72.671 E1.08311
G1 X97.829 Y72.671 E0.00563
G1 X97.829 Y73.264 E0.03588
G1 X85.671 Y85.422 E1.04032
