; generated by Slic3r 1.3.1-dev (Build 2d100c4) on 2020-05-15 at 06:23:52

; external perimeters extrusion width = 0.44mm (3.91mm^3/s)
; perimeters extrusion width = 0.56mm (5.65mm^3/s)
; infill extrusion width = 0.50mm (5.02mm^3/s)
; solid infill extrusion width = 0.56mm (5.65mm^3/s)
; top infill extrusion width = 0.56mm (5.65mm^3/s)

M107
M190 S60 ; set bed temperature and wait for it to be reached
M104 S215 ; set temperature
G28 ; home all axes
G92 E0.0 ; reset extruder
; Filament gcode

M109 S215 ; set temperature and wait for it to be reached
G21 ; set units to millimeters
G90 ; use absolute coordinates
M83 ; use relative distances for extrusion
G1 E-1.30000 F3600.00000
G1 Z0.300 F7800.000
G1 X38.867 Y48.240 F7800.000
G1 E1.30000 F3600.00000
M201 X500 Y500
M204 P500 T500
G1 F2160.000
G1 X41.392 Y46.708 E0.17519
G1 X44.234 Y45.906 E0.17519
G1 X45.760 Y45.799 E0.09074
G1 X134.240 Y45.799 E5.24885
G1 X137.167 Y46.197 E0.17519
G1 X139.880 Y47.363 E0.17519
G1 X142.183 Y49.211 E0.17519
G1 X143.909 Y51.607 E0.17519
G1 X144.531 Y53.004 E0.09074
G1 X149.991 Y68.004 E0.94694
G1 X150.651 Y71.750 E0.22562
G1 X150.651 Y123.250 E3.05508
G1 X150.253 Y126.176 E0.17519
G1 X149.087 Y128.890 E0.17519
G1 X147.239 Y131.193 E0.17519
G1 X144.843 Y132.919 E0.17519
G1 X142.072 Y133.941 E0.17519
G1 X139.700 Y134.201 E0.14158
G1 X40.300 Y134.201 E5.89660
G1 X37.374 Y133.803 E0.17519
G1 X34.660 Y132.637 E0.17519
G1 X32.357 Y130.789 E0.17519
G1 X30.631 Y128.393 E0.17519
G1 X29.609 Y125.622 E0.17519
G1 X29.349 Y123.250 E0.14158
G1 X29.349 Y71.750 E3.05508
G1 X30.009 Y68.004 E0.22562
G1 X35.469 Y53.004 E0.94694
G1 X36.844 Y50.391 E0.17519
G1 X38.826 Y48.284 E0.17163
G1 X39.266 Y48.530 F7800.000
G1 F2160.000
G1 X41.757 Y47.069 E0.17132
G1 X45.760 Y46.274 E0.24206
G1 X134.240 Y46.274 E5.24885
G1 X137.101 Y46.672 E0.17132
G1 X139.744 Y47.836 E0.17132
G1 X141.969 Y49.678 E0.17132
G1 X144.084 Y53.167 E0.24206
G1 X149.544 Y68.167 E0.94694
G1 X150.176 Y71.750 E0.21582
G1 X150.176 Y123.250 E3.05508
G1 X149.778 Y126.110 E0.17132
G1 X148.614 Y128.753 E0.17132
G1 X146.772 Y130.978 E0.17132
G1 X144.393 Y132.616 E0.17132
G1 X141.657 Y133.541 E0.17132
G1 X139.700 Y133.726 E0.11663
G1 X40.300 Y133.726 E5.89660
G1 X37.440 Y133.328 E0.17132
G1 X34.797 Y132.164 E0.17132
G1 X32.572 Y130.322 E0.17132
G1 X30.934 Y127.943 E0.17132
G1 X30.009 Y125.207 E0.17132
G1 X29.824 Y123.250 E0.11663
G1 X29.824 Y71.750 E3.05508
G1 X30.456 Y68.167 E0.21582
G1 X35.916 Y53.167 E0.94694
G1 X37.268 Y50.615 E0.17132
G1 X39.224 Y48.573 E0.16776
G1 F6240.000
G1 X41.162 Y47.423 E-1.23500
G1 E-0.06500 F3600.00000
G1 X62.846 Y105.280 F7800.000
G1 E1.30000 F3600.00000
G1 F1620.000
G1 X62.846 Y112.323 E0.41784
G1 X62.665 Y113.230 E0.05482
G1 X62.110 Y114.060 E0.05926
G1 X61.280 Y114.615 E0.05926
G1 X60.300 Y114.810 E0.05926
G1 X59.320 Y114.615 E0.05926
G1 X58.490 Y114.060 E0.05926
G1 X57.935 Y113.230 E0.05926
G1 X57.754 Y112.323 E0.05482
G1 X57.754 Y97.177 E0.89854
G1 X57.935 Y96.270 E0.05482
G1 X58.490 Y95.440 E0.05926
G1 X59.320 Y94.885 E0.05926
G1 X60.300 Y94.690 E0.05926
G1 X61.280 Y94.885 E0.05926
G1 X62.110 Y95.440 E0.05926
G1 X62.665 Y96.270 E0.05926
G1 X62.846 Y97.177 E0.05482
G1 X62.846 Y105.220 E0.47714
G1 X62.370 Y105.280 F7800.000
G1 F1458.000
G1 X62.370 Y112.277 E0.41506
G1 X62.217 Y113.044 E0.04642
G1 X61.767 Y113.717 E0.04804
G1 X61.094 Y114.167 E0.04804
G1 X60.300 Y114.325 E0.04803
G1 X59.506 Y114.167 E0.04803
G1 X58.833 Y113.717 E0.04804
G1 X58.383 Y113.044 E0.04804
G1 X58.230 Y112.277 E0.04642
G1 X58.230 Y97.223 E0.89298
G1 X58.383 Y96.456 E0.04642
G1 X58.833 Y95.783 E0.04804
G1 X59.506 Y95.333 E0.04804
G1 X60.300 Y95.175 E0.04803
G1 X61.094 Y95.333 E0.04803
G1 X61.767 Y95.783 E0.04804
G1 X62.217 Y96.456 E0.04804
G1 X62.370 Y97.223 E0.04642
G1 X62.370 Y105.220 E0.47436
G1 X62.718 Y105.478 F7800.000
G1 F6240.000
G1 X62.370 Y107.473 E-1.23500
G1 E-0.06500 F3600.00000
G1 X67.754 Y105.280 F7800.000
G1 E1.30000 F3600.00000
G1 F1620.000
G1 X67.754 Y97.177 E0.48070
G1 X67.935 Y96.270 E0.05482
G1 X68.490 Y95.440 E0.05926
G1 X69.320 Y94.885 E0.05926
G1 X70.300 Y94.690 E0.05926
G1 X71.280 Y94.885 E0.05926
G1 X72.110 Y95.440 E0.05926
G1 X72.665 Y96.270 E0.05926
G1 X72.846 Y97.177 E0.05482
G1 X72.846 Y112.323 E0.89854
G1 X72.665 Y113.230 E0.05482
G1 X72.110 Y114.060 E0.05926
G1 X71.280 Y114.615 E0.05926
G1 X70.300 Y114.810 E0.05926
G1 X69.320 Y114.615 E0.05926
G1 X68.490 Y114.060 E0.05926
G1 X67.935 Y113.230 E0.05926
G1 X67.754 Y112.323 E0.05482
G1 X67.754 Y105.340 E0.41428
G1 X68.230 Y105.280 F7800.000
G1 F1458.000
G1 X68.230 Y97.223 E0.47792
G1 X68.383 Y96.456 E0.04642
G1 X68.833 Y95.783 E0.04804
G1 X69.506 Y95.333 E0.04804
G1 X70.300 Y95.175 E0.04803
G1 X71.094 Y95.333 E0.04803
G1 X71.767 Y95.783 E0.04804
G1 X72.217 Y96.456 E0.04804
G1 X72.370 Y97.223 E0.04642
G1 X72.370 Y112.277 E0.89298
G1 X72.217 Y113.044 E0.04642
G1 X71.767 Y113.717 E0.04804
G1 X71.094 Y114.167 E0.04804
G1 X70.300 Y114.325 E0.04803
G1 X69.506 Y114.167 E0.04803
G1 X68.833 Y113.717 E0.04804
G1 X68.383 Y113.044 E0.04804
G1 X68.230 Y112.277 E0.04642
G1 X68.230 Y105.340 E0.41150
G1 X67.882 Y105.082 F7800.000
G1 F6240.000
G1 X68.230 Y103.087 E-1.23500
G1 E-0.06500 F3600.00000
G1 X77.754 Y105.280 F7800.000
G1 E1.30000 F3600.00000
G1 F1620.000
G1 X77.754 Y97.177 E0.48070
G1 X77.935 Y96.270 E0.05482
G1 X78.490 Y95.440 E0.05926
G1 X79.320 Y94.885 E0.05926
G1 X80.300 Y94.690 E0.05926
G1 X81.280 Y94.885 E0.05926
G1 X82.110 Y95.440 E0.05926
G1 X82.665 Y96.270 E0.05926
G1 X82.846 Y97.177 E0.05482
G1 X82.846 Y112.323 E0.89854
G1 X82.665 Y113.230 E0.05482
G1 X82.110 Y114.060 E0.05926
G1 X81.280 Y114.615 E0.05926
G1 X80.300 Y114.810 E0.05926
G1 X79.320 Y114.615 E0.05926
G1 X78.490 Y114.060 E0.05926
G1 X77.935 Y113.230 E0.05926
G1 X77.754 Y112.323 E0.05482
G1 X77.754 Y105.340 E0.41428
G1 X78.230 Y105.280 F7800.000
G1 F1458.000
G1 X78.230 Y97.223 E0.47792
G1 X78.383 Y96.456 E0.04642
G1 X78.833 Y95.783 E0.04804
G1 X79.506 Y95.333 E0.04804
G1 X80.300 Y95.175 E0.04803
G1 X81.094 Y95.333 E0.04803
G1 X81.767 Y95.783 E0.04804
G1 X82.217 Y96.456 E0.04804
G1 X82.370 Y97.223 E0.04642
G1 X82.370 Y112.277 E0.89298
G1 X82.217 Y113.044 E0.04642
G1 X81.767 Y113.717 E0.04804
G1 X81.094 Y114.167 E0.04804
G1 X80.300 Y114.325 E0.04803
G1 X79.506 Y114.167 E0.04803
G1 X78.833 Y113.717 E0.04804
G1 X78.383 Y113.044 E0.04804
G1 X78.230 Y112.277 E0.04642
G1 X78.230 Y105.340 E0.41150
G1 X77.882 Y105.082 F7800.000
G1 F6240.000
G1 X78.230 Y103.087 E-1.23500
G1 E-0.06500 F3600.00000
G1 X87.754 Y105.280 F7800.000
G1 E1.30000 F3600.00000
G1 F1620.000
G1 X87.754 Y97.177 E0.48070
G1 X87.935 Y96.270 E0.05482
G1 X88.490 Y95.440 E0.05926
G1 X89.320 Y94.885 E0.05926
G1 X90.300 Y94.690 E0.05926
G1 X91.280 Y94.885 E0.05926
G1 X92.110 Y95.440 E0.05926
G1 X92.665 Y96.270 E0.05926
G1 X92.846 Y97.177 E0.05482
G1 X92.846 Y112.323 E0.89854
G1 X92.665 Y113.230 E0.05482
G1 X92.110 Y114.060 E0.05926
G1 X91.280 Y114.615 E0.05926
G1 X90.300 Y114.810 E0.05926
G1 X89.320 Y114.615 E0.05926
G1 X88.490 Y114.060 E0.05926
G1 X87.935 Y113.230 E0.05926
G1 X87.754 Y112.323 E0.05482
G1 X87.754 Y105.340 E0.41428
G1 X88.230 Y105.280 F7800.000
G1 F1458.000
G1 X88.230 Y97.223 E0.47792
G1 X88.383 Y96.456 E0.04642
G1 X88.833 Y95.783 E0.04804
G1 X89.506 Y95.333 E0.04804
G1 X90.300 Y95.175 E0.04803
G1 X91.094 Y95.333 E0.04803
G1 X91.767 Y95.783 E0.04804
G1 X92.217 Y96.456 E0.04804
G1 X92.370 Y97.223 E0.04642
G1 X92.370 Y112.277 E0.89298
G1 X92.217 Y113.044 E0.04642
G1 X91.767 Y113.717 E0.04804
G1 X91.094 Y114.167 E0.04804
G1 X90.300 Y114.325 E0.04803
G1 X89.506 Y114.167 E0.04803
G1 X88.833 Y113.717 E0.04804
G1 X88.383 Y113.044 E0.04804
G1 X88.230 Y112.277 E0.04642
G1 X88.230 Y105.340 E0.41150
G1 X87.882 Y105.082 F7800.000
G1 F6240.000
G1 X88.230 Y103.087 E-1.23500
G1 E-0.06500 F3600.00000
G1 X97.754 Y105.280 F7800.000
G1 E1.30000 F3600.00000
G1 F1620.000
G1 X97.754 Y97.177 E0.48070
G1 X97.935 Y96.270 E0.05482
G1 X98.490 Y95.440 E0.05926
G1 X99.320 Y94.885 E0.05926
G1 X100.300 Y94.690 E0.05926
G1 X101.280 Y94.885 E0.05926
G1 X102.110 Y95.440 E0.05926
G1 X102.665 Y96.270 E0.05926
G1 X102.846 Y97.177 E0.05482
G1 X102.846 Y112.323 E0.89854
G1 X102.665 Y113.230 E0.05482
G1 X102.110 Y114.060 E0.05926
G1 X101.280 Y114.615 E0.05926
G1 X100.300 Y114.810 E0.05926
G1 X99.320 Y114.615 E0.05926
G1 X98.490 Y114.060 E0.05926
G1 X97.935 Y113.230 E0.05926
G1 X97.754 Y112.323 E0.05482
G1 X97.754 Y105.340 E0.41428
G1 X98.230 Y105.280 F7800.000
G1 F1458.000
G1 X98.230 Y97.223 E0.47792
G1 X98.383 Y96.456 E0.04642
G1 X98.833 Y95.783 E0.04804
G1 X99.506 Y95.333 E0.04804
G1 X100.300 Y95.175 E0.04803
G1 X101.094 Y95.333 E0.04803
G1 X101.767 Y95.783 E0.04804
G1 X102.217 Y96.456 E0.04804
G1 X102.370 Y97.223 E0.04642
G1 X102.370 Y112.277 E0.89298
G1 X102.217 Y113.044 E0.04642
G1 X101.767 Y113.717 E0.04804
G1 X101.094 Y114.167 E0.04804
G1 X100.300 Y114.325 E0.04803
G1 X99.506 Y114.167 E0.04803
G1 X98.833 Y113.717 E0.04804
G1 X98.383 Y113.044 E0.04804
G1 X98.230 Y112.277 E0.04642
G1 X98.230 Y105.340 E0.41150
G1 X97.882 Y105.082 F7800.000
G1 F6240.000
G1 X98.230 Y103.087 E-1.23500
G1 E-0.06500 F3600.00000
G1 X107.754 Y105.280 F7800.000
G1 E1.30000 F3600.00000
G1 F1620.000
G1 X107.754 Y97.177 E0.48070
G1 X107.935 Y96.270 E0.05482
G1 X108.490 Y95.440 E0.05926
G1 X109.320 Y94.885 E0.05926
G1 X110.300 Y94.690 E0.05926
G1 X111.280 Y94.885 E0.05926
G1 X112.110 Y95.440 E0.05926
G1 X112.665 Y96.270 E0.05926
G1 X112.846 Y97.177 E0.05482
G1 X112.846 Y112.323 E0.89854
G1 X112.665 Y113.230 E0.05482
G1 X112.110 Y114.060 E0.05926
G1 X111.280 Y114.615 E0.05926
G1 X110.300 Y114.810 E0.05926
G1 X109.320 Y114.615 E0.05926
G1 X108.490 Y114.060 E0.05926
G1 X107.935 Y113.230 E0.05926
G1 X107.754 Y112.323 E0.05482
G1 X107.754 Y105.340 E0.41428
G1 X108.230 Y105.280 F7800.000
G1 F1458.000
G1 X108.230 Y97.223 E0.47792
G1 X108.383 Y96.456 E0.04642
G1 X108.833 Y95.783 E0.04804
G1 X109.506 Y95.333 E0.04804
G1 X110.300 Y95.175 E0.04803
G1 X111.094 Y95.333 E0.04803
G1 X111.767 Y95.783 E0.04804
G1 X112.217 Y96.456 E0.04804
G1 X112.370 Y97.223 E0.04642
G1 X112.370 Y112.277 E0.89298
G1 X112.217 Y113.044 E0.04642
G1 X111.767 Y113.717 E0.04804
G1 X111.094 Y114.167 E0.04804
G1 X110.300 Y114.325 E0.04803
G1 X109.506 Y114.167 E0.04803
G1 X108.833 Y113.717 E0.04804
G1 X108.383 Y113.044 E0.04804
G1 X108.230 Y112.277 E0.04642
G1 X108.230 Y105.340 E0.41150
G1 X107.882 Y105.082 F7800.000
G1 F6240.000
G1 X108.230 Y103.087 E-1.23500
G1 E-0.06500 F3600.00000
G1 X117.754 Y105.280 F7800.000
G1 E1.30000 F3600.00000
G1 F1620.000
G1 X117.754 Y97.177 E0.48070
G1 X117.935 Y96.270 E0.05482
G1 X118.490 Y95.440 E0.05926
G1 X119.320 Y94.885 E0.05926
G1 X120.300 Y94.690 E0.05926
G1 X121.280 Y94.885 E0.05926
G1 X122.110 Y95.440 E0.05926
G1 X122.665 Y96.270 E0.05926
G1 X122.846 Y97.177 E0.05482
G1 X122.846 Y112.323 E0.89854
G1 X122.665 Y113.230 E0.05482
G1 X122.110 Y114.060 E0.05926
G1 X121.280 Y114.615 E0.05926
G1 X120.300 Y114.810 E0.05926
G1 X119.320 Y114.615 E0.05926
G1 X118.490 Y114.060 E0.05926
G1 X117.935 Y113.230 E0.05926
G1 X117.754 Y112.323 E0.05482
G1 X117.754 Y105.340 E0.41428
G1 X118.230 Y105.280 F7800.000
G1 F1458.000
G1 X118.230 Y97.223 E0.47792
G1 X118.383 Y96.456 E0.04642
G1 X118.833 Y95.783 E0.04804
G1 X119.506 Y95.333 E0.04804
G1 X120.300 Y95.175 E0.04803
G1 X121.094 Y95.333 E0.04803
G1 X121.767 Y95.783 E0.04804
G1 X122.217 Y96.456 E0.04804
G1 X122.370 Y97.223 E0.04642
G1 X122.370 Y112.277 E0.89298
G1 X122.217 Y113.044 E0.04642
G1 X121.767 Y113.717 E0.04804
G1 X121.094 Y114.167 E0.04804
G1 X120.300 Y114.325 E0.04803
G1 X119.506 Y114.167 E0.04803
G1 X118.833 Y113.717 E0.04804
G1 X118.383 Y113.044 E0.04804
G1 X118.230 Y112.277 E0.04642
G1 X118.230 Y105.340 E0.41150
G1 X117.882 Y105.082 F7800.000
G1 F6240.000
G1 X118.230 Y103.087 E-1.23500
G1 E-0.06500 F3600.00000
G1 X127.754 Y105.280 F7800.000
G1 E1.30000 F3600.00000
G1 F1620.000
G1 X127.754 Y97.177 E0.48070
G1 X127.935 Y96.270 E0.05482
G1 X128.490 Y95.440 E0.05926
G1 X129.320 Y94.885 E0.05926
G1 X130.300 Y94.690 E0.05926
G1 X131.280 Y94.885 E0.05926
G1 X132.110 Y95.440 E0.05926
G1 X132.665 Y96.270 E0.05926
G1 X132.846 Y97.177 E0.05482
G1 X132.846 Y112.323 E0.89854
G1 X132.665 Y113.230 E0.05482
G1 X132.110 Y114.060 E0.05926
G1 X131.280 Y114.615 E0.05926
G1 X130.300 Y114.810 E0.05926
G1 X129.320 Y114.615 E0.05926
G1 X128.490 Y114.060 E0.05926
G1 X127.935 Y113.230 E0.05926
G1 X127.754 Y112.323 E0.05482
G1 X127.754 Y105.340 E0.41428
G1 X128.230 Y105.280 F7800.000
G1 F1458.000
G1 X128.230 Y97.223 E0.47792
G1 X128.383 Y96.456 E0.04642
G1 X128.833 Y95.783 E0.04804
G1 X129.506 Y95.333 E0.04804
G1 X130.300 Y95.175 E0.04803
G1 X131.094 Y95.333 E0.04803
G1 X131.767 Y95.783 E0.04804
G1 X132.217 Y96.456 E0.04804
G1 X132.370 Y97.223 E0.04642
G1 X132.370 Y112.277 E0.89298
G1 X132.217 Y113.044 E0.04642
G1 X131.767 Y113.717 E0.04804
G1 X131.094 Y114.167 E0.04804
G1 X130.300 Y114.325 E0.04803
G1 X129.506 Y114.167 E0.04803
G1 X128.833 Y113.717 E0.04804
G1 X128.383 Y113.044 E0.04804
G1 X128.230 Y112.277 E0.04642
G1 X128.230 Y105.340 E0.41150
G1 X127.882 Y105.082 F7800.000
G1 F6240.000
G1 X128.230 Y103.087 E-1.23500
G1 E-0.06500 F3600.00000
G1 X130.700 Y70.810 F7800.000
G1 E1.30000 F3600.00000
G1 F1080.000
G1 X129.720 Y70.615 E0.05926
G1 X128.890 Y70.060 E0.05926
G1 X128.335 Y69.230 E0.05926
G1 X128.154 Y68.323 E0.05482
G1 X128.154 Y66.177 E0.12736
G1 X128.335 Y65.270 E0.05482
G1 X128.890 Y64.440 E0.05926
G1 X129.720 Y63.885 E0.05926
G1 X130.700 Y63.690 E0.05926
G1 X131.680 Y63.885 E0.05926
G1 X132.510 Y64.440 E0.05926
G1 X133.065 Y65.270 E0.05926
G1 X133.246 Y66.177 E0.05482
G1 X133.246 Y68.323 E0.12736
G1 X133.065 Y69.230 E0.05482
G1 X132.510 Y70.060 E0.05926
G1 X131.680 Y70.615 E0.05926
G1 X130.759 Y70.799 E0.05570
G1 X130.700 Y70.325 F7800.000
G1 F1080.000
G1 X129.906 Y70.167 E0.04803
G1 X129.233 Y69.717 E0.04804
G1 X128.783 Y69.044 E0.04804
G1 X128.630 Y68.277 E0.04642
G1 X128.630 Y66.223 E0.12180
G1 X128.783 Y65.456 E0.04643
G1 X129.233 Y64.783 E0.04804
G1 X129.906 Y64.333 E0.04804
G1 X130.700 Y64.175 E0.04803
G1 X131.494 Y64.333 E0.04803
G1 X132.167 Y64.783 E0.04804
G1 X132.617 Y65.456 E0.04804
G1 X132.770 Y66.223 E0.04643
G1 X132.770 Y68.277 E0.12180
G1 X132.617 Y69.044 E0.04642
G1 X132.167 Y69.717 E0.04804
G1 X131.494 Y70.167 E0.04804
G1 X130.759 Y70.314 E0.04447
G1 X130.700 Y70.325 F7800.000
G1 F6240.000
G1 X130.700 Y70.325 E-0.03288
G1 F6240.000
G1 X129.906 Y70.167 E-0.44378
G1 F6240.000
G1 X129.233 Y69.717 E-0.44382
G1 F6240.000
G1 X128.914 Y69.240 E-0.31452
G1 E-0.06500 F3600.00000
G1 X114.788 Y74.631 F7800.000
G1 E1.30000 F3600.00000
G1 F1620.000
G1 X114.788 Y77.456 E0.16760
G1 X115.212 Y77.352 E0.02592
G1 X115.548 Y77.305 E0.02013
G1 X115.892 Y77.290 E0.02041
G1 X116.269 Y77.307 E0.02240
G1 X116.634 Y77.358 E0.02183
G1 X116.985 Y77.445 E0.02147
G1 X117.320 Y77.571 E0.02123
G1 X117.636 Y77.736 E0.02113
G1 X117.928 Y77.939 E0.02109
G1 X118.193 Y78.177 E0.02113
G1 X118.430 Y78.449 E0.02140
G1 X118.637 Y78.753 E0.02181
G1 X118.810 Y79.084 E0.02222
G1 X118.953 Y79.440 E0.02272
G1 X119.065 Y79.818 E0.02341
G1 X119.150 Y80.219 E0.02429
G1 X119.211 Y80.652 E0.02594
G1 X119.256 Y81.550 E0.05333
G1 X119.240 Y82.069 E0.03084
G1 X119.190 Y82.559 E0.02917
G1 X119.106 Y83.025 E0.02813
G1 X118.984 Y83.468 E0.02725
G1 X118.825 Y83.887 E0.02657
G1 X118.627 Y84.279 E0.02608
G1 X118.388 Y84.642 E0.02576
G1 X118.111 Y84.969 E0.02541
G1 X117.804 Y85.259 E0.02504
G1 X117.469 Y85.511 E0.02486
G1 X117.107 Y85.723 E0.02489
G1 X116.722 Y85.895 E0.02504
G1 X116.316 Y86.027 E0.02534
G1 X115.890 Y86.119 E0.02581
G1 X115.449 Y86.173 E0.02641
G1 X114.989 Y86.191 E0.02730
G1 X114.055 Y86.151 E0.05546
G1 X113.197 Y86.032 E0.05137
G1 X112.458 Y85.856 E0.04506
G1 X111.658 Y85.557 E0.05068
G1 X111.784 Y86.037 E0.02944
G1 X108.766 Y86.037 E0.17908
G1 X108.652 Y85.663 E0.02319
G1 X108.183 Y85.902 E0.03126
G1 X107.771 Y86.035 E0.02566
G1 X107.334 Y86.112 E0.02633
G1 X106.862 Y86.137 E0.02803
G1 X106.277 Y86.091 E0.03483
G1 X105.720 Y85.944 E0.03416
G1 X105.215 Y85.696 E0.03336
G1 X104.779 Y85.356 E0.03282
G1 X104.429 Y84.934 E0.03250
