; generated by Slic3r 1.2.9 on 2020-05-14 at 10:35:40

; external perimeters extrusion width = 0.40mm
; perimeters extrusion width = 0.56mm
; infill extrusion width = 0.56mm
; solid infill extrusion width = 0.56mm
; top infill extrusion width = 0.56mm

M107
M190 S60 ; set bed temperature
M104 S215 ; set temperature
G28 ; home all axes
G92 E0.0 ; reset extruder
M109 S215 ; wait for temperature to be reached
G21 ; set units to millimeters
G90 ; use absolute coordinates
M83 ; use relative distances for extrusion
G1 E-1.30000 F3600.00000
G1 Z0.300 F7800.000
G1 X48.867 Y58.240 F7800.000
G1 E1.30000 F3600.00000
M204 S500
G1 X51.392 Y56.708 E0.17519 F2160.000
G1 X54.234 Y55.906 E0.17519
G1 X55.760 Y55.799 E0.09074
G1 X144.240 Y55.799 E5.24885
G1 X147.167 Y56.197 E0.17519
G1 X149.880 Y57.362 E0.17519 F2160.000
G1 X152.183 Y59.211 E0.17519
G1 X153.909 Y61.607 E0.17519
G1 X154.531 Y63.004 E0.09074
G1 X159.991 Y78.004 E0.94694
G1 X160.651 Y81.750 E0.22562
G1 X160.651 Y133.250 E3.05508
G1 X160.253 Y136.176 E0.17519
G1 X159.087 Y138.890 E0.17519
G1 X157.239 Y141.193 E0.17519
G1 X154.843 Y142.919 E0.17519
G1 X152.072 Y143.941 E0.17519
G1 X149.700 Y144.201 E0.14158
G1 X50.300 Y144.201 E5.89660
G1 X47.374 Y143.803 E0.17519
G1 X44.660 Y142.637 E0.17519
G1 X42.357 Y140.789 E0.17519
G1 X40.631 Y138.393 E0.17519
G1 X39.609 Y135.622 E0.17519
G1 X39.349 Y133.250 E0.14158
G1 X39.349 Y81.750 E3.05508
G1 X40.009 Y78.004 E0.22562
G1 X45.469 Y63.004 E0.94694
G1 X46.844 Y60.391 E0.17519
G1 X48.826 Y58.284 E0.17163
G1 X49.220 Y58.578 F7800.000
G1 X49.266 Y58.530 E0.00394 F2160.000
G1 X51.757 Y57.069 E0.17132
G1 X55.760 Y56.274 E0.24206
G1 X144.240 Y56.274 E5.24885
G1 X147.101 Y56.672 E0.17132
G1 X149.744 Y57.836 E0.17132 F2160.000
G1 X151.969 Y59.678 E0.17132
G1 X154.084 Y63.167 E0.24206
G1 X159.544 Y78.167 E0.94694
G1 X160.176 Y81.750 E0.21582
G1 X160.176 Y133.250 E3.05508
G1 X159.778 Y136.110 E0.17132
G1 X158.614 Y138.753 E0.17132
G1 X156.772 Y140.978 E0.17132
G1 X154.393 Y142.616 E0.17132
G1 X151.657 Y143.541 E0.17132
G1 X149.700 Y143.726 E0.11663
G1 X50.300 Y143.726 E5.89660
G1 X47.440 Y143.328 E0.17132
G1 X44.797 Y142.164 E0.17132
G1 X42.572 Y140.322 E0.17132
G1 X40.934 Y137.943 E0.17132
G1 X40.009 Y135.207 E0.17132
G1 X39.824 Y133.250 E0.11663
G1 X39.824 Y81.750 E3.05508
G1 X40.456 Y78.167 E0.21582
G1 X45.916 Y63.167 E0.94694
G1 X47.268 Y60.615 E0.17132
G1 X49.178 Y58.621 E0.16382
G1 F6240
G1 X49.266 Y58.530 E-0.06932
G1 F6240
G1 X51.101 Y57.454 E-1.16568
G1 E-0.06500 F3600.00000
G1 X82.846 Y122.323 F7800.000
G1 E1.30000 F3600.00000
G1 X82.665 Y123.230 E0.05482 F1620.000
G1 X82.110 Y124.060 E0.05926
G1 X81.280 Y124.615 E0.05926
G1 X80.300 Y124.810 E0.05926
G1 X79.320 Y124.615 E0.05926
G1 X78.490 Y124.060 E0.05926
G1 X77.935 Y123.230 E0.05926
G1 X77.754 Y122.323 E0.05482
G1 X77.754 Y107.177 E0.89854
G1 X77.935 Y106.270 E0.05482
G1 X78.490 Y105.440 E0.05926
G1 X79.320 Y104.885 E0.05926
G1 X80.103 Y104.729 E0.04733
G1 X80.300 Y104.690 E0.01192 F1620.000
G1 X81.280 Y104.885 E0.05926
G1 X82.110 Y105.440 E0.05926
G1 X82.665 Y106.270 E0.05926
G1 X82.846 Y107.177 E0.05482
G1 X82.846 Y122.263 E0.89498
G1 X82.370 Y122.277 F7800.000
G1 X82.217 Y123.044 E0.04642 F1458.000
G1 X81.767 Y123.717 E0.04804
G1 X81.094 Y124.167 E0.04804
G1 X80.300 Y124.325 E0.04803
G1 X79.506 Y124.167 E0.04803
G1 X78.833 Y123.717 E0.04804
G1 X78.383 Y123.044 E0.04804
G1 X78.230 Y122.277 E0.04642
G1 X78.230 Y107.223 E0.89298
G1 X78.383 Y106.456 E0.04642
G1 X78.833 Y105.783 E0.04804
G1 X79.506 Y105.333 E0.04804
G1 X80.196 Y105.195 E0.04172
G1 X80.300 Y105.175 E0.00631 F1458.000
G1 X81.094 Y105.333 E0.04803
G1 X81.767 Y105.783 E0.04804
G1 X82.217 Y106.456 E0.04804
G1 X82.370 Y107.223 E0.04642
G1 X82.370 Y122.217 E0.88942
G1 X82.687 Y122.520 F7800.000
G1 F6240
G1 X82.217 Y123.044 E-0.46122
G1 F6240
G1 X81.767 Y123.717 E-0.44382
G1 F6240
G1 X81.267 Y124.052 E-0.32996
G1 E-0.06500 F3600.00000
G1 X72.846 Y122.277 F7800.000
G1 E1.30000 F3600.00000
G1 X72.665 Y123.230 E0.05754 F1620.000
G1 X72.110 Y124.060 E0.05926
G1 X71.280 Y124.615 E0.05926
G1 X70.300 Y124.810 E0.05926
G1 X69.320 Y124.615 E0.05926
G1 X68.490 Y124.060 E0.05926
G1 X67.935 Y123.230 E0.05926
G1 X67.754 Y122.323 E0.05482
G1 X67.754 Y107.177 E0.89854
G1 X67.935 Y106.270 E0.05482
G1 X68.490 Y105.440 E0.05926
G1 X69.320 Y104.885 E0.05926
G1 X70.103 Y104.729 E0.04733
G1 X70.300 Y104.690 E0.01192 F1620.000
G1 X71.280 Y104.885 E0.05926
G1 X72.110 Y105.440 E0.05926
G1 X72.665 Y106.270 E0.05926
G1 X72.846 Y107.177 E0.05482
G1 X72.846 Y122.217 E0.89220
G1 X72.370 Y122.277 F7800.000
G1 X72.217 Y123.044 E0.04642 F1458.000
G1 X71.767 Y123.717 E0.04804
G1 X71.094 Y124.167 E0.04804
G1 X70.300 Y124.325 E0.04803
G1 X69.506 Y124.167 E0.04803
G1 X68.833 Y123.717 E0.04804
G1 X68.383 Y123.044 E0.04804
G1 X68.230 Y122.277 E0.04642
G1 X68.230 Y107.223 E0.89298
G1 X68.383 Y106.456 E0.04642
G1 X68.833 Y105.783 E0.04804
G1 X69.506 Y105.333 E0.04804
G1 X70.196 Y105.195 E0.04172
G1 X70.300 Y105.175 E0.00631 F1458.000
G1 X71.094 Y105.333 E0.04803
G1 X71.767 Y105.783 E0.04804
G1 X72.217 Y106.456 E0.04804
G1 X72.370 Y107.223 E0.04642
G1 X72.370 Y122.217 E0.88942
G1 X72.687 Y122.520 F7800.000
G1 F6240
G1 X72.217 Y123.044 E-0.46122
G1 F6240
G1 X71.767 Y123.717 E-0.44382
G1 F6240
G1 X71.267 Y124.052 E-0.32996
G1 E-0.06500 F3600.00000
G1 X62.846 Y122.277 F7800.000
G1 E1.30000 F3600.00000
G1 X62.665 Y123.230 E0.05754 F1620.000
G1 X62.110 Y124.060 E0.05926
G1 X61.280 Y124.615 E0.05926
G1 X60.300 Y124.810 E0.05926
G1 X59.320 Y124.615 E0.05926
G1 X58.490 Y124.060 E0.05926
G1 X57.935 Y123.230 E0.05926
G1 X57.754 Y122.323 E0.05482
G1 X57.754 Y107.177 E0.89854
G1 X57.935 Y106.270 E0.05482
G1 X58.490 Y105.440 E0.05926
G1 X59.320 Y104.885 E0.05926
G1 X60.103 Y104.729 E0.04734
G1 X60.300 Y104.690 E0.01192 F1620.000
G1 X61.280 Y104.885 E0.05926
G1 X62.110 Y105.440 E0.05926
G1 X62.665 Y106.270 E0.05926
G1 X62.846 Y107.177 E0.05482
G1 X62.846 Y122.217 E0.89220
G1 X62.370 Y122.277 F7800.000
G1 X62.217 Y123.044 E0.04642 F1458.000
G1 X61.767 Y123.717 E0.04804
G1 X61.094 Y124.167 E0.04804
G1 X60.300 Y124.325 E0.04803
G1 X59.506 Y124.167 E0.04803
G1 X58.833 Y123.717 E0.04804
G1 X58.383 Y123.044 E0.04804
G1 X58.230 Y122.277 E0.04642
G1 X58.230 Y107.223 E0.89298
G1 X58.383 Y106.456 E0.04642
G1 X58.833 Y105.783 E0.04804
G1 X59.506 Y105.333 E0.04804
G1 X60.196 Y105.195 E0.04172
G1 X60.300 Y105.175 E0.00631 F1458.000
G1 X61.094 Y105.333 E0.04803
G1 X61.767 Y105.783 E0.04804
G1 X62.217 Y106.456 E0.04804
G1 X62.370 Y107.223 E0.04642
G1 X62.370 Y122.217 E0.88942
G1 X62.687 Y122.520 F7800.000
G1 F6240
G1 X62.217 Y123.044 E-0.46122
G1 F6240
G1 X61.767 Y123.717 E-0.44382
G1 F6240
G1 X61.267 Y124.052 E-0.32996
G1 E-0.06500 F3600.00000
G1 X70.744 Y104.023 F7800.000
G1 E1.30000 F3600.00000
G1 X70.744 Y79.477 E1.45612 F1620.000
G1 X87.763 Y79.477 E1.00955
G1 X95.292 Y87.005 E0.63160
G1 X95.292 Y104.023 E1.00956
G1 X70.804 Y104.023 E1.45265
G1 X71.220 Y103.547 F7800.000
G1 X71.220 Y79.953 E1.39969 F1458.000
G1 X87.566 Y79.953 E0.96965
G1 X94.816 Y87.202 E0.60822
G1 X94.816 Y103.547 E0.96966
G1 X71.280 Y103.547 E1.39622
G1 X70.820 Y103.547 F7800.000
G1 F6240
G1 X71.274 Y101.294 E-1.23500
G1 E-0.06500 F3600.00000
G1 X79.720 Y78.115 F7800.000
G1 E1.30000 F3600.00000
G1 X78.890 Y77.560 E0.05926 F1080.000
G1 X78.335 Y76.730 E0.05926
G1 X78.154 Y75.823 E0.05482
G1 X78.154 Y73.677 E0.12736
G1 X78.335 Y72.770 E0.05482
G1 X78.890 Y71.940 E0.05926
G1 X79.720 Y71.385 E0.05926
G1 X80.503 Y71.229 E0.04733
G1 X80.700 Y71.190 E0.01192 F1080.000
G1 X81.680 Y71.385 E0.05926
G1 X82.510 Y71.940 E0.05926
G1 X83.065 Y72.770 E0.05926
G1 X83.246 Y73.677 E0.05482
G1 X83.246 Y75.823 E0.12736
G1 X83.065 Y76.730 E0.05482
G1 X82.510 Y77.560 E0.05926
G1 X81.680 Y78.115 E0.05926
G1 X80.700 Y78.310 E0.05926
G1 X79.779 Y78.127 E0.05570
G1 X79.906 Y77.667 F7800.000
G1 X79.233 Y77.217 E0.04804 F1080.000
G1 X78.783 Y76.544 E0.04804
G1 X78.630 Y75.777 E0.04643
G1 X78.630 Y73.723 E0.12180
G1 X78.783 Y72.956 E0.04643
G1 X79.233 Y72.283 E0.04804
G1 X79.906 Y71.833 E0.04804
G1 X80.596 Y71.695 E0.04172
G1 X80.700 Y71.675 E0.00631 F1080.000
G1 X81.494 Y71.833 E0.04803
G1 X82.167 Y72.283 E0.04804
G1 X82.617 Y72.956 E0.04804
G1 X82.770 Y73.723 E0.04643
G1 X82.770 Y75.777 E0.12180
G1 X82.617 Y76.544 E0.04643
G1 X82.167 Y77.217 E0.04804
G1 X81.494 Y77.667 E0.04804
G1 X80.700 Y77.825 E0.04803
G1 X79.965 Y77.679 E0.04447
G1 X79.573 Y77.890 F7800.000
G1 F6240
G1 X79.233 Y77.217 E-0.47437
G1 F6240
G1 X78.783 Y76.544 E-0.44381
G1 F6240
G1 X78.670 Y75.977 E-0.31682
G1 E-0.06500 F3600.00000
G1 X99.173 Y87.460 F7800.000
G1 E1.30000 F3600.00000
G1 X101.944 Y87.460 E0.16435 F1620.000
G1 X102.006 Y87.737 E0.01683
G1 X102.407 Y87.516 E0.02713
G1 X102.825 Y87.370 E0.02631
G1 X103.270 Y87.287 E0.02680
G1 X103.736 Y87.260 E0.02771
G1 X104.147 Y87.282 E0.02439
G1 X104.537 Y87.352 E0.02352
G1 X104.907 Y87.474 E0.02312
G1 X105.255 Y87.655 E0.02325
G1 X105.621 Y87.944 E0.02770
G1 X105.957 Y87.701 E0.02462
G1 X106.321 Y87.507 E0.02445
G1 X106.721 Y87.367 E0.02517
G1 X107.144 Y87.286 E0.02551
G1 X107.546 Y87.263 E0.02392
G1 X108.239 Y87.302 E0.04115
G1 X108.828 Y87.438 E0.03586
G1 X109.137 Y87.569 E0.01990
G1 X109.411 Y87.737 E0.01908
G1 X109.656 Y87.944 E0.01907
G1 X109.869 Y88.186 E0.01910
G1 X110.045 Y88.457 E0.01919
G1 X110.196 Y88.766 E0.02041
G1 X110.393 Y89.397 E0.03917
G1 X110.502 Y90.152 E0.04530
G1 X110.518 Y90.532 E0.02256
G1 X110.797 Y90.527 E0.01659
G1 X110.797 Y84.586 E0.35242
G1 X114.103 Y84.586 E0.19609
G1 X114.103 Y88.206 E0.21475
G1 X115.548 Y87.672 E0.09137
G1 X116.349 Y87.479 E0.04893
G1 X117.217 Y87.358 E0.05198
G1 X118.030 Y87.322 E0.04828
G1 X118.881 Y87.367 E0.05054
G1 X119.260 Y87.439 E0.02288
G1 X119.596 Y87.539 E0.02081
G1 X119.907 Y87.667 E0.01993
G1 X120.194 Y87.827 E0.01950
G1 X120.455 Y88.019 E0.01925
G1 X120.686 Y88.243 E0.01903
G1 X120.879 Y88.489 E0.01859
G1 X121.038 Y88.751 E0.01821
G1 X121.218 Y89.191 E0.02814
G1 X121.458 Y89.153 E0.01447
G1 X121.458 Y84.631 E0.26825
G1 X124.788 Y84.631 E0.19750
G1 X124.788 Y87.456 E0.16760
G1 X125.212 Y87.352 E0.02592
G1 X125.548 Y87.305 E0.02013
G1 X125.892 Y87.290 E0.02041
G1 X126.269 Y87.307 E0.02240
G1 X126.634 Y87.358 E0.02183
G1 X126.985 Y87.445 E0.02147
G1 X127.320 Y87.571 E0.02123
G1 X127.636 Y87.736 E0.02113
G1 X127.928 Y87.939 E0.02109
G1 X128.193 Y88.177 E0.02113
G1 X128.430 Y88.449 E0.02140
G1 X128.637 Y88.753 E0.02181
G1 X128.810 Y89.084 E0.02222
G1 X128.953 Y89.440 E0.02272
G1 X129.065 Y89.818 E0.02341
G1 X129.150 Y90.219 E0.02429
G1 X129.211 Y90.652 E0.02594
G1 X129.256 Y91.550 E0.05333
G1 X129.240 Y92.069 E0.03084
G1 X129.190 Y92.559 E0.02917
G1 X129.106 Y93.025 E0.02813
G1 X128.984 Y93.468 E0.02726
G1 X128.825 Y93.887 E0.02657
G1 X128.627 Y94.279 E0.02608
G1 X128.388 Y94.642 E0.02576
G1 X128.112 Y94.969 E0.02541
G1 X127.804 Y95.259 E0.02504
G1 X127.469 Y95.511 E0.02486
G1 X127.107 Y95.723 E0.02489
G1 X126.718 Y95.896 E0.02526
G1 X126.274 Y96.036 E0.02764
G1 X125.890 Y96.119 E0.02328
G1 X125.449 Y96.173 E0.02641
G1 X124.989 Y96.191 E0.02730
G1 X124.055 Y96.151 E0.05546
G1 X123.197 Y96.032 E0.05137
G1 X122.458 Y95.856 E0.04506
G1 X121.658 Y95.557 E0.05068
G1 X121.784 Y96.037 E0.02944
G1 X118.766 Y96.037 E0.17908
G1 X118.652 Y95.663 E0.02319
G1 X118.183 Y95.902 E0.03126
G1 X117.771 Y96.035 E0.02566
G1 X117.334 Y96.112 E0.02633
G1 X116.862 Y96.137 E0.02803
G1 X116.277 Y96.091 E0.03484
G1 X115.720 Y95.944 E0.03416
G1 X115.215 Y95.696 E0.03336
G1 X114.779 Y95.356 E0.03282
G1 X114.429 Y94.934 E0.03250
G1 X114.319 Y94.727 E0.01393
G1 X114.103 Y94.781 E0.01321
G1 X114.103 Y96.173 E0.08254
G1 X110.797 Y96.173 E0.19608
G1 X110.797 Y96.022 E0.00895
G1 X107.205 Y96.022 E0.21310
G1 X107.205 Y91.324 E0.27867
G1 X107.165 Y90.666 E0.03910
G1 X107.113 Y90.394 E0.01645
G1 X106.872 Y90.389 E0.01433
G1 X106.793 Y90.409 E0.00479
G1 X106.706 Y90.460 E0.00599
G1 X106.596 Y90.601 E0.01063
G1 X106.519 Y90.770 E0.01102
G1 X106.519 Y96.022 E0.31154
G1 X103.190 Y96.022 E0.19750
G1 X103.179 Y91.021 E0.29666
G1 X103.150 Y90.698 E0.01925
G1 X103.090 Y90.373 E0.01956
G1 X102.873 Y90.389 E0.01287
G1 X102.714 Y90.452 E0.01015
G1 X102.570 Y90.617 E0.01301
G1 X102.502 Y90.748 E0.00877
G1 X102.502 Y96.022 E0.31283
G1 X99.173 Y96.022 E0.19750
G1 X99.173 Y87.520 E0.50434
G1 F6240
G1 X101.426 Y87.471 E-1.23500
G1 E-0.06500 F3600.00000
G1 X121.934 Y85.106 F7800.000
G1 E1.30000 F3600.00000
G1 X124.312 Y85.106 E0.14107 F1080.000
G1 X124.312 Y88.200 E0.18353
G1 X124.756 Y87.984 E0.02927
G1 X125.023 Y87.888 E0.01683
G1 X125.302 Y87.820 E0.01703
G1 X125.591 Y87.780 E0.01736
G1 X125.892 Y87.766 E0.01784
G1 X126.226 Y87.781 E0.01982
G1 X126.543 Y87.825 E0.01900
G1 X126.843 Y87.900 E0.01836
G1 X127.126 Y88.006 E0.01789
G1 X127.389 Y88.144 E0.01763
G1 X127.632 Y88.312 E0.01754
G1 X127.853 Y88.511 E0.01765
G1 X128.053 Y88.740 E0.01798
G1 X128.228 Y88.998 E0.01850
G1 X128.378 Y89.284 E0.01916
G1 X128.503 Y89.596 E0.01999
G1 X128.604 Y89.936 E0.02100
G1 X128.682 Y90.301 E0.02217
G1 X128.737 Y90.697 E0.02370
G1 X128.780 Y91.554 E0.05092
G1 X128.765 Y92.038 E0.02871
G1 X128.719 Y92.492 E0.02709
G1 X128.641 Y92.920 E0.02579
G1 X128.532 Y93.321 E0.02466
G1 X128.390 Y93.695 E0.02372
G1 X128.215 Y94.040 E0.02298
G1 X128.006 Y94.357 E0.02248
G1 X127.765 Y94.642 E0.02214
G1 X127.498 Y94.895 E0.02185
G1 X127.205 Y95.114 E0.02167
G1 X126.890 Y95.299 E0.02172
G1 X126.550 Y95.451 E0.02206
G1 X126.152 Y95.575 E0.02474
G1 X125.811 Y95.649 E0.02071
G1 X125.410 Y95.699 E0.02393
G1 X124.990 Y95.715 E0.02498
G1 X124.097 Y95.677 E0.05297
G1 X123.285 Y95.564 E0.04866
G1 X122.597 Y95.400 E0.04195
G1 X121.934 Y95.152 E0.04200
G1 X121.934 Y85.166 E0.59237
G1 X121.934 Y84.706 F7800.000
G1 X114.810 Y88.452 F7800.000
G1 X115.686 Y88.128 E0.05544 F1080.000
G1 X116.438 Y87.946 E0.04588
G1 X117.260 Y87.832 E0.04926
G1 X118.028 Y87.798 E0.04559
G1 X118.824 Y87.840 E0.04727
G1 X119.148 Y87.902 E0.01956
G1 X119.437 Y87.988 E0.01791
G1 X119.700 Y88.096 E0.01683
G1 X119.937 Y88.228 E0.01609
G1 X120.148 Y88.384 E0.01555
G1 X120.332 Y88.562 E0.01518
G1 X120.487 Y88.760 E0.01498
G1 X120.617 Y88.974 E0.01485
G1 X120.722 Y89.205 E0.01504
G1 X120.803 Y89.454 E0.01555
G1 X120.899 Y89.970 E0.03112
G1 X120.931 Y90.537 E0.03371
G1 X120.840 Y93.033 E0.14815
G1 X120.844 Y93.620 E0.03485
G1 X120.874 Y94.184 E0.03350
G1 X120.944 Y94.713 E0.03161
G1 X121.167 Y95.561 E0.05204
G1 X119.118 Y95.561 E0.12156
G1 X118.897 Y94.834 E0.04509
G1 X118.570 Y95.119 E0.02577
G1 X118.305 Y95.306 E0.01919
G1 X118.000 Y95.462 E0.02033
G1 X117.657 Y95.573 E0.02142
G1 X117.280 Y95.638 E0.02266
G1 X116.868 Y95.660 E0.02448
G1 X116.356 Y95.620 E0.03045
G1 X115.887 Y95.496 E0.02882
G1 X115.469 Y95.291 E0.02761
G1 X115.112 Y95.013 E0.02683
G1 X114.826 Y94.668 E0.02659
G1 X114.613 Y94.268 E0.02687
G1 X114.480 Y93.820 E0.02776
G1 X114.437 Y93.330 E0.02916
G1 X114.457 Y92.980 E0.02077
G1 X114.518 Y92.657 E0.01953
G1 X114.622 Y92.356 E0.01886
G1 X114.769 Y92.084 E0.01838
G1 X114.955 Y91.840 E0.01820
G1 X115.174 Y91.623 E0.01829
G1 X115.425 Y91.432 E0.01874
G1 X115.707 Y91.268 E0.01936
G1 X116.018 Y91.129 E0.02016
G1 X116.353 Y91.015 E0.02098
G1 X116.711 Y90.925 E0.02194
G1 X117.098 Y90.857 E0.02327
G1 X117.923 Y90.787 E0.04913
G1 X118.586 Y90.791 E0.03934
G1 X118.575 Y90.410 E0.02257
G1 X118.537 Y90.206 E0.01236
G1 X118.480 Y90.074 E0.00851
G1 X118.402 Y89.988 E0.00688
G1 X118.271 Y89.918 E0.00885
G1 X118.057 Y89.866 E0.01302
G1 X117.760 Y89.847 E0.01767
G1 X117.221 Y89.874 E0.03201
G1 X116.645 Y89.956 E0.03449
G1 X116.114 Y90.081 E0.03238
G1 X115.413 Y90.340 E0.04431
G1 X114.828 Y88.509 E0.11405
G1 X114.677 Y88.075 F7800.000
G1 X113.627 Y85.061 F7800.000
G1 X113.627 Y95.697 E0.63092 F1080.000
G1 X111.273 Y95.697 E0.13966
G1 X111.273 Y85.061 E0.63092
G1 X113.567 Y85.061 E0.13610
G1 X114.027 Y85.061 F7800.000
G1 F6240
G1 X113.580 Y87.315 E-1.23500
G1 E-0.06500 F3600.00000
G1 X110.062 Y95.546 F7800.000
G1 E1.30000 F3600.00000
G1 X107.681 Y95.546 E0.14127 F1458.000
G1 X107.681 Y91.310 E0.25130
G1 X107.638 Y90.607 E0.04176
G1 X107.590 Y90.353 E0.01535
