; generated by Slic3r 1.2.9 on 2020-05-25 at 12:27:15

; external perimeters extrusion width = 0.40mm
; perimeters extrusion width = 0.56mm
; infill extrusion width = 0.56mm
; solid infill extrusion width = 0.56mm
; top infill extrusion width = 0.56mm

M107
M190 S60 ; set bed temperature
M104 S215 ; set temperature
G28 ; home all axes
G92 E0.0 ; reset extruder
M109 S215 ; wait for temperature to be reached
G21 ; set units to millimeters
G90 ; use absolute coordinates
M83 ; use relative distances for extrusion
G1 E-1.30000 F3600.00000
G1 Z0.300 F7800.000
G1 X48.867 Y58.240 F7800.000
G1 E1.30000 F3600.00000
M204 S500
G1 X51.392 Y56.708 E0.17519 F2160.000
G1 X54.234 Y55.906 E0.17519
G1 X55.760 Y55.799 E0.09074
G1 X144.240 Y55.799 E5.24885
G1 X147.167 Y56.197 E0.17519
G1 X149.880 Y57.362 E0.17519 F2160.000
G1 X152.183 Y59.211 E0.17519
G1 X153.909 Y61.607 E0.17519
G1 X154.531 Y63.004 E0.09074
G1 X159.991 Y78.004 E0.94694
G1 X160.651 Y81.750 E0.22562
G1 X160.651 Y133.250 E3.05508
G1 X160.253 Y136.176 E0.17519
G1 X159.087 Y138.890 E0.17519
G1 X157.239 Y141.193 E0.17519
G1 X154.843 Y142.919 E0.17519
G1 X152.072 Y143.941 E0.17519
G1 X149.700 Y144.201 E0.14158
G1 X50.300 Y144.201 E5.89660
G1 X47.374 Y143.803 E0.17519
G1 X44.660 Y142.637 E0.17519
G1 X42.357 Y140.789 E0.17519
G1 X40.631 Y138.393 E0.17519
G1 X39.609 Y135.622 E0.17519
G1 X39.349 Y133.250 E0.14158
G1 X39.349 Y81.750 E3.05508
G1 X40.009 Y78.004 E0.22562
G1 X45.469 Y63.004 E0.94694
G1 X46.844 Y60.391 E0.17519
G1 X48.826 Y58.284 E0.17163
G1 X49.220 Y58.578 F7800.000
G1 X49.266 Y58.530 E0.00394 F2160.000
G1 X51.757 Y57.069 E0.17132
G1 X55.760 Y56.274 E0.24206
G1 X144.240 Y56.274 E5.24885
G1 X147.101 Y56.672 E0.17132
G1 X149.744 Y57.836 E0.17132 F2160.000
G1 X151.969 Y59.678 E0.17132
G1 X154.084 Y63.167 E0.24206
G1 X159.544 Y78.167 E0.94694
G1 X160.176 Y81.750 E0.21582
G1 X160.176 Y133.250 E3.05508
G1 X159.778 Y136.110 E0.17132
G1 X158.614 Y138.753 E0.17132
G1 X156.772 Y140.978 E0.17132
G1 X154.393 Y142.616 E0.17132
G1 X151.657 Y143.541 E0.17132
G1 X149.700 Y143.726 E0.11663
G1 X50.300 Y143.726 E5.89660
G1 X47.440 Y143.328 E0.17132
G1 X44.797 Y142.164 E0.17132
G1 X42.572 Y140.322 E0.17132
G1 X40.934 Y137.943 E0.17132
G1 X40.009 Y135.207 E0.17132
G1 X39.824 Y133.250 E0.11663
G1 X39.824 Y81.750 E3.05508
G1 X40.456 Y78.167 E0.21582
G1 X45.916 Y63.167 E0.94694
G1 X47.268 Y60.615 E0.17132
G1 X49.178 Y58.621 E0.16382
G1 F6240
G1 X49.266 Y58.530 E-0.06932
G1 F6240
G1 X51.101 Y57.454 E-1.16568
G1 E-0.06500 F3600.00000
G1 X82.846 Y122.323 F7800.000
G1 E1.30000 F3600.00000
G1 X82.665 Y123.230 E0.05482 F1620.000
G1 X82.110 Y124.060 E0.05926
G1 X81.280 Y124.615 E0.05926
G1 X80.300 Y124.810 E0.05926
G1 X79.320 Y124.615 E0.05926
G1 X78.490 Y124.060 E0.05926
G1 X77.935 Y123.230 E0.05926
G1 X77.754 Y122.323 E0.05482
G1 X77.754 Y107.177 E0.89854
G1 X77.935 Y106.270 E0.05482
G1 X78.490 Y105.440 E0.05926
G1 X79.320 Y104.885 E0.05926
G1 X80.103 Y104.729 E0.04733
G1 X80.300 Y104.690 E0.01192 F1620.000
G1 X81.280 Y104.885 E0.05926
G1 X82.110 Y105.440 E0.05926
G1 X82.665 Y106.270 E0.05926
G1 X82.846 Y107.177 E0.05482
G1 X82.846 Y122.263 E0.89498
G1 X82.370 Y122.277 F7800.000
G1 X82.217 Y123.044 E0.04642 F1458.000
G1 X81.767 Y123.717 E0.04804
G1 X81.094 Y124.167 E0.04804
G1 X80.300 Y124.325 E0.04803
G1 X79.506 Y124.167 E0.04803
G1 X78.833 Y123.717 E0.04804
G1 X78.383 Y123.044 E0.04804
G1 X78.230 Y122.277 E0.04642
G1 X78.230 Y107.223 E0.89298
G1 X78.383 Y106.456 E0.04642
G1 X78.833 Y105.783 E0.04804
G1 X79.506 Y105.333 E0.04804
G1 X80.196 Y105.195 E0.04172
G1 X80.300 Y105.175 E0.00631 F1458.000
G1 X81.094 Y105.333 E0.04803
G1 X81.767 Y105.783 E0.04804
G1 X82.217 Y106.456 E0.04804
G1 X82.370 Y107.223 E0.04642
G1 X82.370 Y122.217 E0.88942
G1 X82.687 Y122.520 F7800.000
G1 F6240
G1 X82.217 Y123.044 E-0.46122
G1 F6240
G1 X81.767 Y123.717 E-0.44382
G1 F6240
G1 X81.267 Y124.052 E-0.32996
G1 E-0.06500 F3600.00000
G1 X72.846 Y122.277 F7800.000
G1 E1.30000 F3600.00000
G1 X72.665 Y123.230 E0.05754 F1620.000
G1 X72.110 Y124.060 E0.05926
G1 X71.280 Y124.615 E0.05926
G1 X70.300 Y124.810 E0.05926
G1 X69.320 Y124.615 E0.05926
G1 X68.490 Y124.060 E0.05926
G1 X67.935 Y123.230 E0.05926
G1 X67.754 Y122.323 E0.05482
G1 X67.754 Y107.177 E0.89854
G1 X67.935 Y106.270 E0.05482
G1 X68.490 Y105.440 E0.05926
G1 X69.320 Y104.885 E0.05926
G1 X70.103 Y104.729 E0.04733
G1 X70.300 Y104.690 E0.01192 F1620.000
G1 X71.280 Y104.885 E0.05926
G1 X72.110 Y105.440 E0.05926
G1 X72.665 Y106.270 E0.05926
G1 X72.846 Y107.177 E0.05482
G1 X72.846 Y122.217 E0.89220
G1 X72.370 Y122.277 F7800.000
G1 X72.217 Y123.044 E0.04642 F1458.000
G1 X71.767 Y123.717 E0.04804
G1 X71.094 Y124.167 E0.04804
G1 X70.300 Y124.325 E0.04803
G1 X69.506 Y124.167 E0.04803
G1 X68.833 Y123.717 E0.04804
G1 X68.383 Y123.044 E0.04804
G1 X68.230 Y122.277 E0.04642
G1 X68.230 Y107.223 E0.89298
G1 X68.383 Y106.456 E0.04642
G1 X68.833 Y105.783 E0.04804
G1 X69.506 Y105.333 E0.04804
G1 X70.196 Y105.195 E0.04172
G1 X70.300 Y105.175 E0.00631 F1458.000
G1 X71.094 Y105.333 E0.04803
G1 X71.767 Y105.783 E0.04804
G1 X72.217 Y106.456 E0.04804
G1 X72.370 Y107.223 E0.04642
G1 X72.370 Y122.217 E0.88942
G1 X72.687 Y122.520 F7800.000
G1 F6240
G1 X72.217 Y123.044 E-0.46122
G1 F6240
G1 X71.767 Y123.717 E-0.44382
G1 F6240
G1 X71.267 Y124.052 E-0.32996
G1 E-0.06500 F3600.00000
G1 X62.846 Y122.277 F7800.000
G1 E1.30000 F3600.00000
G1 X62.665 Y123.230 E0.05754 F1620.000
G1 X62.110 Y124.060 E0.05926
G1 X61.280 Y124.615 E0.05926
G1 X60.300 Y124.810 E0.05926
G1 X59.320 Y124.615 E0.05926
G1 X58.490 Y124.060 E0.05926
G1 X57.935 Y123.230 E0.05926
G1 X57.754 Y122.323 E0.05482
G1 X57.754 Y107.177 E0.89854
G1 X57.935 Y106.270 E0.05482
G1 X58.490 Y105.440 E0.05926
G1 X59.320 Y104.885 E0.05926
G1 X60.103 Y104.729 E0.04734
G1 X60.300 Y104.690 E0.01192 F1620.000
G1 X61.280 Y104.885 E0.05926
G1 X62.110 Y105.440 E0.05926
G1 X62.665 Y106.270 E0.05926
G1 X62.846 Y107.177 E0.05482
G1 X62.846 Y122.217 E0.89220
G1 X62.370 Y122.277 F7800.000
G1 X62.217 Y123.044 E0.04642 F1458.000
G1 X61.767 Y123.717 E0.04804
G1 X61.094 Y124.167 E0.04804
G1 X60.300 Y124.325 E0.04803
G1 X59.506 Y124.167 E0.04803
G1 X58.833 Y123.717 E0.04804
G1 X58.383 Y123.044 E0.04804
G1 X58.230 Y122.277 E0.04642
G1 X58.230 Y107.223 E0.89298
G1 X58.383 Y106.456 E0.04642
G1 X58.833 Y105.783 E0.04804
G1 X59.506 Y105.333 E0.04804
G1 X60.196 Y105.195 E0.04172
G1 X60.300 Y105.175 E0.00631 F1458.000
G1 X61.094 Y105.333 E0.04803
G1 X61.767 Y105.783 E0.04804
G1 X62.217 Y106.456 E0.04804
G1 X62.370 Y107.223 E0.04642
G1 X62.370 Y122.217 E0.88942
G1 X62.687 Y122.520 F7800.000
G1 F6240
G1 X62.217 Y123.044 E-0.46122
G1 F6240
G1 X61.767 Y123.717 E-0.44382
G1 F6240
G1 X61.267 Y124.052 E-0.32996
G1 E-0.06500 F3600.00000
G1 X87.754 Y122.277 F7800.000
G1 E1.30000 F3600.00000
G1 X87.754 Y107.177 E0.89576 F1620.000
G1 X87.935 Y106.270 E0.05482
G1 X88.490 Y105.440 E0.05926
G1 X89.320 Y104.885 E0.05926
G1 X90.103 Y104.729 E0.04733
G1 X90.300 Y104.690 E0.01192 F1620.000
G1 X91.280 Y104.885 E0.05926
G1 X92.110 Y105.440 E0.05926
G1 X92.665 Y106.270 E0.05926
G1 X92.846 Y107.177 E0.05482
G1 X92.846 Y122.323 E0.89854
G1 X92.665 Y123.230 E0.05482
G1 X92.110 Y124.060 E0.05926
G1 X91.280 Y124.615 E0.05926
G1 X90.300 Y124.810 E0.05926
G1 X89.320 Y124.615 E0.05926
G1 X88.490 Y124.060 E0.05926
G1 X87.935 Y123.230 E0.05926
G1 X87.757 Y122.336 E0.05403
G1 X88.230 Y122.277 F7800.000
G1 X88.230 Y107.223 E0.89298 F1458.000
G1 X88.383 Y106.456 E0.04642
G1 X88.833 Y105.783 E0.04804
G1 X89.506 Y105.333 E0.04804
G1 X90.196 Y105.195 E0.04172
G1 X90.300 Y105.175 E0.00631 F1458.000
G1 X91.094 Y105.333 E0.04803
G1 X91.767 Y105.783 E0.04804
G1 X92.217 Y106.456 E0.04804
G1 X92.370 Y107.223 E0.04642
G1 X92.370 Y122.277 E0.89298
G1 X92.217 Y123.044 E0.04642
G1 X91.767 Y123.717 E0.04804
G1 X91.094 Y124.167 E0.04804
G1 X90.300 Y124.325 E0.04803
G1 X89.506 Y124.167 E0.04803
G1 X88.833 Y123.717 E0.04804
G1 X88.383 Y123.044 E0.04804
G1 X88.242 Y122.335 E0.04287
G1 X87.871 Y122.100 F7800.000
G1 F6240
G1 X88.240 Y120.082 E-1.23500
G1 E-0.06500 F3600.00000
G1 X97.754 Y122.277 F7800.000
G1 E1.30000 F3600.00000
G1 X97.754 Y107.177 E0.89576 F1620.000
G1 X97.935 Y106.270 E0.05481
G1 X98.490 Y105.440 E0.05926
G1 X99.320 Y104.885 E0.05926
G1 X100.103 Y104.729 E0.04733
G1 X100.300 Y104.690 E0.01192 F1620.000
G1 X101.280 Y104.885 E0.05926
G1 X102.110 Y105.440 E0.05926
G1 X102.665 Y106.270 E0.05926
G1 X102.846 Y107.177 E0.05482
G1 X102.846 Y122.323 E0.89854
G1 X102.665 Y123.230 E0.05482
G1 X102.110 Y124.060 E0.05926
G1 X101.280 Y124.615 E0.05926
G1 X100.300 Y124.810 E0.05926
G1 X99.320 Y124.615 E0.05926
G1 X98.490 Y124.060 E0.05926
G1 X97.935 Y123.230 E0.05926
G1 X97.757 Y122.336 E0.05403
G1 X98.230 Y122.277 F7800.000
G1 X98.230 Y107.223 E0.89298 F1458.000
G1 X98.383 Y106.456 E0.04642
G1 X98.833 Y105.783 E0.04804
G1 X99.506 Y105.333 E0.04804
G1 X100.196 Y105.195 E0.04172
G1 X100.300 Y105.175 E0.00631 F1458.000
G1 X101.094 Y105.333 E0.04803
G1 X101.767 Y105.783 E0.04804
G1 X102.217 Y106.456 E0.04804
G1 X102.370 Y107.223 E0.04642
G1 X102.370 Y122.277 E0.89298
G1 X102.217 Y123.044 E0.04642
G1 X101.767 Y123.717 E0.04804
G1 X101.094 Y124.167 E0.04804
G1 X100.300 Y124.325 E0.04803
G1 X99.506 Y124.167 E0.04803
G1 X98.833 Y123.717 E0.04804
G1 X98.383 Y123.044 E0.04804
G1 X98.242 Y122.335 E0.04287
G1 X97.871 Y122.100 F7800.000
G1 F6240
G1 X98.240 Y120.082 E-1.23500
G1 E-0.06500 F3600.00000
G1 X107.754 Y122.277 F7800.000
G1 E1.30000 F3600.00000
G1 X107.754 Y107.177 E0.89576 F1620.000
G1 X107.935 Y106.270 E0.05482
G1 X108.490 Y105.440 E0.05926
G1 X109.320 Y104.885 E0.05926
G1 X110.103 Y104.729 E0.04733
G1 X110.300 Y104.690 E0.01192 F1620.000
G1 X111.280 Y104.885 E0.05926
G1 X112.110 Y105.440 E0.05926
G1 X112.665 Y106.270 E0.05926
G1 X112.846 Y107.177 E0.05482
G1 X112.846 Y122.323 E0.89854
G1 X112.665 Y123.230 E0.05482
G1 X112.110 Y124.060 E0.05926
G1 X111.280 Y124.615 E0.05926
G1 X110.300 Y124.810 E0.05926
G1 X109.320 Y124.615 E0.05926
G1 X108.490 Y124.060 E0.05926
G1 X107.935 Y123.230 E0.05926
G1 X107.757 Y122.336 E0.05403
G1 X108.230 Y122.277 F7800.000
G1 X108.230 Y107.223 E0.89298 F1458.000
G1 X108.383 Y106.456 E0.04642
G1 X108.833 Y105.783 E0.04804
G1 X109.506 Y105.333 E0.04804
G1 X110.196 Y105.195 E0.04172
G1 X110.300 Y105.175 E0.00631 F1458.000
G1 X111.094 Y105.333 E0.04803
G1 X111.767 Y105.783 E0.04804
G1 X112.217 Y106.456 E0.04804
G1 X112.370 Y107.223 E0.04642
G1 X112.370 Y122.277 E0.89298
G1 X112.217 Y123.044 E0.04642
G1 X111.767 Y123.717 E0.04804
G1 X111.094 Y124.167 E0.04804
G1 X110.300 Y124.325 E0.04803
G1 X109.506 Y124.167 E0.04803
G1 X108.833 Y123.717 E0.04804
G1 X108.383 Y123.044 E0.04804
G1 X108.242 Y122.335 E0.04287
G1 X107.871 Y122.100 F7800.000
G1 F6240
G1 X108.240 Y120.082 E-1.23500
G1 E-0.06500 F3600.00000
G1 X117.754 Y122.277 F7800.000
G1 E1.30000 F3600.00000
G1 X117.754 Y107.177 E0.89576 F1620.000
G1 X117.935 Y106.270 E0.05482
G1 X118.490 Y105.440 E0.05926
G1 X119.320 Y104.885 E0.05926
G1 X120.103 Y104.729 E0.04734
G1 X120.300 Y104.690 E0.01192 F1620.000
G1 X121.280 Y104.885 E0.05926
G1 X122.110 Y105.440 E0.05926
G1 X122.665 Y106.270 E0.05926
G1 X122.846 Y107.177 E0.05482
G1 X122.846 Y122.323 E0.89854
G1 X122.665 Y123.230 E0.05482
G1 X122.110 Y124.060 E0.05926
G1 X121.280 Y124.615 E0.05926
G1 X120.300 Y124.810 E0.05926
G1 X119.320 Y124.615 E0.05926
G1 X118.490 Y124.060 E0.05926
G1 X117.935 Y123.230 E0.05926
G1 X117.757 Y122.336 E0.05404
G1 X118.230 Y122.277 F7800.000
G1 X118.230 Y107.223 E0.89298 F1458.000
G1 X118.383 Y106.456 E0.04642
G1 X118.833 Y105.783 E0.04804
G1 X119.506 Y105.333 E0.04804
G1 X120.196 Y105.195 E0.04172
G1 X120.300 Y105.175 E0.00631 F1458.000
G1 X121.094 Y105.333 E0.04803
G1 X121.767 Y105.783 E0.04804
G1 X122.217 Y106.456 E0.04804
G1 X122.370 Y107.223 E0.04642
G1 X122.370 Y122.277 E0.89298
G1 X122.217 Y123.044 E0.04642
G1 X121.767 Y123.717 E0.04804
G1 X121.094 Y124.167 E0.04804
G1 X120.300 Y124.325 E0.04803
G1 X119.506 Y124.167 E0.04803
G1 X118.833 Y123.717 E0.04804
G1 X118.383 Y123.044 E0.04804
G1 X118.242 Y122.335 E0.04287
G1 X117.871 Y122.100 F7800.000
G1 F6240
G1 X118.240 Y120.082 E-1.23500
G1 E-0.06500 F3600.00000
G1 X127.754 Y122.277 F7800.000
G1 E1.30000 F3600.00000
G1 X127.754 Y107.177 E0.89576 F1620.000
G1 X127.935 Y106.270 E0.05482
G1 X128.490 Y105.440 E0.05926
G1 X129.320 Y104.885 E0.05926
G1 X130.103 Y104.729 E0.04734
G1 X130.300 Y104.690 E0.01192 F1620.000
G1 X131.280 Y104.885 E0.05926
G1 X132.110 Y105.440 E0.05926
G1 X132.665 Y106.270 E0.05926
G1 X132.846 Y107.177 E0.05482
G1 X132.846 Y122.323 E0.89854
G1 X132.665 Y123.230 E0.05482
G1 X132.110 Y124.060 E0.05926
G1 X131.280 Y124.615 E0.05926
G1 X130.300 Y124.810 E0.05926
G1 X129.320 Y124.615 E0.05926
G1 X128.490 Y124.060 E0.05926
G1 X127.935 Y123.230 E0.05926
G1 X127.757 Y122.336 E0.05404
G1 X128.230 Y122.277 F7800.000
G1 X128.230 Y107.223 E0.89298 F1458.000
G1 X128.383 Y106.456 E0.04643
G1 X128.833 Y105.783 E0.04804
G1 X129.506 Y105.333 E0.04804
G1 X130.196 Y105.195 E0.04172
G1 X130.300 Y105.175 E0.00631 F1458.000
G1 X131.094 Y105.333 E0.04803
G1 X131.767 Y105.783 E0.04804
G1 X132.217 Y106.456 E0.04804
G1 X132.370 Y107.223 E0.04642
G1 X132.370 Y122.277 E0.89298
G1 X132.217 Y123.044 E0.04642
G1 X131.767 Y123.717 E0.04804
G1 X131.094 Y124.167 E0.04804
G1 X130.300 Y124.325 E0.04803
G1 X129.506 Y124.167 E0.04803
G1 X128.833 Y123.717 E0.04804
G1 X128.383 Y123.044 E0.04804
G1 X128.242 Y122.335 E0.04287
G1 X127.871 Y122.100 F7800.000
G1 F6240
G1 X128.240 Y120.082 E-1.23500
G1 E-0.06500 F3600.00000
G1 X137.754 Y122.277 F7800.000
G1 E1.30000 F3600.00000
G1 X137.754 Y107.177 E0.89576 F1620.000
G1 X137.935 Y106.270 E0.05482
G1 X138.490 Y105.440 E0.05926
G1 X139.320 Y104.885 E0.05926
G1 X140.103 Y104.729 E0.04733
G1 X140.300 Y104.690 E0.01192 F1620.000
G1 X141.280 Y104.885 E0.05926
G1 X142.110 Y105.440 E0.05926
G1 X142.665 Y106.270 E0.05926
G1 X142.846 Y107.177 E0.05482
G1 X142.846 Y122.323 E0.89854
G1 X142.665 Y123.230 E0.05481
G1 X142.110 Y124.060 E0.05926
G1 X141.280 Y124.615 E0.05926
G1 X140.300 Y124.810 E0.05926
G1 X139.320 Y124.615 E0.05926
G1 X138.490 Y124.060 E0.05926
G1 X137.935 Y123.230 E0.05926
G1 X137.757 Y122.336 E0.05404
G1 X138.230 Y122.277 F7800.000
G1 X138.230 Y107.223 E0.89298 F1458.000
G1 X138.383 Y106.456 E0.04642
G1 X138.833 Y105.783 E0.04804
G1 X139.506 Y105.333 E0.04804 F1458.000
G1 X140.300 Y105.175 E0.04803
G1 X141.094 Y105.333 E0.04803
G1 X141.767 Y105.783 E0.04804
G1 X142.217 Y106.456 E0.04804
G1 X142.370 Y107.223 E0.04642
G1 X142.370 Y122.277 E0.89298
G1 X142.217 Y123.044 E0.04642
G1 X141.767 Y123.717 E0.04804
G1 X141.094 Y124.167 E0.04804
G1 X140.300 Y124.325 E0.04803
G1 X139.506 Y124.167 E0.04803
G1 X138.833 Y123.717 E0.04804
G1 X138.383 Y123.044 E0.04804
G1 X138.242 Y122.335 E0.04287
G1 X137.871 Y122.100 F7800.000
G1 X130.315 Y92.447 F7800.000
G1 X127.546 Y92.447 E0.16424 F1620.000
G1 X127.468 Y92.189 E0.01598
G1 X127.200 Y92.325 E0.01782
G1 X126.839 Y92.442 E0.02250
G1 X126.459 Y92.508 E0.02290
G1 X126.050 Y92.530 E0.02428
G1 X125.543 Y92.490 E0.03017
G1 X125.056 Y92.362 E0.02987
G1 X124.613 Y92.144 E0.02929
G1 X124.229 Y91.845 E0.02891
G1 X123.877 Y91.420 E0.03273
G1 X123.877 Y92.560 E0.06762
G1 X120.873 Y92.560 E0.17815
G1 X120.873 Y92.434 E0.00745
G1 X117.880 Y92.434 E0.17759
G1 X117.880 Y88.399 E0.23937
G1 X117.847 Y87.858 E0.03217
G1 X117.625 Y87.819 E0.01338
G1 X117.557 Y87.977 E0.01022
G1 X117.557 Y92.434 E0.26439
G1 X114.534 Y92.434 E0.17933
G1 X114.534 Y88.504 E0.23312
G1 X114.498 Y87.846 E0.03913
G1 X114.284 Y87.800 E0.01294
G1 X114.210 Y87.945 E0.00969
G1 X114.210 Y92.434 E0.26627
G1 X111.187 Y92.434 E0.17933
G1 X111.187 Y85.051 E0.43799
G1 X113.719 Y85.051 E0.15022
G1 X113.757 Y85.217 E0.01011
G1 X113.955 Y85.107 E0.01343
G1 X114.322 Y84.979 E0.02310
G1 X114.710 Y84.907 E0.02337
G1 X115.113 Y84.884 E0.02398
G1 X115.470 Y84.903 E0.02118
G1 X115.811 Y84.964 E0.02057
G1 X116.138 Y85.072 E0.02038
G1 X116.447 Y85.233 E0.02068
G1 X116.687 Y85.423 E0.01820
G1 X116.898 Y85.270 E0.01544
G1 X117.217 Y85.100 E0.02145
G1 X117.569 Y84.977 E0.02209
G1 X117.938 Y84.907 E0.02228
