; generated by Slic3r 1.2.9 on 2020-05-14 at 22:32:45

; external perimeters extrusion width = 0.40mm
; perimeters extrusion width = 0.56mm
; infill extrusion width = 0.56mm
; solid infill extrusion width = 0.56mm
; top infill extrusion width = 0.56mm

M107
M190 S60 ; set bed temperature
M104 S215 ; set temperature
G28 ; home all axes
G92 E0.0 ; reset extruder
M109 S215 ; wait for temperature to be reached
G21 ; set units to millimeters
G90 ; use absolute coordinates
M83 ; use relative distances for extrusion
G1 E-1.30000 F3600.00000
G1 Z0.300 F7800.000
G1 X63.947 Y63.947 F7800.000
G1 E1.30000 F3600.00000
M204 S500
G1 X70.103 Y57.791 E0.51645 F2160.000
G1 X72.217 Y56.142 E0.15903
G1 X75.042 Y54.448 E0.19544
G1 X75.990 Y53.941 E0.06377
G1 X79.628 Y52.221 E0.23869
G1 X80.621 Y51.810 E0.06375
G1 X84.409 Y50.454 E0.23868
G1 X85.437 Y50.142 E0.06376
G1 X88.633 Y49.342 E0.19544
G1 X91.294 Y49.014 E0.15904
G1 X108.706 Y49.014 E1.03290
G1 X111.367 Y49.342 E0.15905
G1 X114.563 Y50.142 E0.19544 F2160.000
G1 X115.591 Y50.454 E0.06376
G1 X119.379 Y51.810 E0.23868
G1 X120.372 Y52.221 E0.06375
G1 X124.010 Y53.941 E0.23869
G1 X124.958 Y54.448 E0.06377
G1 X127.783 Y56.142 E0.19544
G1 X129.897 Y57.791 E0.15903
G1 X142.209 Y70.103 E1.03289
G1 X143.858 Y72.217 E0.15903
G1 X145.552 Y75.042 E0.19544
G1 X146.059 Y75.990 E0.06377
G1 X147.779 Y79.628 E0.23869
G1 X148.190 Y80.621 E0.06375
G1 X149.546 Y84.409 E0.23868
G1 X149.858 Y85.437 E0.06376
G1 X150.658 Y88.633 E0.19544
G1 X150.986 Y91.294 E0.15904
G1 X150.986 Y108.706 E1.03290
G1 X150.658 Y111.367 E0.15904
G1 X149.858 Y114.563 E0.19544
G1 X149.546 Y115.591 E0.06376
G1 X148.190 Y119.379 E0.23868
G1 X147.779 Y120.372 E0.06375
G1 X146.059 Y124.010 E0.23869
G1 X145.552 Y124.958 E0.06377
G1 X143.858 Y127.783 E0.19544
G1 X142.209 Y129.897 E0.15903
G1 X129.897 Y142.209 E1.03289
G1 X127.783 Y143.858 E0.15903
G1 X124.958 Y145.552 E0.19545
G1 X124.010 Y146.059 E0.06377
G1 X120.372 Y147.779 E0.23869
G1 X119.379 Y148.190 E0.06374
G1 X115.591 Y149.546 E0.23869
G1 X114.563 Y149.858 E0.06376
G1 X111.367 Y150.658 E0.19544
G1 X108.706 Y150.986 E0.15905
G1 X91.294 Y150.986 E1.03290
G1 X88.633 Y150.658 E0.15904
G1 X85.437 Y149.858 E0.19545
G1 X84.409 Y149.546 E0.06376
G1 X80.621 Y148.190 E0.23868
G1 X79.628 Y147.779 E0.06375
G1 X75.990 Y146.059 E0.23869
G1 X75.043 Y145.552 E0.06376
G1 X72.217 Y143.858 E0.19545
G1 X70.103 Y142.209 E0.15903
G1 X57.791 Y129.897 E1.03289
G1 X56.142 Y127.783 E0.15903
G1 X54.448 Y124.958 E0.19544
G1 X53.941 Y124.010 E0.06377
G1 X52.221 Y120.372 E0.23869
G1 X51.810 Y119.379 E0.06375
G1 X50.454 Y115.591 E0.23868
G1 X50.142 Y114.563 E0.06376
G1 X49.342 Y111.367 E0.19544
G1 X49.014 Y108.706 E0.15905
G1 X49.014 Y91.294 E1.03290
G1 X49.342 Y88.633 E0.15905
G1 X50.142 Y85.437 E0.19544
G1 X50.454 Y84.409 E0.06376
G1 X51.810 Y80.621 E0.23868
G1 X52.221 Y79.628 E0.06375
G1 X53.941 Y75.990 E0.23869
G1 X54.448 Y75.042 E0.06377
G1 X56.142 Y72.217 E0.19544
G1 X57.791 Y70.103 E0.15903
G1 X63.905 Y63.990 E0.51289
G1 X64.284 Y64.284 F7800.000
G1 X70.440 Y58.128 E0.51645 F2160.000
G1 X72.461 Y56.550 E0.15213
G1 X75.287 Y54.856 E0.19544
G1 X76.194 Y54.371 E0.06100
G1 X79.831 Y52.651 E0.23869
G1 X80.781 Y52.258 E0.06098
G1 X84.569 Y50.902 E0.23868
G1 X85.553 Y50.604 E0.06099
G1 X88.749 Y49.803 E0.19544
G1 X91.294 Y49.489 E0.15214
G1 X108.706 Y49.489 E1.03290
G1 X111.251 Y49.803 E0.15214
G1 X114.447 Y50.604 E0.19544 F2160.000
G1 X115.431 Y50.902 E0.06099
G1 X119.219 Y52.258 E0.23868
G1 X120.169 Y52.651 E0.06098
G1 X123.806 Y54.371 E0.23869
G1 X124.713 Y54.856 E0.06100
G1 X127.539 Y56.550 E0.19544
G1 X129.560 Y58.128 E0.15213
G1 X141.872 Y70.440 E1.03289
G1 X143.450 Y72.461 E0.15213
G1 X145.144 Y75.287 E0.19544
G1 X145.629 Y76.194 E0.06100
G1 X147.349 Y79.831 E0.23869
G1 X147.742 Y80.781 E0.06098
G1 X149.098 Y84.569 E0.23868
G1 X149.396 Y85.553 E0.06099
G1 X150.197 Y88.749 E0.19544
G1 X150.511 Y91.294 E0.15214
G1 X150.511 Y108.706 E1.03290
G1 X150.197 Y111.251 E0.15214
G1 X149.396 Y114.447 E0.19544
G1 X149.098 Y115.431 E0.06099
G1 X147.742 Y119.219 E0.23868
G1 X147.349 Y120.169 E0.06098
G1 X145.629 Y123.806 E0.23869
G1 X145.144 Y124.713 E0.06100
G1 X143.450 Y127.539 E0.19544
G1 X141.872 Y129.560 E0.15213
G1 X129.560 Y141.872 E1.03289
G1 X127.539 Y143.450 E0.15212
G1 X124.713 Y145.144 E0.19545
G1 X123.806 Y145.629 E0.06100
G1 X120.169 Y147.349 E0.23869
G1 X119.219 Y147.742 E0.06097
G1 X115.431 Y149.098 E0.23869
G1 X114.447 Y149.396 E0.06099
G1 X111.251 Y150.197 E0.19544
G1 X108.706 Y150.511 E0.15214
G1 X91.294 Y150.511 E1.03290
G1 X88.749 Y150.197 E0.15213
G1 X85.553 Y149.396 E0.19545
G1 X84.569 Y149.098 E0.06099
G1 X80.781 Y147.742 E0.23868
G1 X79.831 Y147.349 E0.06098
G1 X76.194 Y145.629 E0.23869
G1 X75.287 Y145.144 E0.06099
G1 X72.461 Y143.450 E0.19545
G1 X70.440 Y141.872 E0.15213
G1 X58.128 Y129.560 E1.03289
G1 X56.550 Y127.539 E0.15213
G1 X54.856 Y124.713 E0.19544
G1 X54.371 Y123.806 E0.06100
G1 X52.651 Y120.169 E0.23869
G1 X52.258 Y119.219 E0.06098
G1 X50.902 Y115.431 E0.23868
G1 X50.604 Y114.447 E0.06099
G1 X49.803 Y111.251 E0.19544
G1 X49.489 Y108.706 E0.15214
G1 X49.489 Y91.294 E1.03290
G1 X49.803 Y88.749 E0.15214
G1 X50.604 Y85.553 E0.19544
G1 X50.902 Y84.569 E0.06099
G1 X52.258 Y80.781 E0.23868
G1 X52.651 Y79.831 E0.06098
G1 X54.371 Y76.194 E0.23869
G1 X54.856 Y75.287 E0.06100
G1 X56.550 Y72.461 E0.19544
G1 X58.128 Y70.440 E0.15213
G1 X64.241 Y64.326 E0.51289
G1 F6240
G1 X65.834 Y62.733 E-1.23500
G1 E-0.06500 F3600.00000
G1 X103.446 Y103.827 F7800.000
G1 E1.30000 F3600.00000
G1 X102.575 Y104.460 E0.06386 F1080.000
G1 X101.591 Y104.898 E0.06387
G1 X100.538 Y105.122 E0.06386
G1 X99.462 Y105.122 E0.06387
G1 X98.409 Y104.898 E0.06386
G1 X97.425 Y104.460 E0.06387
G1 X96.554 Y103.827 E0.06386
G1 X95.834 Y103.027 E0.06387
G1 X95.295 Y102.095 E0.06387
G1 X94.963 Y101.071 E0.06386
G1 X94.850 Y100.000 E0.06386
G1 X94.963 Y98.929 E0.06387
G1 X95.295 Y97.905 E0.06386
G1 X95.834 Y96.973 E0.06387
G1 X96.554 Y96.173 E0.06387
G1 X97.425 Y95.540 E0.06386
G1 X98.409 Y95.102 E0.06387
G1 X99.462 Y94.878 E0.06386
G1 X100.538 Y94.878 E0.06387 F1080.000
G1 X101.591 Y95.102 E0.06386
G1 X102.575 Y95.540 E0.06387
G1 X103.446 Y96.173 E0.06386
G1 X104.166 Y96.973 E0.06386
G1 X104.705 Y97.905 E0.06387
G1 X105.037 Y98.929 E0.06387
G1 X105.150 Y100.000 E0.06387
G1 X105.037 Y101.071 E0.06386
G1 X104.705 Y102.095 E0.06387
G1 X104.166 Y103.027 E0.06387
G1 X103.486 Y103.782 E0.06031
G1 X103.126 Y103.472 F7800.000
G1 X102.336 Y104.046 E0.05793 F1080.000
G1 X101.444 Y104.443 E0.05793
G1 X100.488 Y104.646 E0.05793
G1 X99.512 Y104.646 E0.05793
G1 X98.556 Y104.443 E0.05793
G1 X97.664 Y104.046 E0.05793
G1 X96.874 Y103.472 E0.05793
G1 X96.221 Y102.746 E0.05793
G1 X95.732 Y101.900 E0.05793
G1 X95.431 Y100.971 E0.05793
G1 X95.329 Y100.000 E0.05793
G1 X95.431 Y99.029 E0.05793
G1 X95.732 Y98.100 E0.05793
G1 X96.221 Y97.254 E0.05793
G1 X96.874 Y96.528 E0.05793
G1 X97.664 Y95.954 E0.05793
G1 X98.556 Y95.557 E0.05793
G1 X99.512 Y95.354 E0.05793
G1 X100.488 Y95.354 E0.05793 F1080.000
G1 X101.444 Y95.557 E0.05793
G1 X102.336 Y95.954 E0.05793
G1 X103.126 Y96.528 E0.05793
G1 X103.779 Y97.254 E0.05793
G1 X104.268 Y98.100 E0.05793
G1 X104.569 Y99.029 E0.05793
G1 X104.671 Y100.000 E0.05793
G1 X104.569 Y100.971 E0.05793
G1 X104.268 Y101.900 E0.05793
G1 X103.779 Y102.746 E0.05793
G1 X103.166 Y103.427 E0.05437
G1 X103.195 Y103.866 F7800.000
G1 X112.797 Y126.163 F7800.000
G1 X120.950 Y134.317 E0.68402 F1620.000
G1 X118.975 Y135.500 E0.13659
G1 X115.404 Y137.189 E0.23434
G1 X111.685 Y138.520 E0.23434
G1 X109.451 Y139.080 E0.13659
G1 X109.452 Y127.548 E0.68405
G1 X109.238 Y127.548 E0.01269
G1 X108.520 Y125.497 E0.12892
G1 X107.393 Y123.704 E0.12562
G1 X105.896 Y122.207 E0.12561
G1 X104.103 Y121.080 E0.12562
G1 X102.104 Y120.381 E0.12562
G1 X100.000 Y120.144 E0.12562
G1 X97.896 Y120.381 E0.12562
G1 X95.897 Y121.080 E0.12562
G1 X94.104 Y122.207 E0.12562
G1 X92.607 Y123.704 E0.12562
G1 X91.480 Y125.497 E0.12562
G1 X90.762 Y127.548 E0.12892
G1 X90.549 Y127.548 E0.01269
G1 X90.549 Y139.080 E0.68405
G1 X88.315 Y138.520 E0.13659
G1 X84.596 Y137.189 E0.23434
G1 X81.025 Y135.500 E0.23434
G1 X79.050 Y134.317 E0.13659
G1 X87.203 Y126.163 E0.68402
G1 X87.004 Y125.964 E0.01668
G1 X87.589 Y125.033 E0.06523
G1 X88.289 Y123.035 E0.12561
G1 X88.526 Y120.930 E0.12561
G1 X88.289 Y118.826 E0.12562
G1 X87.589 Y116.827 E0.12561
G1 X86.463 Y115.034 E0.12562
G1 X84.966 Y113.537 E0.12562
G1 X83.173 Y112.411 E0.12562
G1 X81.174 Y111.711 E0.12561
G1 X79.070 Y111.474 E0.12562
G1 X76.965 Y111.711 E0.12561
G1 X74.967 Y112.411 E0.12561
G1 X74.036 Y112.996 E0.06523
G1 X73.837 Y112.797 E0.01668
G1 X65.683 Y120.950 E0.68402
G1 X64.500 Y118.975 E0.13659
G1 X62.811 Y115.404 E0.23434
G1 X61.480 Y111.685 E0.23434
G1 X60.920 Y109.451 E0.13659
G1 X72.452 Y109.451 E0.68405
G1 X72.452 Y109.238 E0.01269
G1 X74.503 Y108.520 E0.12892
G1 X76.296 Y107.393 E0.12562
G1 X77.793 Y105.896 E0.12562
G1 X78.920 Y104.103 E0.12562
G1 X79.619 Y102.104 E0.12562
G1 X79.856 Y100.000 E0.12562
G1 X79.619 Y97.896 E0.12562
G1 X78.920 Y95.897 E0.12562
G1 X77.793 Y94.104 E0.12562
G1 X76.296 Y92.607 E0.12562
G1 X74.503 Y91.480 E0.12562
G1 X72.452 Y90.762 E0.12892
G1 X72.452 Y90.549 E0.01269
G1 X60.920 Y90.548 E0.68405
G1 X61.480 Y88.315 E0.13659
G1 X62.811 Y84.596 E0.23434
G1 X64.500 Y81.025 E0.23434
G1 X65.683 Y79.050 E0.13659
G1 X73.837 Y87.203 E0.68402
G1 X74.036 Y87.004 E0.01668
G1 X74.967 Y87.589 E0.06523
G1 X76.965 Y88.289 E0.12561
G1 X79.070 Y88.526 E0.12561
G1 X81.174 Y88.289 E0.12562
G1 X83.173 Y87.589 E0.12561
G1 X84.966 Y86.463 E0.12562
G1 X86.463 Y84.966 E0.12562
G1 X87.589 Y83.173 E0.12562
G1 X88.289 Y81.174 E0.12561
G1 X88.526 Y79.070 E0.12562
G1 X88.289 Y76.965 E0.12561
G1 X87.589 Y74.967 E0.12561
G1 X87.004 Y74.036 E0.06523
G1 X87.203 Y73.837 E0.01668
G1 X79.050 Y65.683 E0.68402
G1 X81.025 Y64.500 E0.13659
G1 X84.596 Y62.811 E0.23434
G1 X88.315 Y61.480 E0.23434
G1 X90.549 Y60.920 E0.13659
G1 X90.549 Y72.452 E0.68405
G1 X90.762 Y72.452 E0.01269
G1 X91.480 Y74.503 E0.12892
G1 X92.607 Y76.296 E0.12562
G1 X94.104 Y77.793 E0.12562
G1 X95.897 Y78.920 E0.12562
G1 X97.896 Y79.619 E0.12562
G1 X100.000 Y79.856 E0.12562
G1 X102.104 Y79.619 E0.12562
G1 X104.103 Y78.920 E0.12562
G1 X105.896 Y77.793 E0.12562
G1 X107.393 Y76.296 E0.12561
G1 X108.520 Y74.503 E0.12562
G1 X109.238 Y72.452 E0.12892
G1 X109.452 Y72.452 E0.01269
G1 X109.451 Y60.920 E0.68405
G1 X111.685 Y61.480 E0.13659
G1 X115.404 Y62.811 E0.23434
G1 X118.975 Y64.500 E0.23434
G1 X120.950 Y65.683 E0.13659
G1 X112.797 Y73.837 E0.68402
G1 X112.996 Y74.036 E0.01668
G1 X112.411 Y74.967 E0.06523
G1 X111.711 Y76.965 E0.12561
G1 X111.474 Y79.070 E0.12561
G1 X111.711 Y81.174 E0.12562
G1 X112.411 Y83.173 E0.12561
G1 X113.537 Y84.966 E0.12562
G1 X115.034 Y86.463 E0.12562
G1 X116.827 Y87.589 E0.12562
G1 X118.826 Y88.289 E0.12561
G1 X120.930 Y88.526 E0.12562
G1 X123.035 Y88.289 E0.12561
G1 X125.033 Y87.589 E0.12561
G1 X125.964 Y87.004 E0.06523
G1 X126.163 Y87.203 E0.01668
G1 X134.317 Y79.050 E0.68402
G1 X135.500 Y81.025 E0.13659
G1 X137.189 Y84.596 E0.23434
G1 X138.520 Y88.315 E0.23434
G1 X139.080 Y90.549 E0.13659
G1 X127.548 Y90.548 E0.68405
G1 X127.548 Y90.762 E0.01269
G1 X125.497 Y91.480 E0.12892
G1 X123.704 Y92.607 E0.12562
G1 X122.207 Y94.104 E0.12561
G1 X121.080 Y95.897 E0.12562
G1 X121.031 Y96.038 E0.00884
G1 X120.381 Y97.896 E0.11678
G1 X120.144 Y100.000 E0.12562
G1 X120.381 Y102.104 E0.12562
G1 X121.080 Y104.103 E0.12562
G1 X122.207 Y105.896 E0.12562
G1 X123.704 Y107.393 E0.12561
G1 X125.497 Y108.520 E0.12562
G1 X127.548 Y109.238 E0.12892
G1 X127.548 Y109.451 E0.01269
G1 X139.080 Y109.451 E0.68405
G1 X138.520 Y111.685 E0.13659
G1 X137.189 Y115.404 E0.23434
G1 X135.500 Y118.975 E0.23434
G1 X134.317 Y120.950 E0.13659
G1 X126.163 Y112.797 E0.68402
G1 X125.964 Y112.996 E0.01668
G1 X125.033 Y112.411 E0.06523
G1 X123.035 Y111.711 E0.12561
G1 X120.930 Y111.474 E0.12561
G1 X118.826 Y111.711 E0.12562
G1 X116.827 Y112.411 E0.12561
G1 X115.034 Y113.537 E0.12562
G1 X113.537 Y115.034 E0.12562
G1 X112.411 Y116.827 E0.12562
G1 X111.711 Y118.826 E0.12561
G1 X111.474 Y120.930 E0.12562
G1 X111.711 Y123.035 E0.12561
G1 X112.411 Y125.033 E0.12561
G1 X112.996 Y125.964 E0.06523
G1 X112.839 Y126.121 E0.01313
G1 X121.718 Y134.411 F7800.000
G1 X119.200 Y135.920 E0.17413 F1458.000
G1 X115.587 Y137.629 E0.23711
G1 X111.823 Y138.976 E0.23711
G1 X108.976 Y139.689 E0.17413
G1 X108.976 Y128.024 E0.69199
G1 X108.800 Y128.024 E0.01043
G1 X108.753 Y127.602 E0.02518
G1 X108.089 Y125.705 E0.11926
G1 X107.019 Y124.003 E0.11926
G1 X105.597 Y122.581 E0.11926
G1 X103.895 Y121.512 E0.11926
G1 X101.998 Y120.848 E0.11926
G1 X100.000 Y120.622 E0.11926
G1 X98.002 Y120.848 E0.11926
G1 X96.105 Y121.511 E0.11926
G1 X94.403 Y122.581 E0.11926
G1 X92.981 Y124.003 E0.11926
G1 X91.911 Y125.705 E0.11926
G1 X91.247 Y127.602 E0.11926
G1 X91.200 Y128.024 E0.02518
G1 X91.024 Y128.024 E0.01043
G1 X91.024 Y139.689 E0.69199
G1 X88.177 Y138.976 E0.17413
G1 X84.413 Y137.629 E0.23711
G1 X80.800 Y135.920 E0.23711
G1 X78.282 Y134.411 E0.17413
G1 X86.531 Y126.163 E0.69198
G1 X86.400 Y126.032 E0.01097
G1 X87.158 Y124.826 E0.08454
G1 X87.822 Y122.928 E0.11926
G1 X88.047 Y120.930 E0.11925
G1 X87.822 Y118.933 E0.11926
G1 X87.158 Y117.035 E0.11926
G1 X86.089 Y115.333 E0.11926
G1 X84.667 Y113.911 E0.11926
G1 X82.965 Y112.842 E0.11926
G1 X81.067 Y112.178 E0.11926
G1 X79.070 Y111.953 E0.11926
G1 X77.072 Y112.178 E0.11925
G1 X75.174 Y112.842 E0.11926
G1 X73.968 Y113.600 E0.08454
G1 X73.837 Y113.469 E0.01097
G1 X65.589 Y121.718 E0.69198
G1 X64.080 Y119.200 E0.17413
G1 X62.371 Y115.587 E0.23711
G1 X61.024 Y111.823 E0.23711
G1 X60.311 Y108.976 E0.17413
G1 X71.976 Y108.976 E0.69199
G1 X71.976 Y108.800 E0.01043
G1 X72.398 Y108.753 E0.02518
G1 X74.295 Y108.089 E0.11926
G1 X75.997 Y107.019 E0.11926
G1 X77.419 Y105.597 E0.11926
G1 X78.489 Y103.895 E0.11926
G1 X79.152 Y101.998 E0.11926
G1 X79.378 Y100.000 E0.11926
G1 X79.152 Y98.002 E0.11926
G1 X78.489 Y96.105 E0.11926
G1 X77.419 Y94.403 E0.11926
G1 X75.997 Y92.981 E0.11926
G1 X74.295 Y91.911 E0.11926
G1 X72.398 Y91.247 E0.11926
G1 X71.976 Y91.200 E0.02518
G1 X71.976 Y91.024 E0.01043
G1 X60.311 Y91.024 E0.69199
G1 X61.024 Y88.177 E0.17413
G1 X62.371 Y84.413 E0.23711
G1 X64.080 Y80.800 E0.23711
G1 X65.589 Y78.282 E0.17413
G1 X73.837 Y86.531 E0.69198
G1 X73.968 Y86.400 E0.01097
G1 X75.174 Y87.158 E0.08454
G1 X77.072 Y87.822 E0.11926
G1 X79.070 Y88.047 E0.11925
G1 X81.067 Y87.822 E0.11926
G1 X82.965 Y87.158 E0.11926
G1 X84.667 Y86.089 E0.11926
G1 X86.089 Y84.667 E0.11926
G1 X87.158 Y82.965 E0.11926
G1 X87.822 Y81.067 E0.11926
G1 X88.047 Y79.070 E0.11926
G1 X87.822 Y77.072 E0.11925
G1 X87.158 Y75.174 E0.11926
G1 X86.400 Y73.968 E0.08454
G1 X86.531 Y73.837 E0.01097
G1 X78.282 Y65.589 E0.69198
G1 X80.800 Y64.080 E0.17413
G1 X84.413 Y62.371 E0.23711
G1 X88.177 Y61.024 E0.23711
G1 X91.024 Y60.311 E0.17413
G1 X91.024 Y71.976 E0.69199
G1 X91.200 Y71.976 E0.01043
G1 X91.247 Y72.398 E0.02518
G1 X91.911 Y74.295 E0.11926
G1 X92.981 Y75.997 E0.11926
G1 X94.403 Y77.419 E0.11926
G1 X96.105 Y78.488 E0.11926
G1 X98.002 Y79.152 E0.11926
G1 X100.000 Y79.378 E0.11926
G1 X101.998 Y79.152 E0.11926
G1 X103.895 Y78.488 E0.11926
G1 X105.597 Y77.419 E0.11926
G1 X107.019 Y75.997 E0.11926
G1 X108.089 Y74.295 E0.11926
G1 X108.753 Y72.398 E0.11926
G1 X108.800 Y71.976 E0.02518
G1 X108.976 Y71.976 E0.01043
G1 X108.976 Y60.311 E0.69199
G1 X111.823 Y61.024 E0.17413
G1 X115.587 Y62.371 E0.23711
G1 X119.200 Y64.080 E0.23711
G1 X121.718 Y65.589 E0.17413
G1 X113.469 Y73.837 E0.69198
G1 X113.600 Y73.968 E0.01097
G1 X112.842 Y75.174 E0.08454
G1 X112.178 Y77.072 E0.11926
G1 X111.953 Y79.070 E0.11925
G1 X112.178 Y81.067 E0.11926
G1 X112.842 Y82.965 E0.11926
G1 X113.911 Y84.667 E0.11926
G1 X115.333 Y86.089 E0.11926
G1 X117.035 Y87.158 E0.11926
G1 X118.933 Y87.822 E0.11926
G1 X120.930 Y88.047 E0.11926
G1 X122.928 Y87.822 E0.11925
G1 X124.826 Y87.158 E0.11926
G1 X126.032 Y86.400 E0.08454
G1 X126.163 Y86.531 E0.01097
G1 X134.411 Y78.282 E0.69198
G1 X135.920 Y80.800 E0.17413
G1 X137.629 Y84.413 E0.23711
