; generated by Slic3r 1.2.9 on 2020-05-14 at 10:35:07

; external perimeters extrusion width = 0.40mm
; perimeters extrusion width = 0.56mm
; infill extrusion width = 0.56mm
; solid infill extrusion width = 0.56mm
; top infill extrusion width = 0.56mm

M107
M190 S60 ; set bed temperature
M104 S215 ; set temperature
G28 ; home all axes
G92 E0.0 ; reset extruder
M109 S215 ; wait for temperature to be reached
G21 ; set units to millimeters
G90 ; use absolute coordinates
M83 ; use relative distances for extrusion
G1 E-1.30000 F3600.00000
G1 Z0.300 F7800.000
G1 X86.960 Y86.960 F7800.000
G1 E1.30000 F3600.00000
M204 S500
G1 X87.238 Y86.683 E0.02329 F1209.289
G1 X88.090 Y85.916 E0.06800
G1 X88.700 Y85.421 E0.04659
G1 X89.627 Y84.748 E0.06798
G1 X90.287 Y84.319 E0.04669
G1 X91.278 Y83.747 E0.06788
G1 X91.978 Y83.391 E0.04658
G1 X93.025 Y82.925 E0.06799
G1 X93.758 Y82.643 E0.04657
G1 X94.848 Y82.289 E0.06799
G1 X95.607 Y82.086 E0.04662
G1 X96.728 Y81.847 E0.06796
G1 X97.504 Y81.724 E0.04665
G1 X98.643 Y81.605 E0.06790
G1 X99.429 Y81.564 E0.04672
G1 X100.573 Y81.564 E0.06786
G1 X101.357 Y81.605 E0.04657 F1209.289
G1 X102.497 Y81.725 E0.06799
G1 X103.272 Y81.847 E0.04657
G1 X104.394 Y82.086 E0.06801
G1 X105.152 Y82.289 E0.04657
G1 X106.242 Y82.643 E0.06800
G1 X106.975 Y82.925 E0.04657
G1 X108.022 Y83.391 E0.06800
G1 X108.722 Y83.747 E0.04657
G1 X109.714 Y84.320 E0.06800
G1 X110.374 Y84.748 E0.04662
G1 X111.300 Y85.422 E0.06795
G1 X111.910 Y85.916 E0.04657
G1 X112.762 Y86.683 E0.06800
G1 X113.317 Y87.238 E0.04657
G1 X114.084 Y88.090 E0.06800
G1 X114.579 Y88.700 E0.04661
G1 X115.252 Y89.627 E0.06796
G1 X115.680 Y90.286 E0.04657
G1 X116.253 Y91.278 E0.06800
G1 X116.609 Y91.978 E0.04657
G1 X117.075 Y93.025 E0.06800
G1 X117.354 Y93.750 E0.04610
G1 X117.711 Y94.848 E0.06846
G1 X117.914 Y95.607 E0.04662
G1 X118.153 Y96.728 E0.06796
G1 X118.275 Y97.503 E0.04657
G1 X118.395 Y98.643 E0.06799
G1 X118.436 Y99.427 E0.04657
G1 X118.436 Y100.573 E0.06801
G1 X118.395 Y101.357 E0.04657
G1 X118.275 Y102.497 E0.06799
G1 X118.153 Y103.272 E0.04657
G1 X117.912 Y104.401 E0.06842
G1 X117.711 Y105.152 E0.04616
G1 X117.357 Y106.242 E0.06797
G1 X117.075 Y106.975 E0.04659
G1 X116.609 Y108.022 E0.06800
G1 X116.253 Y108.722 E0.04657
G1 X115.680 Y109.714 E0.06800
G1 X115.252 Y110.373 E0.04657
G1 X114.579 Y111.300 E0.06796
G1 X114.084 Y111.910 E0.04661
G1 X113.317 Y112.762 E0.06800
G1 X112.762 Y113.317 E0.04657
G1 X111.910 Y114.084 E0.06800
G1 X111.300 Y114.578 E0.04657
G1 X110.373 Y115.252 E0.06800
G1 X109.714 Y115.680 E0.04657
G1 X108.722 Y116.253 E0.06800
G1 X108.022 Y116.609 E0.04657
G1 X106.975 Y117.075 E0.06800
G1 X106.242 Y117.357 E0.04657
G1 X105.152 Y117.711 E0.06799
G1 X104.394 Y117.914 E0.04657
G1 X103.272 Y118.153 E0.06801
G1 X102.497 Y118.275 E0.04657
G1 X101.357 Y118.395 E0.06799
G1 X100.573 Y118.436 E0.04657
G1 X99.427 Y118.436 E0.06801
G1 X98.643 Y118.395 E0.04657
G1 X97.503 Y118.275 E0.06799
G1 X96.728 Y118.153 E0.04657
G1 X95.606 Y117.914 E0.06801
G1 X94.848 Y117.711 E0.04657
G1 X93.750 Y117.354 E0.06846
G1 X93.025 Y117.075 E0.04610
G1 X91.978 Y116.609 E0.06799
G1 X91.278 Y116.253 E0.04658
G1 X90.286 Y115.680 E0.06800
G1 X89.627 Y115.252 E0.04657
G1 X88.700 Y114.579 E0.06796
G1 X88.090 Y114.084 E0.04661
G1 X87.238 Y113.317 E0.06800
G1 X86.683 Y112.762 E0.04657
G1 X85.916 Y111.910 E0.06800
G1 X85.422 Y111.300 E0.04657
G1 X84.748 Y110.373 E0.06798
G1 X84.320 Y109.714 E0.04659
G1 X83.747 Y108.722 E0.06800
G1 X83.391 Y108.022 E0.04657
G1 X82.925 Y106.976 E0.06795
G1 X82.643 Y106.242 E0.04662
G1 X82.289 Y105.152 E0.06799
G1 X82.086 Y104.394 E0.04658
G1 X81.847 Y103.272 E0.06801
G1 X81.725 Y102.497 E0.04657
G1 X81.605 Y101.359 E0.06790
G1 X81.564 Y100.573 E0.04666
G1 X81.564 Y99.427 E0.06801
G1 X81.605 Y98.643 E0.04658
G1 X81.725 Y97.503 E0.06798
G1 X81.847 Y96.728 E0.04657
G1 X82.086 Y95.606 E0.06801
G1 X82.289 Y94.848 E0.04658
G1 X82.643 Y93.758 E0.06799
G1 X82.925 Y93.025 E0.04657
G1 X83.391 Y91.978 E0.06800
G1 X83.747 Y91.278 E0.04660
G1 X84.320 Y90.286 E0.06797
G1 X84.748 Y89.626 E0.04664
G1 X85.422 Y88.700 E0.06793
G1 X85.916 Y88.090 E0.04657
G1 X86.683 Y87.238 E0.06800
G1 X86.918 Y87.003 E0.01973
G1 X87.297 Y87.297 F7800.000
G1 X87.574 Y87.019 E0.02329 F1209.289
G1 X88.389 Y86.285 E0.06505
G1 X88.999 Y85.791 E0.04659
G1 X89.886 Y85.147 E0.06503
G1 X90.546 Y84.718 E0.04668
G1 X91.494 Y84.171 E0.06494
G1 X92.194 Y83.814 E0.04658
G1 X93.195 Y83.369 E0.06504
G1 X93.928 Y83.087 E0.04657
G1 X94.971 Y82.748 E0.06504
G1 X95.730 Y82.545 E0.04662
G1 X96.802 Y82.317 E0.06501
G1 X97.579 Y82.194 E0.04665
G1 X98.668 Y82.080 E0.06495
G1 X99.454 Y82.039 E0.04671
G1 X100.548 Y82.039 E0.06491
G1 X101.332 Y82.080 E0.04657 F1209.289
G1 X102.423 Y82.194 E0.06504
G1 X103.198 Y82.317 E0.04657
G1 X104.271 Y82.545 E0.06506
G1 X105.029 Y82.748 E0.04657
G1 X106.072 Y83.087 E0.06504
G1 X106.805 Y83.369 E0.04657
G1 X107.806 Y83.815 E0.06504
G1 X108.506 Y84.171 E0.04657
G1 X109.455 Y84.719 E0.06505
G1 X110.114 Y85.147 E0.04662
G1 X111.001 Y85.791 E0.06500
G1 X111.611 Y86.285 E0.04657
G1 X112.426 Y87.019 E0.06505
G1 X112.981 Y87.574 E0.04657
G1 X113.715 Y88.389 E0.06505
G1 X114.209 Y89.000 E0.04661
G1 X114.853 Y89.886 E0.06501
G1 X115.281 Y90.545 E0.04657
G1 X115.829 Y91.494 E0.06505
G1 X116.185 Y92.194 E0.04657
G1 X116.631 Y93.195 E0.06505
G1 X116.910 Y93.921 E0.04610
G1 X117.252 Y94.971 E0.06550
G1 X117.455 Y95.730 E0.04662
G1 X117.683 Y96.802 E0.06501
G1 X117.806 Y97.577 E0.04657
G1 X117.920 Y98.668 E0.06504
G1 X117.961 Y99.452 E0.04657
G1 X117.961 Y100.548 E0.06505
G1 X117.920 Y101.332 E0.04657
G1 X117.806 Y102.423 E0.06503
G1 X117.683 Y103.198 E0.04657
G1 X117.453 Y104.278 E0.06552
G1 X117.252 Y105.029 E0.04610
G1 X116.913 Y106.071 E0.06502
G1 X116.631 Y106.805 E0.04659
G1 X116.185 Y107.806 E0.06505
G1 X115.829 Y108.506 E0.04657
G1 X115.281 Y109.455 E0.06505
G1 X114.853 Y110.114 E0.04657
G1 X114.209 Y111.000 E0.06501
G1 X113.715 Y111.611 E0.04661
G1 X112.981 Y112.426 E0.06505
G1 X112.426 Y112.981 E0.04657
G1 X111.611 Y113.715 E0.06505
G1 X111.001 Y114.209 E0.04657
G1 X110.114 Y114.853 E0.06505
G1 X109.455 Y115.281 E0.04657
G1 X108.506 Y115.829 E0.06505
G1 X107.806 Y116.185 E0.04657
G1 X106.805 Y116.631 E0.06504
G1 X106.072 Y116.913 E0.04657
G1 X105.029 Y117.252 E0.06504
G1 X104.271 Y117.455 E0.04657
G1 X103.198 Y117.683 E0.06506
G1 X102.423 Y117.806 E0.04657
G1 X101.332 Y117.920 E0.06504
G1 X100.548 Y117.961 E0.04657
G1 X99.452 Y117.961 E0.06505
G1 X98.668 Y117.920 E0.04657
G1 X97.577 Y117.806 E0.06504
G1 X96.802 Y117.683 E0.04657
G1 X95.729 Y117.455 E0.06506
G1 X94.971 Y117.252 E0.04657
G1 X93.922 Y116.910 E0.06544
G1 X93.195 Y116.631 E0.04617
G1 X92.194 Y116.186 E0.06504
G1 X91.494 Y115.829 E0.04658
G1 X90.545 Y115.281 E0.06505
G1 X89.886 Y114.853 E0.04657
G1 X89.000 Y114.209 E0.06501
G1 X88.389 Y113.715 E0.04661
G1 X87.574 Y112.981 E0.06505
G1 X87.019 Y112.426 E0.04657
G1 X86.285 Y111.611 E0.06505
G1 X85.791 Y111.001 E0.04657
G1 X85.147 Y110.114 E0.06503
G1 X84.719 Y109.455 E0.04659
G1 X84.171 Y108.506 E0.06505
G1 X83.815 Y107.806 E0.04657
G1 X83.369 Y106.805 E0.06500
G1 X83.087 Y106.072 E0.04662
G1 X82.748 Y105.029 E0.06504
G1 X82.545 Y104.271 E0.04658
G1 X82.317 Y103.198 E0.06506
G1 X82.194 Y102.423 E0.04657
G1 X82.080 Y101.334 E0.06496
G1 X82.039 Y100.548 E0.04665
G1 X82.039 Y99.452 E0.06505
G1 X82.080 Y98.668 E0.04658
G1 X82.194 Y97.577 E0.06503
G1 X82.317 Y96.802 E0.04657
G1 X82.545 Y95.729 E0.06506
G1 X82.748 Y94.971 E0.04658
G1 X83.087 Y93.928 E0.06503
G1 X83.369 Y93.195 E0.04657
G1 X83.815 Y92.194 E0.06505
G1 X84.171 Y91.494 E0.04660
G1 X84.719 Y90.545 E0.06502
G1 X85.147 Y89.885 E0.04664
G1 X85.791 Y88.999 E0.06498
G1 X86.285 Y88.389 E0.04657
G1 X87.019 Y87.574 E0.06505
G1 X87.254 Y87.339 E0.01973
G1 F6240
G1 X87.574 Y87.019 E-0.24802
G1 F6240
G1 X88.389 Y86.285 E-0.60097
G1 F6240
G1 X88.936 Y85.842 E-0.38601
G1 E-0.06500 F3600.00000
G1 X103.711 Y103.711 F7800.000
G1 E1.30000 F3600.00000
G1 X103.085 Y104.246 E0.04885 F604.645
G1 X102.383 Y104.676 E0.04885
G1 X101.622 Y104.991 E0.04885
G1 X100.821 Y105.183 E0.04885
G1 X99.999 Y105.248 E0.04889
G1 X99.172 Y105.182 E0.04927
G1 X98.378 Y104.991 E0.04840
G1 X97.617 Y104.676 E0.04885
G1 X96.915 Y104.246 E0.04885
G1 X96.289 Y103.711 E0.04885
G1 X95.754 Y103.085 E0.04885
G1 X95.324 Y102.383 E0.04885
G1 X95.009 Y101.622 E0.04885
G1 X94.817 Y100.821 E0.04885
G1 X94.752 Y100.000 E0.04885
G1 X94.817 Y99.179 E0.04885
G1 X95.009 Y98.378 E0.04885
G1 X95.324 Y97.617 E0.04885
G1 X95.754 Y96.915 E0.04885
G1 X96.289 Y96.289 E0.04885
G1 X96.915 Y95.754 E0.04885
G1 X97.617 Y95.324 E0.04885
G1 X98.378 Y95.009 E0.04885
G1 X99.179 Y94.817 E0.04885
G1 X99.992 Y94.753 E0.04840 F604.645
G1 X100.820 Y94.817 E0.04927
G1 X101.622 Y95.009 E0.04889
G1 X102.383 Y95.324 E0.04885
G1 X103.085 Y95.754 E0.04885
G1 X103.711 Y96.289 E0.04885
G1 X104.246 Y96.915 E0.04885
G1 X104.676 Y97.617 E0.04885
G1 X104.991 Y98.378 E0.04885
G1 X105.183 Y99.179 E0.04885
G1 X105.248 Y100.001 E0.04889
G1 X105.182 Y100.828 E0.04927
G1 X104.991 Y101.622 E0.04840
G1 X104.676 Y102.383 E0.04885
G1 X104.246 Y103.085 E0.04885
G1 X103.750 Y103.665 E0.04529
G1 X103.373 Y103.373 F7800.000
G1 X102.804 Y103.860 E0.04441 F604.645
G1 X102.166 Y104.251 E0.04441
G1 X101.474 Y104.537 E0.04441
G1 X100.746 Y104.712 E0.04441
G1 X100.000 Y104.771 E0.04442
G1 X99.247 Y104.710 E0.04482
G1 X98.526 Y104.537 E0.04398
G1 X97.834 Y104.251 E0.04441
G1 X97.196 Y103.860 E0.04441
G1 X96.627 Y103.373 E0.04441
G1 X96.140 Y102.804 E0.04441
G1 X95.749 Y102.166 E0.04441
G1 X95.463 Y101.474 E0.04441
G1 X95.288 Y100.746 E0.04441
G1 X95.229 Y100.000 E0.04441
G1 X95.288 Y99.254 E0.04441
G1 X95.463 Y98.526 E0.04441
G1 X95.749 Y97.834 E0.04441
G1 X96.140 Y97.196 E0.04441
G1 X96.627 Y96.627 E0.04441
G1 X97.196 Y96.140 E0.04441
G1 X97.834 Y95.749 E0.04441
G1 X98.526 Y95.463 E0.04441
G1 X99.254 Y95.288 E0.04441
G1 X99.993 Y95.230 E0.04398 F604.645
G1 X100.746 Y95.288 E0.04482
G1 X101.474 Y95.463 E0.04442
G1 X102.166 Y95.749 E0.04441
G1 X102.804 Y96.140 E0.04441
G1 X103.373 Y96.627 E0.04441
G1 X103.860 Y97.196 E0.04441
G1 X104.251 Y97.834 E0.04441
G1 X104.537 Y98.526 E0.04441
G1 X104.712 Y99.254 E0.04441
G1 X104.771 Y100.000 E0.04442
G1 X104.710 Y100.753 E0.04482
G1 X104.537 Y101.474 E0.04398
G1 X104.251 Y102.166 E0.04441
G1 X103.860 Y102.804 E0.04441
G1 X103.412 Y103.328 E0.04085
G1 X103.467 Y103.762 F7800.000
G1 X104.769 Y104.769 F7800.000
G1 X104.519 Y105.019 E0.02097 F906.967
G1 X103.970 Y105.464 E0.04193
G1 X103.377 Y105.849 E0.04193
G1 X102.747 Y106.169 E0.04193
G1 X102.087 Y106.423 E0.04193
G1 X101.404 Y106.606 E0.04193
G1 X100.706 Y106.716 E0.04193
G1 X100.000 Y106.753 E0.04193
G1 X99.294 Y106.716 E0.04193
G1 X98.596 Y106.606 E0.04193
G1 X97.913 Y106.423 E0.04193
G1 X97.253 Y106.169 E0.04193
G1 X96.624 Y105.849 E0.04191
G1 X96.025 Y105.459 E0.04240
G1 X95.481 Y105.019 E0.04149
G1 X94.981 Y104.519 E0.04193
G1 X94.536 Y103.970 E0.04193
G1 X94.151 Y103.377 E0.04193
G1 X93.831 Y102.747 E0.04193
G1 X93.577 Y102.087 E0.04193
G1 X93.394 Y101.404 E0.04193
G1 X93.284 Y100.706 E0.04193
G1 X93.247 Y100.000 E0.04193
G1 X93.284 Y99.294 E0.04193
G1 X93.394 Y98.596 E0.04193
G1 X93.577 Y97.913 E0.04193
G1 X93.831 Y97.253 E0.04193
G1 X94.148 Y96.630 E0.04149
G1 X94.537 Y96.030 E0.04240
G1 X94.981 Y95.481 E0.04191
G1 X95.481 Y94.981 E0.04193
G1 X96.030 Y94.536 E0.04193
G1 X96.623 Y94.151 E0.04193
G1 X97.253 Y93.831 E0.04193
G1 X97.913 Y93.577 E0.04193
G1 X98.596 Y93.394 E0.04193
G1 X99.294 Y93.284 E0.04193
G1 X100.000 Y93.247 E0.04193
G1 X100.698 Y93.283 E0.04149
G1 X101.404 Y93.394 E0.04240 F906.967
G1 X102.087 Y93.577 E0.04191
G1 X102.747 Y93.831 E0.04193
G1 X103.377 Y94.151 E0.04193
G1 X103.970 Y94.536 E0.04193
G1 X104.519 Y94.981 E0.04193
G1 X105.019 Y95.481 E0.04193
G1 X105.464 Y96.030 E0.04193
G1 X105.849 Y96.623 E0.04193
G1 X106.169 Y97.253 E0.04193
G1 X106.423 Y97.913 E0.04193
G1 X106.606 Y98.596 E0.04193
G1 X106.716 Y99.294 E0.04193
G1 X106.753 Y100.000 E0.04193
G1 X106.716 Y100.706 E0.04193
G1 X106.606 Y101.404 E0.04193
G1 X106.423 Y102.087 E0.04193
G1 X106.169 Y102.747 E0.04193
G1 X105.849 Y103.376 E0.04191
G1 X105.459 Y103.975 E0.04240
G1 X105.019 Y104.519 E0.04149
G1 X104.811 Y104.726 E0.01741
G1 X105.105 Y105.105 F7800.000
G1 X104.838 Y105.373 E0.02245 F816.270
G1 X104.249 Y105.849 E0.04489
G1 X103.615 Y106.261 E0.04489
G1 X102.941 Y106.605 E0.04489
G1 X102.234 Y106.876 E0.04489
G1 X101.503 Y107.072 E0.04489
G1 X100.756 Y107.190 E0.04489
G1 X100.000 Y107.230 E0.04489
G1 X99.244 Y107.190 E0.04489
G1 X98.497 Y107.072 E0.04489
G1 X97.766 Y106.876 E0.04489
G1 X97.059 Y106.605 E0.04489
G1 X96.385 Y106.261 E0.04488
G1 X95.745 Y105.844 E0.04535
G1 X95.162 Y105.373 E0.04443
G1 X94.627 Y104.838 E0.04489
G1 X94.151 Y104.249 E0.04489
G1 X93.739 Y103.615 E0.04489
G1 X93.395 Y102.941 E0.04489
G1 X93.124 Y102.234 E0.04489
G1 X92.928 Y101.503 E0.04489
G1 X92.810 Y100.756 E0.04489
G1 X92.770 Y100.000 E0.04489
G1 X92.810 Y99.244 E0.04489
G1 X92.928 Y98.497 E0.04489
G1 X93.124 Y97.766 E0.04489
G1 X93.395 Y97.059 E0.04489
G1 X93.735 Y96.392 E0.04443
G1 X94.151 Y95.750 E0.04535
G1 X94.627 Y95.162 E0.04488
G1 X95.162 Y94.627 E0.04489
G1 X95.751 Y94.151 E0.04489
G1 X96.385 Y93.739 E0.04489
G1 X97.059 Y93.395 E0.04489
G1 X97.766 Y93.124 E0.04489
G1 X98.497 Y92.928 E0.04489
G1 X99.244 Y92.810 E0.04489
G1 X100.000 Y92.770 E0.04489
G1 X100.748 Y92.810 E0.04443
G1 X101.503 Y92.928 E0.04535 F816.270
G1 X102.234 Y93.124 E0.04488
G1 X102.941 Y93.395 E0.04489
G1 X103.615 Y93.739 E0.04489
G1 X104.249 Y94.151 E0.04489
G1 X104.838 Y94.627 E0.04489
G1 X105.373 Y95.162 E0.04489
G1 X105.849 Y95.751 E0.04489
G1 X106.261 Y96.385 E0.04489
G1 X106.605 Y97.059 E0.04489
G1 X106.876 Y97.766 E0.04489
G1 X107.072 Y98.497 E0.04489
G1 X107.190 Y99.244 E0.04489
G1 X107.230 Y100.000 E0.04489
G1 X107.190 Y100.756 E0.04489
G1 X107.072 Y101.503 E0.04489
G1 X106.876 Y102.234 E0.04489
G1 X106.605 Y102.941 E0.04489
G1 X106.261 Y103.615 E0.04488
G1 X105.844 Y104.255 E0.04535
G1 X105.373 Y104.838 E0.04443
G1 X105.148 Y105.063 E0.01889
G1 X104.740 Y105.007 F7800.000
G1 X98.732 Y106.318 F7800.000
G1 X97.317 Y104.903 E0.12172 F906.967
G1 X97.725 Y106.001 F7800.000
G1 X93.999 Y102.275 E0.32052 F906.967
G1 X94.680 Y101.576 F7800.000
G1 X93.560 Y100.457 E0.09633 F906.967
G1 X93.539 Y99.746 E0.04326
G1 X94.517 Y100.724 E0.08413
G1 X94.476 Y99.993 E0.04449
G1 X93.586 Y99.103 E0.07656
G1 X93.686 Y98.514 E0.03638
G1 X94.526 Y99.354 E0.07228
G1 X94.642 Y98.780 E0.03560
G1 X93.832 Y97.970 E0.06972
G1 X94.020 Y97.468 E0.03259
G1 X94.793 Y98.241 E0.06647
G1 X94.995 Y97.753 E0.03211
G1 X94.239 Y96.998 E0.06496
G1 X94.487 Y96.556 E0.03081
G1 X95.231 Y97.300 E0.06395
G1 X95.493 Y96.872 E0.03051
G1 X94.760 Y96.139 E0.06304
G1 X95.071 Y95.761 E0.02980
G1 X95.800 Y96.489 E0.06267
G1 X96.117 Y96.118 E0.02976
G1 X95.416 Y95.416 E0.06033
G1 X95.761 Y95.071 E0.02966
G1 X96.489 Y95.800 E0.06267
G1 X96.872 Y95.493 E0.02984
G1 X96.139 Y94.760 E0.06304
G1 X96.556 Y94.487 E0.03030
G1 X97.300 Y95.231 E0.06399
G1 X97.753 Y94.995 E0.03110
G1 X96.998 Y94.239 E0.06496
G1 X97.468 Y94.020 E0.03156
G1 X98.241 Y94.793 E0.06647
G1 X98.780 Y94.642 E0.03406
G1 X97.970 Y93.832 E0.06972
G1 X98.514 Y93.686 E0.03425
G1 X99.354 Y94.526 E0.07228
G1 X99.993 Y94.476 E0.03901
G1 X99.103 Y93.586 E0.07656
G1 X99.746 Y93.539 E0.03917
G1 X100.724 Y94.517 E0.08415
G1 X101.576 Y94.680 E0.05279
G1 X100.457 Y93.560 E0.09633
G1 X101.268 Y93.682 E0.04993
G1 X102.683 Y95.097 E0.12172
G1 X102.275 Y93.999 F7800.000
G1 X106.001 Y97.725 E0.32053 F906.967
G1 X104.903 Y97.317 F7800.000
G1 X106.318 Y98.732 E0.12172 F906.967
G1 X106.440 Y99.543 E0.04993
G1 X105.320 Y98.424 E0.09633
G1 X105.483 Y99.276 E0.05281
G1 X106.461 Y100.254 E0.08413
G1 X106.414 Y100.897 E0.03917
G1 X105.524 Y100.007 E0.07656
G1 X105.473 Y100.645 E0.03896
G1 X106.314 Y101.486 E0.07236
G1 X106.168 Y102.030 E0.03425
G1 X105.358 Y101.220 E0.06972
G1 X105.207 Y101.759 E0.03406
G1 X105.980 Y102.532 E0.06647
G1 X105.761 Y103.002 E0.03156
G1 X105.005 Y102.247 E0.06496
G1 X104.769 Y102.700 E0.03110
G1 X105.513 Y103.444 E0.06397
