; generated by Slic3r 1.3.1-dev (Build 2d100c4) on 2020-05-15 at 13:15:55

; external perimeters extrusion width = 0.44mm (3.91mm^3/s)
; perimeters extrusion width = 0.56mm (5.65mm^3/s)
; infill extrusion width = 0.50mm (5.02mm^3/s)
; solid infill extrusion width = 0.56mm (5.65mm^3/s)
; top infill extrusion width = 0.56mm (5.65mm^3/s)

M107
M190 S60 ; set bed temperature and wait for it to be reached
M104 S215 ; set temperature
G28 ; home all axes
G92 E0.0 ; reset extruder
; Filament gcode

M109 S215 ; set temperature and wait for it to be reached
G21 ; set units to millimeters
G90 ; use absolute coordinates
M83 ; use relative distances for extrusion
G1 E-1.30000 F3600.00000
G1 Z0.300 F7800.000
G1 X77.238 Y76.683 F7800.000
G1 E1.30000 F3600.00000
M201 X500 Y500
M204 P500 T500
G1 F1048.385
G1 X78.090 Y75.916 E0.06800
G1 X78.700 Y75.422 E0.04657
G1 X79.627 Y74.748 E0.06800
G1 X80.286 Y74.320 E0.04657
G1 X81.278 Y73.747 E0.06800
G1 X81.978 Y73.391 E0.04657
G1 X83.025 Y72.925 E0.06800
G1 X83.758 Y72.643 E0.04657
G1 X84.848 Y72.289 E0.06799
G1 X85.606 Y72.086 E0.04657
G1 X86.728 Y71.847 E0.06801
G1 X87.503 Y71.725 E0.04657
G1 X88.643 Y71.605 E0.06799
G1 X89.427 Y71.564 E0.04657
G1 X90.573 Y71.564 E0.06801
G1 X91.357 Y71.605 E0.04657
G1 X92.497 Y71.725 E0.06799
G1 X93.272 Y71.847 E0.04657
G1 X94.394 Y72.086 E0.06801
G1 X95.152 Y72.289 E0.04657
G1 X96.242 Y72.643 E0.06799
G1 X96.975 Y72.925 E0.04657
G1 X98.022 Y73.391 E0.06800
G1 X98.722 Y73.747 E0.04657
G1 X99.714 Y74.320 E0.06800
G1 X100.373 Y74.748 E0.04657
G1 X101.300 Y75.422 E0.06800
G1 X101.910 Y75.916 E0.04657
G1 X102.762 Y76.683 E0.06800
G1 X103.317 Y77.238 E0.04657
G1 X104.084 Y78.090 E0.06800
G1 X104.578 Y78.700 E0.04657
G1 X105.252 Y79.627 E0.06800
G1 X105.680 Y80.286 E0.04657
G1 X106.253 Y81.278 E0.06800
G1 X106.609 Y81.978 E0.04657
G1 X107.075 Y83.025 E0.06800
G1 X107.357 Y83.758 E0.04657
G1 X107.711 Y84.848 E0.06799
G1 X107.914 Y85.606 E0.04657
G1 X108.153 Y86.728 E0.06801
G1 X108.275 Y87.503 E0.04657
G1 X108.395 Y88.643 E0.06799
G1 X108.436 Y89.427 E0.04657
G1 X108.436 Y90.573 E0.06801
G1 X108.395 Y91.357 E0.04657
G1 X108.275 Y92.497 E0.06799
G1 X108.153 Y93.272 E0.04657
G1 X107.914 Y94.394 E0.06801
G1 X107.711 Y95.152 E0.04657
G1 X107.357 Y96.242 E0.06799
G1 X107.075 Y96.975 E0.04657
G1 X106.609 Y98.022 E0.06800
G1 X106.253 Y98.722 E0.04657
G1 X105.680 Y99.714 E0.06800
G1 X105.252 Y100.373 E0.04657
G1 X104.578 Y101.300 E0.06800
G1 X104.084 Y101.910 E0.04657
G1 X103.317 Y102.762 E0.06800
G1 X102.762 Y103.317 E0.04657
G1 X101.910 Y104.084 E0.06800
G1 X101.300 Y104.578 E0.04657
G1 X100.373 Y105.252 E0.06800
G1 X99.714 Y105.680 E0.04657
G1 X98.722 Y106.253 E0.06800
G1 X98.022 Y106.609 E0.04657
G1 X96.975 Y107.075 E0.06800
G1 X96.242 Y107.357 E0.04657
G1 X95.152 Y107.711 E0.06799
G1 X94.394 Y107.914 E0.04657
G1 X93.272 Y108.153 E0.06801
G1 X92.497 Y108.275 E0.04657
G1 X91.357 Y108.395 E0.06799
G1 X90.573 Y108.436 E0.04657
G1 X89.427 Y108.436 E0.06801
G1 X88.643 Y108.395 E0.04657
G1 X87.503 Y108.275 E0.06799
G1 X86.728 Y108.153 E0.04657
G1 X85.606 Y107.914 E0.06801
G1 X84.848 Y107.711 E0.04657
G1 X83.758 Y107.357 E0.06799
G1 X83.025 Y107.075 E0.04657
G1 X81.978 Y106.609 E0.06800
G1 X81.278 Y106.253 E0.04657
G1 X80.286 Y105.680 E0.06800
G1 X79.627 Y105.252 E0.04657
G1 X78.700 Y104.578 E0.06800
G1 X78.090 Y104.084 E0.04657
G1 X77.238 Y103.317 E0.06800
G1 X76.683 Y102.762 E0.04657
G1 X75.916 Y101.910 E0.06800
G1 X75.422 Y101.300 E0.04657
G1 X74.748 Y100.373 E0.06800
G1 X74.320 Y99.714 E0.04657
G1 X73.747 Y98.722 E0.06800
G1 X73.391 Y98.022 E0.04657
G1 X72.925 Y96.975 E0.06800
G1 X72.643 Y96.242 E0.04657
G1 X72.289 Y95.152 E0.06799
G1 X72.086 Y94.394 E0.04657
G1 X71.847 Y93.272 E0.06801
G1 X71.725 Y92.497 E0.04657
G1 X71.605 Y91.357 E0.06799
G1 X71.564 Y90.573 E0.04657
G1 X71.564 Y89.427 E0.06801
G1 X71.605 Y88.643 E0.04657
G1 X71.725 Y87.503 E0.06799
G1 X71.847 Y86.728 E0.04657
G1 X72.086 Y85.606 E0.06801
G1 X72.289 Y84.848 E0.04657
G1 X72.643 Y83.758 E0.06799
G1 X72.925 Y83.025 E0.04657
G1 X73.391 Y81.978 E0.06800
G1 X73.747 Y81.278 E0.04657
G1 X74.320 Y80.286 E0.06800
G1 X74.748 Y79.627 E0.04657
G1 X75.422 Y78.700 E0.06800
G1 X75.916 Y78.090 E0.04657
G1 X76.683 Y77.238 E0.06800
G1 X77.195 Y76.725 E0.04301
G1 X77.574 Y77.019 F7800.000
G1 F1048.385
G1 X78.389 Y76.285 E0.06505
G1 X78.999 Y75.791 E0.04657
G1 X79.886 Y75.147 E0.06505
G1 X80.545 Y74.719 E0.04657
G1 X81.494 Y74.171 E0.06505
G1 X82.194 Y73.815 E0.04657
G1 X83.195 Y73.369 E0.06505
G1 X83.928 Y73.087 E0.04657
G1 X84.971 Y72.748 E0.06504
G1 X85.729 Y72.545 E0.04657
G1 X86.802 Y72.317 E0.06506
G1 X87.577 Y72.194 E0.04657
G1 X88.668 Y72.080 E0.06504
G1 X89.452 Y72.039 E0.04657
G1 X90.548 Y72.039 E0.06505
G1 X91.332 Y72.080 E0.04657
G1 X92.423 Y72.194 E0.06504
G1 X93.198 Y72.317 E0.04657
G1 X94.271 Y72.545 E0.06506
G1 X95.029 Y72.748 E0.04657
G1 X96.072 Y73.087 E0.06504
G1 X96.805 Y73.369 E0.04657
G1 X97.806 Y73.815 E0.06505
G1 X98.506 Y74.171 E0.04657
G1 X99.455 Y74.719 E0.06505
G1 X100.114 Y75.147 E0.04657
G1 X101.001 Y75.791 E0.06505
G1 X101.611 Y76.285 E0.04657
G1 X102.426 Y77.019 E0.06505
G1 X102.981 Y77.574 E0.04657
G1 X103.715 Y78.389 E0.06505
G1 X104.209 Y78.999 E0.04657
G1 X104.853 Y79.886 E0.06505
G1 X105.281 Y80.545 E0.04657
G1 X105.829 Y81.494 E0.06505
G1 X106.185 Y82.194 E0.04657
G1 X106.631 Y83.195 E0.06505
G1 X106.913 Y83.928 E0.04657
G1 X107.252 Y84.971 E0.06504
G1 X107.455 Y85.729 E0.04657
G1 X107.683 Y86.802 E0.06506
G1 X107.806 Y87.577 E0.04657
G1 X107.920 Y88.668 E0.06504
G1 X107.961 Y89.452 E0.04657
G1 X107.961 Y90.548 E0.06505
G1 X107.920 Y91.332 E0.04657
G1 X107.806 Y92.423 E0.06504
G1 X107.683 Y93.198 E0.04657
G1 X107.455 Y94.271 E0.06506
G1 X107.252 Y95.029 E0.04657
G1 X106.913 Y96.072 E0.06504
G1 X106.631 Y96.805 E0.04657
G1 X106.185 Y97.806 E0.06505
G1 X105.829 Y98.506 E0.04657
G1 X105.281 Y99.455 E0.06505
G1 X104.853 Y100.114 E0.04657
G1 X104.209 Y101.001 E0.06505
G1 X103.715 Y101.611 E0.04657
G1 X102.981 Y102.426 E0.06505
G1 X102.426 Y102.981 E0.04657
G1 X101.611 Y103.715 E0.06505
G1 X101.001 Y104.209 E0.04657
G1 X100.114 Y104.853 E0.06505
G1 X99.455 Y105.281 E0.04657
G1 X98.506 Y105.829 E0.06505
G1 X97.806 Y106.185 E0.04657
G1 X96.805 Y106.631 E0.06505
G1 X96.072 Y106.913 E0.04657
G1 X95.029 Y107.252 E0.06504
G1 X94.271 Y107.455 E0.04657
G1 X93.198 Y107.683 E0.06506
G1 X92.423 Y107.806 E0.04657
G1 X91.332 Y107.920 E0.06504
G1 X90.548 Y107.961 E0.04657
G1 X89.452 Y107.961 E0.06505
G1 X88.668 Y107.920 E0.04657
G1 X87.577 Y107.806 E0.06504
G1 X86.802 Y107.683 E0.04657
G1 X85.729 Y107.455 E0.06506
G1 X84.971 Y107.252 E0.04657
G1 X83.928 Y106.913 E0.06504
G1 X83.195 Y106.631 E0.04657
G1 X82.194 Y106.185 E0.06505
G1 X81.494 Y105.829 E0.04657
G1 X80.545 Y105.281 E0.06505
G1 X79.886 Y104.853 E0.04657
G1 X78.999 Y104.209 E0.06505
G1 X78.389 Y103.715 E0.04657
G1 X77.574 Y102.981 E0.06505
G1 X77.019 Y102.426 E0.04657
G1 X76.285 Y101.611 E0.06505
G1 X75.791 Y101.001 E0.04657
G1 X75.147 Y100.114 E0.06505
G1 X74.719 Y99.455 E0.04657
G1 X74.171 Y98.506 E0.06505
G1 X73.815 Y97.806 E0.04657
G1 X73.369 Y96.805 E0.06504
G1 X73.087 Y96.072 E0.04657
G1 X72.748 Y95.029 E0.06504
G1 X72.545 Y94.271 E0.04657
G1 X72.317 Y93.198 E0.06506
G1 X72.194 Y92.423 E0.04657
G1 X72.080 Y91.332 E0.06504
G1 X72.039 Y90.548 E0.04657
G1 X72.039 Y89.452 E0.06505
G1 X72.080 Y88.668 E0.04657
G1 X72.194 Y87.577 E0.06504
G1 X72.317 Y86.802 E0.04657
G1 X72.545 Y85.729 E0.06506
G1 X72.748 Y84.971 E0.04657
G1 X73.087 Y83.928 E0.06504
G1 X73.369 Y83.195 E0.04657
G1 X73.815 Y82.194 E0.06505
G1 X74.171 Y81.494 E0.04657
G1 X74.719 Y80.545 E0.06505
G1 X75.147 Y79.886 E0.04657
G1 X75.791 Y78.999 E0.06505
G1 X76.285 Y78.389 E0.04657
G1 X77.019 Y77.574 E0.06505
G1 X77.532 Y77.061 E0.04301
G1 F6240.000
G1 X78.389 Y76.285 E-0.63382
G1 F6240.000
G1 X78.999 Y75.791 E-0.43026
G1 F6240.000
G1 X79.251 Y75.608 E-0.17092
G1 E-0.06500 F3600.00000
G1 X93.711 Y93.711 F7800.000
G1 E1.30000 F3600.00000
G1 F600.000
G1 X93.085 Y94.246 E0.04885
G1 X92.383 Y94.676 E0.04885
G1 X91.622 Y94.991 E0.04885
G1 X90.821 Y95.183 E0.04885
G1 X90.000 Y95.248 E0.04885
G1 X89.179 Y95.183 E0.04885
G1 X88.378 Y94.991 E0.04885
G1 X87.617 Y94.676 E0.04885
G1 X86.915 Y94.246 E0.04885
G1 X86.289 Y93.711 E0.04885
G1 X85.754 Y93.085 E0.04885
G1 X85.324 Y92.383 E0.04885
G1 X85.009 Y91.622 E0.04885
G1 X84.817 Y90.821 E0.04885
G1 X84.752 Y90.000 E0.04885
G1 X84.817 Y89.179 E0.04885
G1 X85.009 Y88.378 E0.04885
G1 X85.324 Y87.617 E0.04885
G1 X85.754 Y86.915 E0.04885
G1 X86.289 Y86.289 E0.04885
G1 X86.915 Y85.754 E0.04885
G1 X87.617 Y85.324 E0.04885
G1 X88.378 Y85.009 E0.04885
G1 X89.179 Y84.817 E0.04885
G1 X90.000 Y84.752 E0.04885
G1 X90.821 Y84.817 E0.04885
G1 X91.622 Y85.009 E0.04885
G1 X92.383 Y85.324 E0.04885
G1 X93.085 Y85.754 E0.04885
G1 X93.711 Y86.289 E0.04885
G1 X94.246 Y86.915 E0.04885
G1 X94.676 Y87.617 E0.04885
G1 X94.991 Y88.378 E0.04885
G1 X95.183 Y89.179 E0.04885
G1 X95.248 Y90.000 E0.04885
G1 X95.183 Y90.821 E0.04885
G1 X94.991 Y91.622 E0.04885
G1 X94.676 Y92.383 E0.04885
G1 X94.246 Y93.085 E0.04885
G1 X93.750 Y93.665 E0.04529
G1 X93.373 Y93.373 F7800.000
G1 F1080.000
G1 X92.804 Y93.860 E0.04441
G1 X92.166 Y94.251 E0.04441
G1 X91.474 Y94.537 E0.04441
G1 X90.746 Y94.712 E0.04441
G1 X90.000 Y94.771 E0.04441
G1 X89.254 Y94.712 E0.04441
G1 X88.526 Y94.537 E0.04441
G1 X87.834 Y94.251 E0.04441
G1 X87.196 Y93.860 E0.04441
G1 X86.627 Y93.373 E0.04441
G1 X86.140 Y92.804 E0.04441
G1 X85.749 Y92.166 E0.04441
G1 X85.463 Y91.474 E0.04441
G1 X85.288 Y90.746 E0.04441
G1 X85.229 Y90.000 E0.04441
G1 X85.288 Y89.254 E0.04441
G1 X85.463 Y88.526 E0.04441
G1 X85.749 Y87.834 E0.04441
G1 X86.140 Y87.196 E0.04441
G1 X86.627 Y86.627 E0.04441
G1 X87.196 Y86.140 E0.04441
G1 X87.834 Y85.749 E0.04441
G1 X88.526 Y85.463 E0.04441
G1 X89.254 Y85.288 E0.04441
G1 X90.000 Y85.229 E0.04441
G1 X90.746 Y85.288 E0.04441
G1 X91.474 Y85.463 E0.04441
G1 X92.166 Y85.749 E0.04441
G1 X92.804 Y86.140 E0.04441
G1 X93.373 Y86.627 E0.04441
G1 X93.860 Y87.196 E0.04441
G1 X94.251 Y87.834 E0.04441
G1 X94.537 Y88.526 E0.04441
G1 X94.712 Y89.254 E0.04441
G1 X94.771 Y90.000 E0.04441
G1 X94.712 Y90.746 E0.04441
G1 X94.537 Y91.474 E0.04441
G1 X94.251 Y92.166 E0.04441
G1 X93.860 Y92.804 E0.04441
G1 X93.412 Y93.328 E0.04085
G1 X93.373 Y93.373 F7800.000
G1 X94.769 Y94.769 F7800.000
G1 F786.289
G1 X94.519 Y95.019 E0.02097
G1 X93.970 Y95.464 E0.04193
G1 X93.377 Y95.849 E0.04193
G1 X92.747 Y96.169 E0.04193
G1 X92.087 Y96.423 E0.04193
G1 X91.404 Y96.606 E0.04193
G1 X90.706 Y96.716 E0.04193
G1 X90.000 Y96.753 E0.04193
G1 X89.294 Y96.716 E0.04193
G1 X88.596 Y96.606 E0.04193
G1 X87.913 Y96.423 E0.04193
G1 X87.253 Y96.169 E0.04193
G1 X86.623 Y95.849 E0.04193
G1 X86.030 Y95.464 E0.04193
G1 X85.481 Y95.019 E0.04193
G1 X84.981 Y94.519 E0.04193
G1 X84.536 Y93.970 E0.04193
G1 X84.151 Y93.377 E0.04193
G1 X83.831 Y92.747 E0.04193
G1 X83.577 Y92.087 E0.04193
G1 X83.394 Y91.404 E0.04193
G1 X83.284 Y90.706 E0.04193
G1 X83.247 Y90.000 E0.04193
G1 X83.284 Y89.294 E0.04193
G1 X83.394 Y88.596 E0.04193
G1 X83.577 Y87.913 E0.04193
G1 X83.831 Y87.253 E0.04193
G1 X84.151 Y86.623 E0.04193
G1 X84.536 Y86.030 E0.04193
G1 X84.981 Y85.481 E0.04193
G1 X85.481 Y84.981 E0.04193
G1 X86.030 Y84.536 E0.04193
G1 X86.623 Y84.151 E0.04193
G1 X87.253 Y83.831 E0.04193
G1 X87.913 Y83.577 E0.04193
G1 X88.596 Y83.394 E0.04193
G1 X89.294 Y83.284 E0.04193
G1 X90.000 Y83.247 E0.04193
G1 X90.706 Y83.284 E0.04193
G1 X91.404 Y83.394 E0.04193
G1 X92.087 Y83.577 E0.04193
G1 X92.747 Y83.831 E0.04193
G1 X93.377 Y84.151 E0.04193
G1 X93.970 Y84.536 E0.04193
G1 X94.519 Y84.981 E0.04193
G1 X95.019 Y85.481 E0.04193
G1 X95.464 Y86.030 E0.04193
G1 X95.849 Y86.623 E0.04193
G1 X96.169 Y87.253 E0.04193
G1 X96.423 Y87.913 E0.04193
G1 X96.606 Y88.596 E0.04193
G1 X96.716 Y89.294 E0.04193
G1 X96.753 Y90.000 E0.04193
G1 X96.716 Y90.706 E0.04193
G1 X96.606 Y91.404 E0.04193
G1 X96.423 Y92.087 E0.04193
G1 X96.169 Y92.747 E0.04193
G1 X95.849 Y93.377 E0.04193
G1 X95.464 Y93.970 E0.04193
G1 X95.019 Y94.519 E0.04193
G1 X94.811 Y94.726 E0.01741
G1 X95.105 Y95.105 F7800.000
G1 F1458.000
G1 X94.838 Y95.373 E0.02245
G1 X94.249 Y95.849 E0.04489
G1 X93.615 Y96.261 E0.04489
G1 X92.941 Y96.605 E0.04489
G1 X92.234 Y96.876 E0.04489
G1 X91.503 Y97.072 E0.04489
G1 X90.756 Y97.190 E0.04489
G1 X90.000 Y97.230 E0.04489
G1 X89.244 Y97.190 E0.04489
G1 X88.497 Y97.072 E0.04489
G1 X87.766 Y96.876 E0.04489
G1 X87.059 Y96.605 E0.04489
G1 X86.385 Y96.261 E0.04489
G1 X85.751 Y95.849 E0.04489
G1 X85.162 Y95.373 E0.04489
G1 X84.627 Y94.838 E0.04489
G1 X84.151 Y94.249 E0.04489
G1 X83.739 Y93.615 E0.04489
G1 X83.395 Y92.941 E0.04489
G1 X83.124 Y92.234 E0.04489
G1 X82.928 Y91.503 E0.04489
G1 X82.810 Y90.756 E0.04489
G1 X82.770 Y90.000 E0.04489
G1 X82.810 Y89.244 E0.04489
G1 X82.928 Y88.497 E0.04489
G1 X83.124 Y87.766 E0.04489
G1 X83.395 Y87.059 E0.04489
G1 X83.739 Y86.385 E0.04489
G1 X84.151 Y85.751 E0.04489
G1 X84.627 Y85.162 E0.04489
G1 X85.162 Y84.627 E0.04489
G1 X85.751 Y84.151 E0.04489
G1 X86.385 Y83.739 E0.04489
G1 X87.059 Y83.395 E0.04489
G1 X87.766 Y83.124 E0.04489
G1 X88.497 Y82.928 E0.04489
G1 X89.244 Y82.810 E0.04489
G1 X90.000 Y82.770 E0.04489
G1 X90.756 Y82.810 E0.04489
G1 X91.503 Y82.928 E0.04489
G1 X92.234 Y83.124 E0.04489
G1 X92.941 Y83.395 E0.04489
G1 X93.615 Y83.739 E0.04489
G1 X94.249 Y84.151 E0.04489
G1 X94.838 Y84.627 E0.04489
G1 X95.373 Y85.162 E0.04489
G1 X95.849 Y85.751 E0.04489
G1 X96.261 Y86.385 E0.04489
G1 X96.605 Y87.059 E0.04489
G1 X96.876 Y87.766 E0.04489
G1 X97.072 Y88.497 E0.04489
G1 X97.190 Y89.244 E0.04489
G1 X97.230 Y90.000 E0.04489
G1 X97.190 Y90.756 E0.04489
G1 X97.072 Y91.503 E0.04489
G1 X96.876 Y92.234 E0.04489
G1 X96.605 Y92.941 E0.04489
G1 X96.261 Y93.615 E0.04489
G1 X95.849 Y94.249 E0.04489
G1 X95.373 Y94.838 E0.04489
G1 X95.148 Y95.063 E0.01889
G1 X94.737 Y95.016 F7800.000
G1 X94.149 Y94.716 F7800.000
G1 F786.289
G1 X94.716 Y94.149 E0.04821
G1 X95.129 Y93.639 E0.03946
G1 X95.487 Y93.088 E0.03951
G1 X95.785 Y92.503 E0.03951
G1 X95.850 Y92.333 E0.01094
G1 X92.333 Y95.850 E0.29914
G1 X91.889 Y96.020 E0.02858
G1 X91.331 Y96.170 E0.03475
G1 X92.310 Y95.191 E0.08323
G1 X91.820 Y95.394 E0.03191
G1 X91.300 Y95.519 E0.03213
G1 X90.522 Y96.298 E0.06621
G1 X89.950 Y96.328 E0.03445
G1 X89.817 Y96.321 E0.00801
G1 X90.498 Y95.639 E0.05794
G1 X90.050 Y95.675 E0.02699
G1 X89.800 Y95.655 E0.01508
G1 X89.180 Y96.275 E0.05276
G1 X88.596 Y96.177 E0.03562
G1 X89.168 Y95.605 E0.04867
G1 X88.617 Y95.475 E0.03409
G1 X88.058 Y96.033 E0.04750
G1 X87.561 Y95.848 E0.03189
G1 X88.093 Y95.316 E0.04523
G1 X87.611 Y95.117 E0.03139
G1 X87.096 Y95.632 E0.04381
G1 X86.658 Y95.387 E0.03014
G1 X87.169 Y94.877 E0.04339
G1 X86.746 Y94.618 E0.02982
G1 X86.246 Y95.118 E0.04248
G1 X85.869 Y94.812 E0.02916
G1 X86.370 Y94.312 E0.04258
G1 X86.002 Y93.998 E0.02909
G1 X85.517 Y94.483 E0.04127
G1 X85.188 Y94.131 E0.02902
G1 X85.688 Y93.630 E0.04258
G1 X85.382 Y93.254 E0.02915
G1 X84.882 Y93.754 E0.04248
G1 X84.613 Y93.342 E0.02962
G1 X85.123 Y92.831 E0.04339
G1 X84.949 Y92.549 E0.01995
G1 X84.883 Y92.389 E0.01039
G1 X84.368 Y92.904 E0.04381
G1 X84.215 Y92.604 E0.02028
G1 X84.152 Y92.439 E0.01063
G1 X84.684 Y91.907 E0.04523
G1 X84.606 Y91.719 E0.01225
G1 X84.525 Y91.383 E0.02074
G1 X83.967 Y91.942 E0.04750
G1 X83.823 Y91.404 E0.03348
G1 X84.395 Y90.832 E0.04867
G1 X84.345 Y90.200 E0.03814
G1 X83.725 Y90.820 E0.05276
G1 X83.679 Y90.183 E0.03838
G1 X84.361 Y89.502 E0.05794
G1 X84.396 Y89.054 E0.02704
G1 X84.481 Y88.700 E0.02190
G1 X83.702 Y89.478 E0.06621
G1 X83.810 Y88.745 E0.04456
G1 X83.830 Y88.669 E0.00476
G1 X84.809 Y87.690 E0.08323
G1 F6240.000
G1 X83.830 Y88.669 E-0.75849
G1 F6240.000
G1 X83.810 Y88.745 E-0.04341
G1 F6240.000
G1 X83.702 Y89.478 E-0.40606
G1 F6240.000
G1 X83.737 Y89.444 E-0.02704
G1 E-0.06500 F3600.00000
G1 X85.851 Y85.284 F7800.000
G1 E1.30000 F3600.00000
G1 F786.289
G1 X85.284 Y85.851 E0.04822
G1 X84.871 Y86.361 E0.03945
G1 X84.513 Y86.912 E0.03951
G1 X84.215 Y87.497 E0.03952
G1 X84.150 Y87.667 E0.01094
G1 X87.667 Y84.150 E0.29914
G1 X88.111 Y83.980 E0.02858
G1 X88.669 Y83.830 E0.03475
