; generated by Slic3r 1.3.1-dev (Build 2d100c4) on 2020-05-15 at 13:15:42

; external perimeters extrusion width = 0.44mm (3.91mm^3/s)
; perimeters extrusion width = 0.56mm (5.65mm^3/s)
; infill extrusion width = 0.50mm (5.02mm^3/s)
; solid infill extrusion width = 0.56mm (5.65mm^3/s)
; top infill extrusion width = 0.56mm (5.65mm^3/s)

M107
M190 S60 ; set bed temperature and wait for it to be reached
M104 S215 ; set temperature
G28 ; home all axes
G92 E0.0 ; reset extruder
; Filament gcode

M109 S215 ; set temperature and wait for it to be reached
G21 ; set units to millimeters
G90 ; use absolute coordinates
M83 ; use relative distances for extrusion
G1 E-1.30000 F3600.00000
G1 Z0.300 F7800.000
G1 X46.602 Y31.151 F7800.000
G1 E1.30000 F3600.00000
M201 X500 Y500
M204 P500 T500
G1 F2160.000
G1 X47.563 Y29.796 E0.09855
G1 X54.704 Y21.193 E0.66324
G1 X56.091 Y19.799 E0.11668
G1 X62.220 Y14.657 E0.47458
G1 X63.834 Y13.533 E0.11669
G1 X73.546 Y7.994 E0.66324
G1 X77.523 Y6.652 E0.24901
G1 X99.581 Y3.710 E1.32011
G1 X102.534 Y3.718 E0.17519
G1 X105.378 Y4.515 E0.17519
G1 X108.068 Y6.176 E0.18758
G1 X131.050 Y25.460 E1.77966
G1 X133.035 Y27.646 E0.17519
G1 X134.365 Y30.283 E0.17519
G1 X134.957 Y34.176 E0.23359
G1 X131.345 Y155.159 E7.18014
G1 X130.860 Y158.072 E0.17519
G1 X128.788 Y161.871 E0.25670
G1 X122.360 Y169.532 E0.59324
G1 X120.175 Y171.518 E0.17519
G1 X117.538 Y172.847 E0.17519
G1 X114.642 Y173.424 E0.17516
G1 X66.700 Y176.366 E2.84936
G1 X63.755 Y176.147 E0.17519
G1 X60.975 Y175.150 E0.17519
G1 X57.640 Y172.474 E0.25367
G1 X47.600 Y160.509 E0.92654
G1 X46.025 Y158.011 E0.17519
G1 X45.173 Y155.184 E0.17519
G1 X45.038 Y153.470 E0.10198
G1 X45.038 Y36.791 E6.92162
G1 X45.437 Y33.865 E0.17519
G1 X46.578 Y31.206 E0.17163
G1 X47.076 Y31.287 F7800.000
G1 F2160.000
G1 X47.929 Y30.100 E0.08673
G1 X55.070 Y21.497 E0.66324
G1 X56.397 Y20.163 E0.11161
G1 X62.525 Y15.021 E0.47458
G1 X64.069 Y13.946 E0.11162
G1 X73.782 Y8.407 E0.66324
G1 X77.586 Y7.123 E0.23820
G1 X99.644 Y4.181 E1.32011
G1 X102.532 Y4.198 E0.17132
G1 X105.306 Y5.002 E0.17132
G1 X107.763 Y6.540 E0.17195
G1 X130.744 Y25.824 E1.77966
G1 X132.679 Y27.968 E0.17132
G1 X133.956 Y30.558 E0.17132
G1 X134.481 Y34.161 E0.21600
G1 X130.870 Y155.144 E7.18014
G1 X130.387 Y157.992 E0.17132
G1 X128.424 Y161.565 E0.24185
G1 X121.996 Y169.226 E0.59324
G1 X119.853 Y171.162 E0.17132
G1 X117.262 Y172.438 E0.17132
G1 X114.613 Y172.949 E0.16006
G1 X66.671 Y175.891 E2.84936
G1 X63.791 Y175.669 E0.17132
G1 X61.082 Y174.669 E0.17132
G1 X58.004 Y172.168 E0.23524
G1 X47.965 Y160.203 E0.92654
G1 X46.431 Y157.756 E0.17132
G1 X45.624 Y154.983 E0.17132
G1 X45.514 Y153.470 E0.09001
G1 X45.514 Y36.791 E6.92162
G1 X45.912 Y33.930 E0.17132
G1 X47.052 Y31.342 E0.16776
G1 F6240.000
G1 X47.929 Y30.100 E-0.83351
G1 F6240.000
G1 X48.397 Y29.536 E-0.40149
G1 E-0.06500 F3600.00000
G1 X76.404 Y55.174 F7800.000
G1 E1.30000 F3600.00000
G1 F1620.000
G1 X76.637 Y57.301 E0.12695
G1 X76.629 Y130.558 E4.34576
G1 X76.012 Y132.675 E0.13078
G1 X74.605 Y134.428 E0.13335
G1 X72.634 Y135.509 E0.13331
G1 X70.400 Y135.754 E0.13333
G1 X68.243 Y135.125 E0.13334
G1 X66.490 Y133.718 E0.13332
G1 X65.409 Y131.747 E0.13336
G1 X65.176 Y129.621 E0.12692
G1 X65.184 Y56.364 E4.34573
G1 X65.801 Y54.246 E0.13084
G1 X67.208 Y52.493 E0.13333
G1 X69.178 Y51.412 E0.13333
G1 X71.412 Y51.168 E0.13333
G1 X73.570 Y51.797 E0.13333
G1 X75.323 Y53.203 E0.13333
G1 X76.375 Y55.121 E0.12977
G1 X75.941 Y55.320 F7800.000
G1 F1458.000
G1 X76.161 Y57.327 E0.11979
G1 X76.153 Y130.490 E4.34019
G1 X75.582 Y132.451 E0.12115
G1 X74.293 Y134.057 E0.12213
G1 X72.489 Y135.046 E0.12209
G1 X70.443 Y135.271 E0.12211
G1 X68.466 Y134.695 E0.12211
G1 X66.861 Y133.407 E0.12210
G1 X65.871 Y131.602 E0.12213
G1 X65.651 Y129.595 E0.11977
G1 X65.659 Y56.432 E4.34016
G1 X66.231 Y54.470 E0.12120
G1 X67.519 Y52.865 E0.12210
G1 X69.324 Y51.875 E0.12210
G1 X71.370 Y51.651 E0.12210
G1 X73.346 Y52.227 E0.12211
G1 X74.951 Y53.515 E0.12210
G1 X75.913 Y55.267 E0.11854
G1 X75.941 Y55.320 F7800.000
G1 F6240.000
G1 X75.941 Y55.320 E-0.03288
G1 F6240.000
G1 X76.161 Y57.327 E-1.10676
G1 F6240.000
G1 X76.161 Y57.501 E-0.09535
G1 E-0.06500 F3600.00000
G1 X65.467 Y29.812 F7800.000
G1 E1.30000 F3600.00000
G1 F1620.000
G1 X64.181 Y28.280 E0.11864
G1 X69.167 Y24.096 E0.38611
G1 X70.453 Y25.628 E0.11864
G1 X78.879 Y18.558 E0.65254
G1 X84.653 Y25.439 E0.53288
G1 X84.653 Y142.118 E6.92164
G1 X87.960 Y146.059 E0.30517
G1 X83.740 Y149.600 E0.32680
G1 X80.980 Y146.311 E0.25473
G1 X79.693 Y145.068 E0.10614
G1 X78.142 Y144.098 E0.10853
G1 X76.422 Y143.472 E0.10853
G1 X74.611 Y143.219 E0.10850
G1 X72.786 Y143.345 E0.10850
G1 X71.028 Y143.850 E0.10851
G1 X69.413 Y144.708 E0.10851
G1 X68.012 Y145.884 E0.10851
G1 X66.886 Y147.326 E0.10851
G1 X66.084 Y148.969 E0.10850
G1 X65.641 Y150.745 E0.10853
G1 X65.577 Y152.573 E0.10854
G1 X65.895 Y154.375 E0.10851
G1 X66.580 Y156.070 E0.10847
G1 X67.581 Y157.554 E0.10620
G1 X70.341 Y160.843 E0.25469
G1 X66.121 Y164.384 E0.32681
G1 X56.735 Y153.198 E0.86621
G1 X56.735 Y37.138 E6.88490
G1 X65.421 Y29.851 E0.67258
G1 X64.797 Y29.753 F7800.000
G1 F1458.000
G1 X63.511 Y28.221 E0.11864
G1 X69.226 Y23.426 E0.44254
G1 X70.511 Y24.958 E0.11864
G1 X78.938 Y17.888 E0.65254
G1 X85.129 Y25.266 E0.57137
G1 X85.129 Y141.945 E6.92164
G1 X88.630 Y146.118 E0.32311
G1 X83.681 Y150.270 E0.38324
G1 X80.632 Y146.635 E0.28147
G1 X79.398 Y145.445 E0.10170
G1 X77.932 Y144.528 E0.10260
G1 X76.307 Y143.936 E0.10259
G1 X74.594 Y143.697 E0.10257
G1 X72.869 Y143.816 E0.10257
G1 X71.207 Y144.293 E0.10258
G1 X69.680 Y145.105 E0.10258
G1 X68.356 Y146.216 E0.10258
G1 X67.291 Y147.579 E0.10258
G1 X66.533 Y149.133 E0.10257
G1 X66.115 Y150.811 E0.10259
G1 X66.054 Y152.540 E0.10261
G1 X66.355 Y154.243 E0.10258
G1 X67.002 Y155.845 E0.10254
G1 X67.961 Y157.268 E0.10176
G1 X71.011 Y160.902 E0.28142
G1 X66.062 Y165.054 E0.38324
G1 X56.260 Y153.372 E0.90470
G1 X56.260 Y36.917 E6.90833
G1 X64.751 Y29.792 E0.65753
G1 X65.024 Y29.424 F7800.000
G1 X66.030 Y29.854 F7800.000
G1 F1620.000
G1 X70.076 Y25.808 E0.33988
G1 X69.768 Y25.442 E0.02840
G1 X65.723 Y29.488 E0.33988
G1 X65.415 Y29.122 E0.02840
G1 X69.461 Y25.076 E0.33988
G1 X69.159 Y24.716 E0.02793
G1 X69.089 Y24.774 E0.00538
G1 X65.108 Y28.755 E0.33448
G1 X64.801 Y28.389 E0.02840
G1 X64.903 Y28.287 E0.00860
G1 F6240.000
G1 X64.801 Y28.389 E-0.07938
G1 F6240.000
G1 X65.108 Y28.755 E-0.26203
G1 F6240.000
G1 X66.261 Y27.603 E-0.89358
G1 E-0.06500 F3600.00000
G1 X61.135 Y34.076 F7800.000
G1 E1.30000 F3600.00000
G1 F1620.000
G1 X57.160 Y37.411 E0.30818
G1 X57.160 Y38.050 E0.03799
G1 X61.236 Y33.975 E0.34235
G1 X65.422 Y30.463 E0.32461
G1 X57.160 Y38.724 E0.69402
G1 X57.160 Y39.397 E0.04001
G1 X70.383 Y26.175 E1.11083
G1 X70.444 Y26.248 E0.00568
G1 X73.794 Y23.437 E0.25975
G1 X57.160 Y40.071 E1.39739
G1 X57.160 Y40.744 E0.04001
G1 X77.980 Y19.925 E1.74907
G1 X78.871 Y19.177 E0.06908
G1 X79.113 Y19.465 E0.02236
G1 X57.160 Y41.418 E1.84422
G1 X57.160 Y42.091 E0.04001
G1 X79.420 Y19.832 E1.87004
G1 X79.728 Y20.198 E0.02840
G1 X57.160 Y42.765 E1.89586
G1 X57.160 Y43.439 E0.04001
G1 X80.035 Y20.564 E1.92168
G1 X80.342 Y20.930 E0.02840
G1 X57.160 Y44.112 E1.94749
G1 X57.160 Y44.786 E0.04001
G1 X80.649 Y21.297 E1.97331
G1 X80.957 Y21.663 E0.02840
G1 X57.160 Y45.459 E1.99913
G1 X57.160 Y46.133 E0.04001
G1 X81.264 Y22.029 E2.02494
G1 X81.571 Y22.395 E0.02840
G1 X57.160 Y46.806 E2.05076
G1 X57.160 Y47.480 E0.04001
G1 X81.879 Y22.762 E2.07658
G1 X82.186 Y23.128 E0.02840
G1 X57.160 Y48.154 E2.10240
G1 X57.160 Y48.827 E0.04001
G1 X82.493 Y23.494 E2.12821
G1 X82.801 Y23.860 E0.02840
G1 X57.160 Y49.501 E2.15403
G1 X57.160 Y50.174 E0.04001
G1 X83.108 Y24.227 E2.17985
G1 X83.415 Y24.593 E0.02840
G1 X57.160 Y50.848 E2.20567
G1 X57.160 Y51.521 E0.04001
G1 X83.723 Y24.959 E2.23148
G1 X84.030 Y25.325 E0.02840
G1 X57.160 Y52.195 E2.25730
G1 X57.160 Y52.868 E0.04001
G1 X84.228 Y25.801 E2.27395
G1 X84.228 Y26.474 E0.04001
G1 X57.160 Y53.542 E2.27395
G1 X57.160 Y54.216 E0.04001
G1 X84.228 Y27.148 E2.27395
G1 X84.228 Y27.821 E0.04001
G1 X57.160 Y54.889 E2.27395
G1 X57.160 Y55.563 E0.04001
G1 X84.228 Y28.495 E2.27395
G1 X84.228 Y29.169 E0.04001
G1 X57.160 Y56.236 E2.27395
G1 X57.160 Y56.910 E0.04001
G1 X84.228 Y29.842 E2.27395
G1 X84.228 Y30.516 E0.04001
G1 X57.160 Y57.583 E2.27395
G1 X57.160 Y58.257 E0.04001
G1 X84.228 Y31.189 E2.27395
G1 X84.228 Y31.863 E0.04001
G1 X57.160 Y58.930 E2.27395
G1 X57.160 Y59.604 E0.04001
G1 X84.228 Y32.536 E2.27395
G1 X84.228 Y33.210 E0.04001
G1 X57.160 Y60.278 E2.27395
G1 X57.160 Y60.951 E0.04001
G1 X84.228 Y33.883 E2.27395
G1 X84.228 Y34.557 E0.04001
G1 X57.160 Y61.625 E2.27395
G1 X57.160 Y62.298 E0.04001
G1 X65.293 Y54.165 E0.68325
G1 X65.320 Y54.073 E0.00572
G1 X66.846 Y52.172 E0.14475
G1 X67.822 Y51.637 E0.06616
G1 X84.228 Y35.231 E1.37828
G1 X84.228 Y35.904 E0.04001
G1 X69.150 Y50.982 E1.26668
G1 X69.907 Y50.899 E0.04520
G1 X84.228 Y36.578 E1.20314
G1 X84.228 Y37.251 E0.04001
G1 X70.663 Y50.816 E1.13959
G1 X71.415 Y50.738 E0.04489
G1 X84.228 Y37.925 E1.07645
G1 X84.228 Y38.598 E0.04001
G1 X71.936 Y50.890 E1.03263
G1 X72.458 Y51.042 E0.03227
G1 X84.228 Y39.272 E0.98882
G1 X84.228 Y39.946 E0.04001
G1 X72.979 Y51.194 E0.94501
G1 X73.501 Y51.346 E0.03227
G1 X84.228 Y40.619 E0.90119
G1 X84.228 Y41.293 E0.04001
G1 X73.943 Y51.577 E0.86402
G1 X74.317 Y51.877 E0.02846
G1 X84.228 Y41.966 E0.83263
G1 X84.228 Y42.640 E0.04001
G1 X74.691 Y52.177 E0.80124
G1 X75.064 Y52.477 E0.02846
G1 X84.228 Y43.313 E0.76984
G1 X84.228 Y43.987 E0.04001
G1 X75.438 Y52.777 E0.73845
G1 X75.644 Y52.942 E0.01569
G1 X75.751 Y53.137 E0.01323
G1 X84.228 Y44.660 E0.71215
G1 X84.228 Y45.334 E0.04001
G1 X75.990 Y53.572 E0.69211
G1 X76.228 Y54.007 E0.02947
G1 X84.228 Y46.008 E0.67206
G1 X84.228 Y46.681 E0.04001
G1 X76.467 Y54.442 E0.65202
G1 X76.705 Y54.877 E0.02947
G1 X84.228 Y47.355 E0.63197
G1 X84.228 Y48.028 E0.04001
G1 X76.852 Y55.405 E0.61970
G1 X76.918 Y56.012 E0.03628
G1 X84.228 Y48.702 E0.61411
G1 X84.228 Y49.375 E0.04001
G1 X76.985 Y56.619 E0.60852
G1 X77.051 Y57.226 E0.03628
G1 X84.228 Y50.049 E0.60294
G1 X84.228 Y50.722 E0.04001
G1 X77.062 Y57.889 E0.60202
G1 X77.062 Y58.562 E0.04002
G1 X84.228 Y51.396 E0.60203
G1 X84.228 Y52.070 E0.04001
G1 X77.062 Y59.236 E0.60204
G1 X77.062 Y59.909 E0.04002
G1 X84.228 Y52.743 E0.60204
G1 X84.228 Y53.417 E0.04001
G1 X77.062 Y60.583 E0.60205
G1 X77.062 Y61.257 E0.04002
G1 X84.228 Y54.090 E0.60206
G1 X84.228 Y54.764 E0.04001
G1 X77.062 Y61.930 E0.60206
G1 X77.061 Y62.604 E0.04002
G1 X84.228 Y55.437 E0.60207
G1 X84.228 Y56.111 E0.04001
G1 X77.061 Y63.278 E0.60207
G1 X77.061 Y63.951 E0.04002
G1 X84.228 Y56.784 E0.60208
G1 X84.228 Y57.458 E0.04001
G1 X77.061 Y64.625 E0.60209
G1 X77.061 Y65.299 E0.04002
G1 X84.228 Y58.132 E0.60209
G1 X84.228 Y58.805 E0.04001
G1 X77.061 Y65.972 E0.60210
G1 X77.061 Y66.646 E0.04002
G1 X84.228 Y59.479 E0.60211
G1 X84.228 Y60.152 E0.04001
G1 X77.061 Y67.319 E0.60211
G1 X77.061 Y67.993 E0.04002
G1 X84.228 Y60.826 E0.60212
G1 X84.228 Y61.499 E0.04001
G1 X77.061 Y68.667 E0.60212
G1 X77.061 Y69.340 E0.04002
G1 X84.228 Y62.173 E0.60213
G1 X84.228 Y62.847 E0.04001
G1 X77.061 Y70.014 E0.60214
G1 X77.061 Y70.688 E0.04002
G1 X84.228 Y63.520 E0.60214
G1 X84.228 Y64.194 E0.04001
G1 X77.060 Y71.361 E0.60215
G1 X77.060 Y72.035 E0.04002
G1 X84.228 Y64.867 E0.60215
G1 X84.228 Y65.541 E0.04001
G1 X77.060 Y72.708 E0.60216
G1 X77.060 Y73.382 E0.04002
G1 X84.228 Y66.214 E0.60217
G1 X84.228 Y66.888 E0.04001
G1 X77.060 Y74.056 E0.60217
G1 X77.060 Y74.729 E0.04002
G1 X84.228 Y67.561 E0.60218
G1 X84.228 Y68.235 E0.04001
G1 X77.060 Y75.403 E0.60219
G1 X77.060 Y76.077 E0.04002
G1 X84.228 Y68.909 E0.60219
G1 X84.228 Y69.582 E0.04001
G1 X77.060 Y76.750 E0.60220
G1 X77.060 Y77.424 E0.04002
G1 X84.228 Y70.256 E0.60220
G1 X84.228 Y70.929 E0.04001
G1 X77.060 Y78.098 E0.60221
G1 X77.060 Y78.771 E0.04002
G1 X84.228 Y71.603 E0.60222
G1 X84.228 Y72.276 E0.04001
G1 X77.060 Y79.445 E0.60222
G1 X77.060 Y80.118 E0.04002
G1 X84.228 Y72.950 E0.60223
G1 X84.228 Y73.623 E0.04001
G1 X77.059 Y80.792 E0.60224
G1 X77.059 Y81.466 E0.04002
G1 X84.228 Y74.297 E0.60224
G1 X84.228 Y74.971 E0.04001
G1 X77.059 Y82.139 E0.60225
G1 X77.059 Y82.813 E0.04002
G1 X84.228 Y75.644 E0.60225
G1 X84.228 Y76.318 E0.04001
G1 X77.059 Y83.487 E0.60226
G1 X77.059 Y84.160 E0.04002
G1 X84.228 Y76.991 E0.60227
G1 X84.228 Y77.665 E0.04001
G1 X77.059 Y84.834 E0.60227
G1 X77.059 Y85.508 E0.04002
G1 X84.228 Y78.338 E0.60228
G1 X84.228 Y79.012 E0.04001
G1 X77.059 Y86.181 E0.60228
G1 X77.059 Y86.855 E0.04002
G1 X84.228 Y79.685 E0.60229
G1 X84.228 Y80.359 E0.04001
G1 X77.059 Y87.528 E0.60230
G1 X77.059 Y88.202 E0.04002
G1 X84.228 Y81.033 E0.60230
G1 X84.228 Y81.706 E0.04001
G1 X77.059 Y88.876 E0.60231
G1 X77.058 Y89.549 E0.04002
G1 X84.228 Y82.380 E0.60232
G1 X84.228 Y83.053 E0.04001
G1 X77.058 Y90.223 E0.60232
G1 X77.058 Y90.897 E0.04002
G1 X84.228 Y83.727 E0.60233
G1 X84.228 Y84.400 E0.04001
G1 X77.058 Y91.570 E0.60233
G1 X77.058 Y92.244 E0.04002
G1 X84.228 Y85.074 E0.60234
G1 X84.228 Y85.748 E0.04001
G1 X77.058 Y92.917 E0.60235
G1 X77.058 Y93.591 E0.04002
G1 X84.228 Y86.421 E0.60235
G1 X84.228 Y87.095 E0.04001
G1 X77.058 Y94.265 E0.60236
G1 X77.058 Y94.938 E0.04002
G1 X84.228 Y87.768 E0.60237
G1 X84.228 Y88.442 E0.04001
G1 X77.058 Y95.612 E0.60237
G1 X77.058 Y96.286 E0.04002
G1 X84.228 Y89.115 E0.60238
G1 X84.228 Y89.789 E0.04001
G1 X77.058 Y96.959 E0.60238
G1 X77.058 Y97.633 E0.04002
G1 X84.228 Y90.462 E0.60239
G1 X84.228 Y91.136 E0.04001
G1 X77.058 Y98.307 E0.60240
G1 X77.057 Y98.980 E0.04002
G1 X84.228 Y91.810 E0.60240
G1 X84.228 Y92.483 E0.04001
G1 X77.057 Y99.654 E0.60241
G1 X77.057 Y100.327 E0.04002
G1 X84.228 Y93.157 E0.60242
G1 X84.228 Y93.830 E0.04001
G1 X77.057 Y101.001 E0.60242
G1 X77.057 Y101.675 E0.04002
G1 X84.228 Y94.504 E0.60243
G1 X84.228 Y95.177 E0.04001
G1 X77.057 Y102.348 E0.60243
G1 X77.057 Y103.022 E0.04002
G1 X84.228 Y95.851 E0.60244
G1 X84.228 Y96.524 E0.04001
G1 X77.057 Y103.696 E0.60245
G1 X77.057 Y104.369 E0.04002
G1 X84.228 Y97.198 E0.60245
G1 X84.228 Y97.872 E0.04001
G1 X77.057 Y105.043 E0.60246
G1 X77.057 Y105.716 E0.04002
G1 X84.228 Y98.545 E0.60246
G1 X84.228 Y99.219 E0.04001
G1 X77.057 Y106.390 E0.60247
G1 X77.057 Y107.064 E0.04002
G1 X84.228 Y99.892 E0.60248
G1 X84.228 Y100.566 E0.04001
G1 X77.056 Y107.737 E0.60248
G1 X77.056 Y108.411 E0.04002
G1 X84.228 Y101.239 E0.60249
G1 X84.228 Y101.913 E0.04001
G1 X77.056 Y109.085 E0.60250
G1 X77.056 Y109.758 E0.04002
G1 X84.228 Y102.586 E0.60250
G1 X84.228 Y103.260 E0.04001
G1 X77.056 Y110.432 E0.60251
G1 X77.056 Y111.106 E0.04002
G1 X84.228 Y103.934 E0.60251
G1 X84.228 Y104.607 E0.04001
G1 X77.056 Y111.779 E0.60252
G1 X77.056 Y112.453 E0.04002
G1 X84.228 Y105.281 E0.60253
G1 X84.228 Y105.954 E0.04001
G1 X77.056 Y113.126 E0.60253
G1 X77.056 Y113.800 E0.04002
G1 X84.228 Y106.628 E0.60254
G1 X84.228 Y107.301 E0.04001
G1 X77.056 Y114.474 E0.60254
G1 X77.056 Y115.147 E0.04002
G1 X84.228 Y107.975 E0.60255
G1 X84.228 Y108.649 E0.04001
G1 X77.056 Y115.821 E0.60256
G1 X77.056 Y116.495 E0.04002
G1 X84.228 Y109.322 E0.60256
G1 X84.228 Y109.996 E0.04001
G1 X77.055 Y117.168 E0.60257
G1 X77.055 Y117.842 E0.04002
G1 X84.228 Y110.669 E0.60258
G1 X84.228 Y111.343 E0.04001
G1 X77.055 Y118.515 E0.60258
G1 X77.055 Y119.189 E0.04002
G1 X84.228 Y112.016 E0.60259
G1 X84.228 Y112.690 E0.04001
G1 X77.055 Y119.863 E0.60259
G1 X77.055 Y120.536 E0.04002
G1 X84.228 Y113.363 E0.60260
G1 X84.228 Y114.037 E0.04001
G1 X77.055 Y121.210 E0.60261
G1 X77.055 Y121.884 E0.04002
G1 X84.228 Y114.711 E0.60261
G1 X84.228 Y115.384 E0.04001
G1 X77.055 Y122.557 E0.60262
G1 X77.055 Y123.231 E0.04002
G1 X84.228 Y116.058 E0.60263
G1 X84.228 Y116.731 E0.04001
G1 X77.055 Y123.905 E0.60263
G1 X77.055 Y124.578 E0.04002
G1 X84.228 Y117.405 E0.60264
G1 X84.228 Y118.078 E0.04001
G1 X77.055 Y125.252 E0.60264
G1 X77.055 Y125.925 E0.04002
G1 X84.228 Y118.752 E0.60265
G1 X84.228 Y119.425 E0.04001
G1 X77.054 Y126.599 E0.60266
G1 X77.054 Y127.273 E0.04002
G1 X84.228 Y120.099 E0.60266
G1 X84.228 Y120.773 E0.04001
G1 X77.054 Y127.946 E0.60267
