; generated by Slic3r 1.3.1-dev (Build 2d100c4) on 2020-05-07 at 12:46:48

; external perimeters extrusion width = 0.44mm (3.91mm^3/s)
; perimeters extrusion width = 0.56mm (5.65mm^3/s)
; infill extrusion width = 0.50mm (5.02mm^3/s)
; solid infill extrusion width = 0.56mm (5.65mm^3/s)
; top infill extrusion width = 0.56mm (5.65mm^3/s)

M107
M190 S60 ; set bed temperature and wait for it to be reached
M104 S215 ; set temperature
G28 ; home all axes
G92 E0.0 ; reset extruder
; Filament gcode

M109 S215 ; set temperature and wait for it to be reached
G21 ; set units to millimeters
G90 ; use absolute coordinates
M83 ; use relative distances for extrusion
G1 E-1.30000 F3600.00000
G1 Z0.300 F7800.000
G1 X60.103 Y47.791 F7800.000
G1 E1.30000 F3600.00000
M201 X500 Y500
M204 P500 T500
G1 F2160.000
G1 X62.217 Y46.142 E0.15903
G1 X65.042 Y44.448 E0.19544
G1 X65.990 Y43.941 E0.06377
G1 X69.628 Y42.221 E0.23869
G1 X70.621 Y41.810 E0.06375
G1 X74.409 Y40.454 E0.23868
G1 X75.437 Y40.142 E0.06376
G1 X78.633 Y39.342 E0.19544
G1 X81.294 Y39.014 E0.15905
G1 X98.706 Y39.014 E1.03290
G1 X101.367 Y39.342 E0.15905
G1 X104.563 Y40.142 E0.19544
G1 X105.591 Y40.454 E0.06376
G1 X109.379 Y41.810 E0.23868
G1 X110.372 Y42.221 E0.06375
G1 X114.010 Y43.941 E0.23869
G1 X114.958 Y44.448 E0.06377
G1 X117.783 Y46.142 E0.19544
G1 X119.897 Y47.791 E0.15903
G1 X132.209 Y60.103 E1.03289
G1 X133.858 Y62.217 E0.15903
G1 X135.552 Y65.042 E0.19544
G1 X136.059 Y65.990 E0.06377
G1 X137.779 Y69.628 E0.23869
G1 X138.190 Y70.621 E0.06375
G1 X139.546 Y74.409 E0.23868
G1 X139.858 Y75.437 E0.06376
G1 X140.658 Y78.633 E0.19544
G1 X140.986 Y81.294 E0.15905
G1 X140.986 Y98.706 E1.03290
G1 X140.658 Y101.367 E0.15905
G1 X139.858 Y104.563 E0.19544
G1 X139.546 Y105.591 E0.06376
G1 X138.190 Y109.379 E0.23868
G1 X137.779 Y110.372 E0.06375
G1 X136.059 Y114.010 E0.23869
G1 X135.552 Y114.958 E0.06377
G1 X133.858 Y117.783 E0.19544
G1 X132.209 Y119.897 E0.15903
G1 X119.897 Y132.209 E1.03289
G1 X117.783 Y133.858 E0.15903
G1 X114.958 Y135.552 E0.19544
G1 X114.010 Y136.059 E0.06377
G1 X110.372 Y137.779 E0.23869
G1 X109.379 Y138.190 E0.06375
G1 X105.591 Y139.546 E0.23868
G1 X104.563 Y139.858 E0.06376
G1 X101.367 Y140.658 E0.19544
G1 X98.706 Y140.986 E0.15905
G1 X81.294 Y140.986 E1.03290
G1 X78.633 Y140.658 E0.15905
G1 X75.437 Y139.858 E0.19544
G1 X74.409 Y139.546 E0.06376
G1 X70.621 Y138.190 E0.23868
G1 X69.628 Y137.779 E0.06375
G1 X65.990 Y136.059 E0.23869
G1 X65.042 Y135.552 E0.06377
G1 X62.217 Y133.858 E0.19544
G1 X60.103 Y132.209 E0.15903
G1 X47.791 Y119.897 E1.03289
G1 X46.142 Y117.783 E0.15903
G1 X44.448 Y114.958 E0.19544
G1 X43.941 Y114.010 E0.06377
G1 X42.221 Y110.372 E0.23869
G1 X41.810 Y109.379 E0.06375
G1 X40.454 Y105.591 E0.23868
G1 X40.142 Y104.563 E0.06376
G1 X39.342 Y101.367 E0.19544
G1 X39.014 Y98.706 E0.15905
G1 X39.014 Y81.294 E1.03290
G1 X39.342 Y78.633 E0.15905
G1 X40.142 Y75.437 E0.19544
G1 X40.454 Y74.409 E0.06376
G1 X41.810 Y70.621 E0.23868
G1 X42.221 Y69.628 E0.06375
G1 X43.941 Y65.990 E0.23869
G1 X44.448 Y65.042 E0.06377
G1 X46.142 Y62.217 E0.19544
G1 X47.791 Y60.103 E0.15903
G1 X60.061 Y47.834 E1.02933
G1 X60.440 Y48.128 F7800.000
G1 F2160.000
G1 X62.461 Y46.550 E0.15213
G1 X65.287 Y44.856 E0.19544
G1 X66.194 Y44.371 E0.06100
G1 X69.831 Y42.651 E0.23869
G1 X70.781 Y42.258 E0.06098
G1 X74.569 Y40.902 E0.23868
G1 X75.553 Y40.604 E0.06099
G1 X78.749 Y39.803 E0.19544
G1 X81.294 Y39.489 E0.15214
G1 X98.706 Y39.489 E1.03290
G1 X101.251 Y39.803 E0.15214
G1 X104.447 Y40.604 E0.19544
G1 X105.431 Y40.902 E0.06099
G1 X109.219 Y42.258 E0.23868
G1 X110.169 Y42.651 E0.06098
G1 X113.806 Y44.371 E0.23869
G1 X114.713 Y44.856 E0.06100
G1 X117.539 Y46.550 E0.19544
G1 X119.560 Y48.128 E0.15213
G1 X131.872 Y60.440 E1.03289
G1 X133.450 Y62.461 E0.15213
G1 X135.144 Y65.287 E0.19544
G1 X135.629 Y66.194 E0.06100
G1 X137.349 Y69.831 E0.23869
G1 X137.742 Y70.781 E0.06098
G1 X139.098 Y74.569 E0.23868
G1 X139.396 Y75.553 E0.06099
G1 X140.197 Y78.749 E0.19544
G1 X140.511 Y81.294 E0.15214
G1 X140.511 Y98.706 E1.03290
G1 X140.197 Y101.251 E0.15214
G1 X139.396 Y104.447 E0.19544
G1 X139.098 Y105.431 E0.06099
G1 X137.742 Y109.219 E0.23868
G1 X137.349 Y110.169 E0.06098
G1 X135.629 Y113.806 E0.23869
G1 X135.144 Y114.713 E0.06100
G1 X133.450 Y117.539 E0.19544
G1 X131.872 Y119.560 E0.15213
G1 X119.560 Y131.872 E1.03289
G1 X117.539 Y133.450 E0.15213
G1 X114.713 Y135.144 E0.19544
G1 X113.806 Y135.629 E0.06100
G1 X110.169 Y137.349 E0.23869
G1 X109.219 Y137.742 E0.06098
G1 X105.431 Y139.098 E0.23868
G1 X104.447 Y139.396 E0.06099
G1 X101.251 Y140.197 E0.19544
G1 X98.706 Y140.511 E0.15214
G1 X81.294 Y140.511 E1.03290
G1 X78.749 Y140.197 E0.15214
G1 X75.553 Y139.396 E0.19544
G1 X74.569 Y139.098 E0.06099
G1 X70.781 Y137.742 E0.23868
G1 X69.831 Y137.349 E0.06098
G1 X66.194 Y135.629 E0.23869
G1 X65.287 Y135.144 E0.06100
G1 X62.461 Y133.450 E0.19544
G1 X60.440 Y131.872 E0.15213
G1 X48.128 Y119.560 E1.03289
G1 X46.550 Y117.539 E0.15213
G1 X44.856 Y114.713 E0.19544
G1 X44.371 Y113.806 E0.06100
G1 X42.651 Y110.169 E0.23869
G1 X42.258 Y109.219 E0.06098
G1 X40.902 Y105.431 E0.23868
G1 X40.604 Y104.447 E0.06099
G1 X39.803 Y101.251 E0.19544
G1 X39.489 Y98.706 E0.15214
G1 X39.489 Y81.294 E1.03290
G1 X39.803 Y78.749 E0.15214
G1 X40.604 Y75.553 E0.19544
G1 X40.902 Y74.569 E0.06099
G1 X42.258 Y70.781 E0.23868
G1 X42.651 Y69.831 E0.06098
G1 X44.371 Y66.194 E0.23869
G1 X44.856 Y65.287 E0.06100
G1 X46.550 Y62.461 E0.19544
G1 X48.128 Y60.440 E0.15213
G1 X60.397 Y48.170 E1.02933
G1 F6240.000
G1 X62.170 Y46.779 E-1.23500
G1 E-0.06500 F3600.00000
G1 X94.705 Y92.095 F7800.000
G1 E1.30000 F3600.00000
G1 F1080.000
G1 X94.166 Y93.027 E0.06387
G1 X93.446 Y93.827 E0.06386
G1 X92.575 Y94.460 E0.06386
G1 X91.591 Y94.898 E0.06387
G1 X90.538 Y95.122 E0.06386
G1 X89.462 Y95.122 E0.06387
G1 X88.409 Y94.898 E0.06386
G1 X87.425 Y94.460 E0.06387
G1 X86.554 Y93.827 E0.06386
G1 X85.834 Y93.027 E0.06387
G1 X85.295 Y92.095 E0.06387
G1 X84.963 Y91.071 E0.06386
G1 X84.850 Y90.000 E0.06386
G1 X84.963 Y88.929 E0.06387
G1 X85.295 Y87.905 E0.06386
G1 X85.834 Y86.973 E0.06387
G1 X86.554 Y86.173 E0.06387
G1 X87.425 Y85.540 E0.06386
G1 X88.409 Y85.102 E0.06387
G1 X89.462 Y84.878 E0.06386
G1 X90.538 Y84.878 E0.06387
G1 X91.591 Y85.102 E0.06386
G1 X92.575 Y85.540 E0.06387
G1 X93.446 Y86.173 E0.06386
G1 X94.166 Y86.973 E0.06386
G1 X94.705 Y87.905 E0.06387
G1 X95.037 Y88.929 E0.06386
G1 X95.150 Y90.000 E0.06387
G1 X95.037 Y91.071 E0.06386
G1 X94.723 Y92.038 E0.06031
G1 X94.268 Y91.900 F7800.000
G1 F1080.000
G1 X93.779 Y92.746 E0.05793
G1 X93.126 Y93.472 E0.05793
G1 X92.336 Y94.046 E0.05793
G1 X91.444 Y94.443 E0.05793
G1 X90.488 Y94.646 E0.05793
G1 X89.512 Y94.646 E0.05793
G1 X88.556 Y94.443 E0.05793
G1 X87.664 Y94.046 E0.05793
G1 X86.874 Y93.472 E0.05793
G1 X86.221 Y92.746 E0.05793
G1 X85.732 Y91.900 E0.05793
G1 X85.431 Y90.971 E0.05793
G1 X85.329 Y90.000 E0.05793
G1 X85.431 Y89.029 E0.05793
G1 X85.732 Y88.100 E0.05793
G1 X86.221 Y87.254 E0.05793
G1 X86.874 Y86.528 E0.05793
G1 X87.664 Y85.954 E0.05793
G1 X88.556 Y85.557 E0.05793
G1 X89.512 Y85.354 E0.05793
G1 X90.488 Y85.354 E0.05793
G1 X91.444 Y85.557 E0.05793
G1 X92.336 Y85.954 E0.05793
G1 X93.126 Y86.528 E0.05793
G1 X93.779 Y87.254 E0.05793
G1 X94.268 Y88.100 E0.05793
G1 X94.569 Y89.029 E0.05793
G1 X94.671 Y90.000 E0.05793
G1 X94.569 Y90.971 E0.05793
G1 X94.286 Y91.843 E0.05437
G1 X94.268 Y91.900 F7800.000
G1 F6240.000
G1 X94.268 Y91.900 E-0.03288
G1 F6240.000
G1 X93.779 Y92.746 E-0.53526
G1 F6240.000
G1 X93.126 Y93.472 E-0.53525
G1 F6240.000
G1 X92.932 Y93.613 E-0.13160
G1 E-0.06500 F3600.00000
G1 X116.163 Y102.797 F7800.000
G1 E1.30000 F3600.00000
G1 F1620.000
G1 X115.964 Y102.996 E0.01668
G1 X115.033 Y102.411 E0.06523
G1 X113.035 Y101.711 E0.12561
G1 X110.930 Y101.474 E0.12561
G1 X108.826 Y101.711 E0.12562
G1 X106.827 Y102.411 E0.12561
G1 X105.034 Y103.537 E0.12562
G1 X103.537 Y105.034 E0.12562
G1 X102.411 Y106.827 E0.12562
G1 X101.711 Y108.826 E0.12561
G1 X101.474 Y110.930 E0.12562
G1 X101.711 Y113.035 E0.12561
G1 X102.411 Y115.033 E0.12561
G1 X102.996 Y115.964 E0.06523
G1 X102.797 Y116.163 E0.01669
G1 X110.950 Y124.317 E0.68402
G1 X108.975 Y125.500 E0.13659
G1 X105.404 Y127.189 E0.23434
G1 X101.685 Y128.520 E0.23434
G1 X99.451 Y129.080 E0.13659
G1 X99.451 Y117.548 E0.68405
G1 X99.238 Y117.548 E0.01269
G1 X98.520 Y115.497 E0.12892
G1 X97.393 Y113.704 E0.12562
G1 X95.896 Y112.207 E0.12561
G1 X94.103 Y111.080 E0.12562
G1 X92.104 Y110.381 E0.12562
G1 X90.000 Y110.144 E0.12562
G1 X87.896 Y110.381 E0.12562
G1 X85.897 Y111.080 E0.12562
G1 X84.104 Y112.207 E0.12562
G1 X82.607 Y113.704 E0.12561
G1 X81.480 Y115.497 E0.12562
G1 X80.762 Y117.548 E0.12892
G1 X80.548 Y117.548 E0.01269
G1 X80.548 Y129.080 E0.68405
G1 X78.315 Y128.520 E0.13659
G1 X74.596 Y127.189 E0.23434
G1 X71.025 Y125.500 E0.23434
G1 X69.050 Y124.317 E0.13659
G1 X77.203 Y116.163 E0.68402
G1 X77.004 Y115.964 E0.01668
G1 X77.589 Y115.033 E0.06523
G1 X78.289 Y113.035 E0.12561
G1 X78.526 Y110.930 E0.12561
G1 X78.289 Y108.826 E0.12562
G1 X77.589 Y106.827 E0.12561
G1 X76.463 Y105.034 E0.12562
G1 X74.966 Y103.537 E0.12562
G1 X73.173 Y102.411 E0.12562
G1 X71.174 Y101.711 E0.12561
G1 X69.070 Y101.474 E0.12562
G1 X66.965 Y101.711 E0.12561
G1 X64.967 Y102.411 E0.12561
G1 X64.036 Y102.996 E0.06523
G1 X63.837 Y102.797 E0.01669
G1 X55.683 Y110.950 E0.68402
G1 X54.500 Y108.975 E0.13659
G1 X52.811 Y105.404 E0.23434
G1 X51.480 Y101.685 E0.23434
G1 X50.920 Y99.451 E0.13659
G1 X62.452 Y99.451 E0.68405
G1 X62.452 Y99.238 E0.01269
G1 X64.503 Y98.520 E0.12892
G1 X66.296 Y97.393 E0.12562
G1 X67.793 Y95.896 E0.12562
G1 X68.920 Y94.103 E0.12562
G1 X69.619 Y92.104 E0.12562
G1 X69.856 Y90.000 E0.12562
G1 X69.619 Y87.896 E0.12562
G1 X68.920 Y85.897 E0.12562
G1 X67.793 Y84.104 E0.12562
G1 X66.296 Y82.607 E0.12561
G1 X64.503 Y81.480 E0.12562
G1 X62.452 Y80.762 E0.12892
G1 X62.452 Y80.548 E0.01269
G1 X50.920 Y80.548 E0.68405
G1 X51.480 Y78.315 E0.13659
G1 X52.811 Y74.596 E0.23434
G1 X54.500 Y71.025 E0.23434
G1 X55.683 Y69.050 E0.13659
G1 X63.837 Y77.203 E0.68402
G1 X64.036 Y77.004 E0.01668
G1 X64.967 Y77.589 E0.06523
G1 X66.965 Y78.289 E0.12561
G1 X69.070 Y78.526 E0.12561
G1 X71.174 Y78.289 E0.12562
G1 X73.173 Y77.589 E0.12561
G1 X74.966 Y76.463 E0.12562
G1 X76.463 Y74.966 E0.12562
G1 X77.589 Y73.173 E0.12562
G1 X78.289 Y71.174 E0.12561
G1 X78.526 Y69.070 E0.12562
G1 X78.289 Y66.965 E0.12561
G1 X77.589 Y64.967 E0.12561
G1 X77.004 Y64.036 E0.06523
G1 X77.203 Y63.837 E0.01668
G1 X69.050 Y55.683 E0.68402
G1 X71.025 Y54.500 E0.13659
G1 X74.596 Y52.811 E0.23434
G1 X78.315 Y51.480 E0.23434
G1 X80.548 Y50.920 E0.13659
G1 X80.548 Y62.452 E0.68405
G1 X80.762 Y62.452 E0.01269
G1 X81.480 Y64.503 E0.12892
G1 X82.607 Y66.296 E0.12562
G1 X84.104 Y67.793 E0.12561
G1 X85.897 Y68.920 E0.12562
G1 X87.896 Y69.619 E0.12562
G1 X90.000 Y69.856 E0.12562
G1 X92.104 Y69.619 E0.12562
G1 X94.103 Y68.920 E0.12562
G1 X95.896 Y67.793 E0.12562
G1 X97.393 Y66.296 E0.12562
G1 X98.520 Y64.503 E0.12562
G1 X99.238 Y62.452 E0.12892
G1 X99.451 Y62.452 E0.01269
G1 X99.451 Y50.920 E0.68405
G1 X101.685 Y51.480 E0.13659
G1 X105.404 Y52.811 E0.23434
G1 X108.975 Y54.500 E0.23434
G1 X110.950 Y55.683 E0.13659
G1 X102.797 Y63.837 E0.68402
G1 X102.996 Y64.036 E0.01669
G1 X102.411 Y64.967 E0.06523
G1 X101.711 Y66.965 E0.12561
G1 X101.474 Y69.070 E0.12561
G1 X101.711 Y71.174 E0.12562
G1 X102.411 Y73.173 E0.12561
G1 X103.537 Y74.966 E0.12562
G1 X105.034 Y76.463 E0.12562
G1 X106.827 Y77.589 E0.12562
G1 X108.826 Y78.289 E0.12561
G1 X110.930 Y78.526 E0.12562
G1 X113.035 Y78.289 E0.12561
G1 X115.033 Y77.589 E0.12561
G1 X115.964 Y77.004 E0.06523
G1 X116.163 Y77.203 E0.01668
G1 X124.317 Y69.050 E0.68402
G1 X125.500 Y71.025 E0.13659
G1 X127.189 Y74.596 E0.23434
G1 X128.520 Y78.315 E0.23434
G1 X129.080 Y80.548 E0.13659
G1 X117.548 Y80.548 E0.68405
G1 X117.548 Y80.762 E0.01269
G1 X115.497 Y81.480 E0.12892
G1 X113.704 Y82.607 E0.12562
G1 X112.207 Y84.104 E0.12561
G1 X111.080 Y85.897 E0.12562
G1 X110.381 Y87.896 E0.12562
G1 X110.144 Y90.000 E0.12562
G1 X110.381 Y92.104 E0.12562
G1 X111.080 Y94.103 E0.12562
G1 X112.207 Y95.896 E0.12562
G1 X113.704 Y97.393 E0.12561
G1 X115.497 Y98.520 E0.12562
G1 X117.548 Y99.238 E0.12892
G1 X117.548 Y99.451 E0.01269
G1 X129.080 Y99.451 E0.68405
G1 X128.520 Y101.685 E0.13659
G1 X127.189 Y105.404 E0.23434
G1 X125.500 Y108.975 E0.23434
G1 X124.317 Y110.950 E0.13659
G1 X116.206 Y102.839 E0.68046
G1 F6240.000
G1 X115.964 Y102.996 E-0.15764
G1 F6240.000
G1 X115.033 Y102.411 E-0.60266
G1 F6240.000
G1 X114.216 Y102.125 E-0.47470
G1 E-0.06500 F3600.00000
G1 X124.411 Y111.718 F7800.000
G1 E1.30000 F3600.00000
G1 F1458.000
G1 X116.163 Y103.469 E0.69198
G1 X116.032 Y103.600 E0.01097
G1 X114.826 Y102.842 E0.08454
G1 X112.928 Y102.178 E0.11926
G1 X110.930 Y101.953 E0.11925
G1 X108.933 Y102.178 E0.11926
G1 X107.035 Y102.842 E0.11926
G1 X105.333 Y103.911 E0.11926
G1 X103.911 Y105.333 E0.11926
G1 X102.842 Y107.035 E0.11926
G1 X102.178 Y108.933 E0.11926
G1 X101.953 Y110.930 E0.11926
G1 X102.178 Y112.928 E0.11925
G1 X102.842 Y114.826 E0.11926
G1 X103.600 Y116.032 E0.08454
G1 X103.469 Y116.163 E0.01097
G1 X111.718 Y124.411 E0.69198
G1 X109.200 Y125.920 E0.17413
G1 X105.587 Y127.629 E0.23711
G1 X101.823 Y128.976 E0.23711
G1 X98.976 Y129.689 E0.17413
G1 X98.976 Y118.024 E0.69199
G1 X98.800 Y118.024 E0.01043
G1 X98.753 Y117.602 E0.02518
G1 X98.089 Y115.705 E0.11926
G1 X97.019 Y114.003 E0.11926
G1 X95.597 Y112.581 E0.11926
G1 X93.895 Y111.511 E0.11926
G1 X91.998 Y110.848 E0.11926
G1 X90.000 Y110.622 E0.11926
G1 X88.002 Y110.848 E0.11926
G1 X86.105 Y111.511 E0.11926
G1 X84.403 Y112.581 E0.11926
G1 X82.981 Y114.003 E0.11926
G1 X81.911 Y115.705 E0.11926
G1 X81.247 Y117.602 E0.11926
G1 X81.200 Y118.024 E0.02518
G1 X81.024 Y118.024 E0.01043
G1 X81.024 Y129.689 E0.69199
G1 X78.177 Y128.976 E0.17413
G1 X74.413 Y127.629 E0.23711
G1 X70.800 Y125.920 E0.23711
G1 X68.282 Y124.411 E0.17413
G1 X76.531 Y116.163 E0.69198
G1 X76.400 Y116.032 E0.01097
G1 X77.158 Y114.826 E0.08454
G1 X77.822 Y112.928 E0.11926
G1 X78.047 Y110.930 E0.11925
G1 X77.822 Y108.933 E0.11926
G1 X77.158 Y107.035 E0.11926
G1 X76.089 Y105.333 E0.11926
G1 X74.667 Y103.911 E0.11926
G1 X72.965 Y102.842 E0.11926
G1 X71.067 Y102.178 E0.11926
G1 X69.070 Y101.953 E0.11926
G1 X67.072 Y102.178 E0.11925
G1 X65.174 Y102.842 E0.11926
G1 X63.968 Y103.600 E0.08454
G1 X63.837 Y103.469 E0.01097
G1 X55.589 Y111.718 E0.69198
G1 X54.080 Y109.200 E0.17413
G1 X52.371 Y105.587 E0.23711
G1 X51.024 Y101.823 E0.23711
G1 X50.311 Y98.976 E0.17413
G1 X61.976 Y98.976 E0.69199
G1 X61.976 Y98.800 E0.01043
G1 X62.398 Y98.753 E0.02518
G1 X64.295 Y98.089 E0.11926
G1 X65.997 Y97.019 E0.11926
G1 X67.419 Y95.597 E0.11926
G1 X68.489 Y93.895 E0.11926
G1 X69.152 Y91.998 E0.11926
G1 X69.378 Y90.000 E0.11926
G1 X69.152 Y88.002 E0.11926
G1 X68.489 Y86.105 E0.11926
G1 X67.419 Y84.403 E0.11926
G1 X65.997 Y82.981 E0.11926
G1 X64.295 Y81.911 E0.11926
G1 X62.398 Y81.247 E0.11926
G1 X61.976 Y81.200 E0.02518
G1 X61.976 Y81.024 E0.01043
G1 X50.311 Y81.024 E0.69199
G1 X51.024 Y78.177 E0.17413
G1 X52.371 Y74.413 E0.23711
G1 X54.080 Y70.800 E0.23711
G1 X55.589 Y68.282 E0.17413
G1 X63.837 Y76.531 E0.69198
G1 X63.968 Y76.400 E0.01097
G1 X65.174 Y77.158 E0.08454
G1 X67.072 Y77.822 E0.11926
G1 X69.070 Y78.047 E0.11925
G1 X71.067 Y77.822 E0.11926
G1 X72.965 Y77.158 E0.11926
G1 X74.667 Y76.089 E0.11926
G1 X76.089 Y74.667 E0.11926
G1 X77.158 Y72.965 E0.11926
G1 X77.822 Y71.067 E0.11926
G1 X78.047 Y69.070 E0.11926
G1 X77.822 Y67.072 E0.11925
G1 X77.158 Y65.174 E0.11926
G1 X76.400 Y63.968 E0.08454
G1 X76.531 Y63.837 E0.01097
G1 X68.282 Y55.589 E0.69198
G1 X70.800 Y54.080 E0.17413
G1 X74.413 Y52.371 E0.23711
G1 X78.177 Y51.024 E0.23711
G1 X81.024 Y50.311 E0.17413
G1 X81.024 Y61.976 E0.69199
G1 X81.200 Y61.976 E0.01043
G1 X81.247 Y62.398 E0.02518
G1 X81.911 Y64.295 E0.11926
G1 X82.981 Y65.997 E0.11926
G1 X84.403 Y67.419 E0.11926
G1 X86.105 Y68.489 E0.11926
G1 X88.002 Y69.152 E0.11926
G1 X90.000 Y69.378 E0.11926
G1 X91.998 Y69.152 E0.11926
G1 X93.895 Y68.489 E0.11926
G1 X95.597 Y67.419 E0.11926
