; generated by Slic3r 1.2.9 on 2020-05-14 at 22:32:25

; external perimeters extrusion width = 0.40mm
; perimeters extrusion width = 0.56mm
; infill extrusion width = 0.56mm
; solid infill extrusion width = 0.56mm
; top infill extrusion width = 0.56mm

M107
M190 S60 ; set bed temperature
M104 S215 ; set temperature
G28 ; home all axes
G92 E0.0 ; reset extruder
M109 S215 ; wait for temperature to be reached
G21 ; set units to millimeters
G90 ; use absolute coordinates
M83 ; use relative distances for extrusion
G1 E-1.30000 F3600.00000
G1 Z0.300 F7800.000
G1 X57.077 Y40.481 F7800.000
G1 E1.30000 F3600.00000
M204 S500
G1 X57.563 Y39.796 E0.04981 F2160.000
G1 X64.704 Y31.193 E0.66324
G1 X66.090 Y29.800 E0.11658
G1 X72.220 Y24.656 E0.47474
G1 X73.834 Y23.533 E0.11662
G1 X83.546 Y17.994 E0.66324
G1 X87.523 Y16.652 E0.24901
G1 X109.581 Y13.710 E1.32011
G1 X112.534 Y13.718 E0.17519
G1 X115.378 Y14.514 E0.17519 F2160.000
G1 X118.068 Y16.176 E0.18758
G1 X141.050 Y35.460 E1.77967
G1 X143.035 Y37.646 E0.17519
G1 X144.365 Y40.283 E0.17519
G1 X144.957 Y44.176 E0.23358
G1 X141.345 Y165.159 E7.18014
G1 X140.860 Y168.072 E0.17519
G1 X138.788 Y171.871 E0.25670
G1 X132.360 Y179.532 E0.59324
G1 X130.175 Y181.518 E0.17519
G1 X127.538 Y182.847 E0.17519
G1 X124.642 Y183.424 E0.17516
G1 X76.700 Y186.366 E2.84936
G1 X73.755 Y186.147 E0.17519
G1 X70.975 Y185.150 E0.17519
G1 X67.640 Y182.474 E0.25368
G1 X57.600 Y170.509 E0.92654
G1 X56.025 Y168.011 E0.17519
G1 X55.173 Y165.184 E0.17519
G1 X55.038 Y163.470 E0.10198
G1 X55.038 Y46.791 E6.92162
G1 X55.437 Y43.865 E0.17519
G1 X56.602 Y41.151 E0.17519
G1 X57.043 Y40.530 E0.04518
G1 X57.459 Y40.755 F7800.000
G1 X57.929 Y40.100 E0.04784 F2160.000
G1 X65.070 Y31.497 E0.66324
G1 X66.396 Y30.164 E0.11152
G1 X72.526 Y25.020 E0.47473
G1 X74.069 Y23.946 E0.11155
G1 X83.782 Y18.407 E0.66324
G1 X87.586 Y17.123 E0.23820
G1 X109.644 Y14.181 E1.32011
G1 X112.532 Y14.198 E0.17132
G1 X115.306 Y15.002 E0.17132 F2160.000
G1 X117.763 Y16.540 E0.17195
G1 X140.744 Y35.824 E1.77967
G1 X142.679 Y37.968 E0.17132
G1 X143.956 Y40.558 E0.17132
G1 X144.481 Y44.161 E0.21600
G1 X140.870 Y165.144 E7.18014
G1 X140.387 Y167.992 E0.17132
G1 X138.424 Y171.565 E0.24185
G1 X131.996 Y179.226 E0.59324
G1 X129.853 Y181.162 E0.17132
G1 X127.262 Y182.438 E0.17132
G1 X124.613 Y182.949 E0.16006
G1 X76.671 Y185.891 E2.84936
G1 X73.791 Y185.669 E0.17132
G1 X71.082 Y184.669 E0.17132
G1 X68.004 Y182.168 E0.23524
G1 X57.965 Y170.203 E0.92654
G1 X56.431 Y167.756 E0.17132
G1 X55.624 Y164.983 E0.17132
G1 X55.514 Y163.470 E0.09001
G1 X55.514 Y46.791 E6.92162
G1 X55.912 Y43.930 E0.17132
G1 X57.076 Y41.287 E0.17132
G1 X57.424 Y40.804 E0.03533
G1 F6240
G1 X57.929 Y40.100 E-0.47488
G1 F6240
G1 X58.815 Y39.033 E-0.76012
G1 E-0.06500 F3600.00000
G1 X86.637 Y67.301 F7800.000
G1 E1.30000 F3600.00000
G1 X86.629 Y140.558 E4.34576 F1620.000
G1 X86.012 Y142.675 E0.13078
G1 X84.605 Y144.428 E0.13335
G1 X82.634 Y145.509 E0.13331
G1 X80.400 Y145.754 E0.13333
G1 X78.243 Y145.125 E0.13334
G1 X76.490 Y143.718 E0.13332
G1 X75.409 Y141.747 E0.13336
G1 X75.176 Y139.621 E0.12693
G1 X75.184 Y66.364 E4.34573
G1 X75.801 Y64.246 E0.13084
G1 X77.208 Y62.493 E0.13333
G1 X79.178 Y61.412 E0.13333
G1 X81.223 Y61.188 E0.12205
G1 X81.412 Y61.168 E0.01128 F1620.000
G1 X83.570 Y61.797 E0.13333
G1 X85.323 Y63.203 E0.13333
G1 X86.404 Y65.174 E0.13333
G1 X86.630 Y67.242 E0.12339
G1 X86.161 Y67.327 F7800.000
G1 X86.153 Y140.490 E4.34019 F1458.000
G1 X85.582 Y142.451 E0.12115
G1 X84.293 Y144.057 E0.12213
G1 X82.489 Y145.046 E0.12209
G1 X80.443 Y145.271 E0.12211
G1 X78.466 Y144.695 E0.12211
G1 X76.861 Y143.407 E0.12210
G1 X75.871 Y141.602 E0.12213
G1 X75.651 Y139.595 E0.11977
G1 X75.659 Y66.432 E4.34016
G1 X76.231 Y64.470 E0.12120
G1 X77.519 Y62.865 E0.12210
G1 X79.324 Y61.875 E0.12210
G1 X81.275 Y61.661 E0.11644
G1 X81.370 Y61.651 E0.00567 F1458.000
G1 X83.346 Y62.227 E0.12211
G1 X84.951 Y63.515 E0.12210
G1 X85.941 Y65.320 E0.12210
G1 X86.155 Y67.267 E0.11623
G1 X86.515 Y67.514 F7800.000
G1 F6240
G1 X86.155 Y69.521 E-1.23500
G1 E-0.06500 F3600.00000
G1 X75.467 Y39.812 F7800.000
G1 E1.30000 F3600.00000
G1 X74.181 Y38.280 E0.11864 F1620.000
G1 X79.162 Y34.100 E0.38572
G1 X80.456 Y35.626 E0.11865
G1 X88.879 Y28.558 E0.65231
G1 X94.653 Y35.439 E0.53288
G1 X94.653 Y152.118 E6.92164
G1 X97.960 Y156.059 E0.30517
G1 X93.740 Y159.600 E0.32680
G1 X90.980 Y156.311 E0.25473
G1 X89.693 Y155.068 E0.10614
G1 X88.142 Y154.098 E0.10852
G1 X86.422 Y153.472 E0.10853
G1 X84.611 Y153.219 E0.10850
G1 X82.786 Y153.345 E0.10850
G1 X81.028 Y153.850 E0.10851
G1 X79.413 Y154.708 E0.10851
G1 X78.012 Y155.884 E0.10851
G1 X76.886 Y157.326 E0.10851
G1 X76.083 Y158.971 E0.10860
G1 X75.640 Y160.782 E0.11061
G1 X75.577 Y162.573 E0.10632
G1 X75.895 Y164.375 E0.10851
G1 X76.580 Y166.070 E0.10847
G1 X77.581 Y167.554 E0.10620
G1 X80.341 Y170.843 E0.25469
G1 X76.121 Y174.384 E0.32681
G1 X66.735 Y163.198 E0.86621
G1 X66.735 Y47.138 E6.88490
G1 X75.421 Y39.851 E0.67258
G1 X74.797 Y39.753 F7800.000
G1 X73.511 Y38.221 E0.11864 F1458.000
G1 X79.219 Y33.432 E0.44200
G1 X80.512 Y34.957 E0.11865
G1 X88.938 Y27.888 E0.65246
G1 X95.129 Y35.266 E0.57137
G1 X95.129 Y151.945 E6.92164
G1 X98.630 Y156.118 E0.32311
G1 X93.681 Y160.270 E0.38324
G1 X90.632 Y156.635 E0.28147
G1 X89.398 Y155.445 E0.10170
G1 X87.932 Y154.528 E0.10260
G1 X86.307 Y153.936 E0.10259
G1 X84.594 Y153.697 E0.10257
G1 X82.869 Y153.816 E0.10258
G1 X81.207 Y154.293 E0.10258
G1 X79.680 Y155.105 E0.10258
G1 X78.356 Y156.216 E0.10258
G1 X77.291 Y157.579 E0.10258
G1 X76.533 Y159.134 E0.10260
G1 X76.113 Y160.847 E0.10468
G1 X76.054 Y162.540 E0.10045
G1 X76.355 Y164.243 E0.10258
G1 X77.002 Y165.845 E0.10254
G1 X77.961 Y167.268 E0.10176
G1 X81.011 Y170.902 E0.28142
G1 X76.062 Y175.054 E0.38324
G1 X66.260 Y163.372 E0.90470
G1 X66.260 Y46.917 E6.90832
G1 X74.751 Y39.792 E0.65753
G1 X75.103 Y39.496 F7800.000
G1 X75.862 Y39.796 F7800.000
G1 X94.370 Y58.303 E1.55884 F1620.000
G1 X94.370 Y58.979 E0.04022
G1 X75.495 Y40.104 E1.58977
G1 X75.128 Y40.412 E0.02855
G1 X94.370 Y59.654 E1.62070
G1 X94.370 Y60.329 E0.04022
G1 X74.761 Y40.720 E1.65163
G1 X74.394 Y41.028 E0.02855
G1 X94.370 Y61.005 E1.68255
G1 X94.370 Y61.680 E0.04022
G1 X74.026 Y41.337 E1.71348
G1 X73.659 Y41.645 E0.02855
G1 X94.370 Y62.355 E1.74441
G1 X94.370 Y63.031 E0.04022
G1 X73.292 Y41.953 E1.77534
G1 X72.925 Y42.261 E0.02855
G1 X94.370 Y63.706 E1.80627
G1 X94.370 Y64.381 E0.04022
G1 X72.558 Y42.569 E1.83720
G1 X72.190 Y42.877 E0.02855
G1 X94.370 Y65.056 E1.86812
G1 X94.370 Y65.732 E0.04022
G1 X71.823 Y43.185 E1.89905
G1 X71.456 Y43.493 E0.02855
G1 X94.370 Y66.407 E1.92998
G1 X94.370 Y67.082 E0.04022
G1 X71.089 Y43.801 E1.96091
G1 X70.722 Y44.110 E0.02855
G1 X94.370 Y67.758 E1.99184
G1 X94.370 Y68.433 E0.04022
G1 X70.354 Y44.418 E2.02276
G1 X69.987 Y44.726 E0.02855
G1 X94.370 Y69.108 E2.05369
G1 X94.370 Y69.784 E0.04022
G1 X69.620 Y45.034 E2.08462
G1 X69.253 Y45.342 E0.02855
G1 X94.370 Y70.459 E2.11555
G1 X94.370 Y71.134 E0.04022
G1 X68.886 Y45.650 E2.14648
G1 X68.519 Y45.958 E0.02855
G1 X94.370 Y71.810 E2.17740
G1 X94.370 Y72.485 E0.04022
G1 X86.478 Y64.593 E0.66473
G1 X86.740 Y65.530 E0.05795
G1 X94.370 Y73.160 E0.64268
G1 X94.370 Y73.835 E0.04022
G1 X86.823 Y66.288 E0.63569
G1 X86.906 Y67.047 E0.04544
G1 X94.370 Y74.511 E0.62869
G1 X94.370 Y75.186 E0.04022
G1 X86.920 Y67.736 E0.62747
G1 X86.920 Y68.412 E0.04022
G1 X94.370 Y75.861 E0.62748
G1 X94.370 Y76.537 E0.04022
G1 X86.920 Y69.087 E0.62748
G1 X86.920 Y69.762 E0.04022
G1 X94.370 Y77.212 E0.62749
G1 X94.370 Y77.887 E0.04022
G1 X86.920 Y70.437 E0.62750
G1 X86.920 Y71.113 E0.04022
G1 X94.370 Y78.563 E0.62750
G1 X94.370 Y79.238 E0.04022
G1 X86.920 Y71.788 E0.62751
G1 X86.920 Y72.463 E0.04022
G1 X94.370 Y79.913 E0.62752
G1 X94.370 Y80.588 E0.04022
G1 X86.920 Y73.138 E0.62752
G1 X86.919 Y73.813 E0.04022
G1 X94.370 Y81.264 E0.62753
G1 X94.370 Y81.939 E0.04022
G1 X86.919 Y74.489 E0.62753
G1 X86.919 Y75.164 E0.04022
G1 X94.370 Y82.614 E0.62754
G1 X94.370 Y83.290 E0.04022
G1 X86.919 Y75.839 E0.62755
G1 X86.919 Y76.514 E0.04022
G1 X94.370 Y83.965 E0.62755
G1 X94.370 Y84.640 E0.04022
G1 X86.919 Y77.190 E0.62756
G1 X86.919 Y77.865 E0.04022
G1 X94.370 Y85.316 E0.62757
G1 X94.370 Y85.991 E0.04022
G1 X86.919 Y78.540 E0.62757
G1 X86.919 Y79.215 E0.04022
G1 X94.370 Y86.666 E0.62758
G1 X94.370 Y87.342 E0.04022
G1 X86.919 Y79.891 E0.62758
G1 X86.919 Y80.566 E0.04022
G1 X94.370 Y88.017 E0.62759
G1 X94.370 Y88.692 E0.04022
G1 X86.919 Y81.241 E0.62760
G1 X86.919 Y81.916 E0.04022
G1 X94.370 Y89.367 E0.62760
G1 X94.370 Y90.043 E0.04022
G1 X86.919 Y82.591 E0.62761
G1 X86.918 Y83.267 E0.04022
G1 X94.370 Y90.718 E0.62761
G1 X94.370 Y91.393 E0.04022
G1 X86.918 Y83.942 E0.62762
G1 X86.918 Y84.617 E0.04022
G1 X94.370 Y92.069 E0.62763
G1 X94.370 Y92.744 E0.04022
G1 X86.918 Y85.292 E0.62763
G1 X86.918 Y85.968 E0.04022
G1 X94.370 Y93.419 E0.62764
G1 X94.370 Y94.095 E0.04022
G1 X86.918 Y86.643 E0.62765
G1 X86.918 Y87.318 E0.04022
G1 X94.370 Y94.770 E0.62765
G1 X94.370 Y95.445 E0.04022
G1 X86.918 Y87.993 E0.62766
G1 X86.918 Y88.669 E0.04022
G1 X94.370 Y96.121 E0.62766
G1 X94.370 Y96.796 E0.04022
G1 X86.918 Y89.344 E0.62767
G1 X86.918 Y90.019 E0.04022
G1 X94.370 Y97.471 E0.62768
G1 X94.370 Y98.146 E0.04022
G1 X86.918 Y90.694 E0.62768
G1 X86.918 Y91.369 E0.04022
G1 X94.370 Y98.822 E0.62769
G1 X94.370 Y99.497 E0.04022
G1 X86.918 Y92.045 E0.62770
G1 X86.917 Y92.720 E0.04022
G1 X94.370 Y100.172 E0.62770
G1 X94.370 Y100.848 E0.04022
G1 X86.917 Y93.395 E0.62771
G1 X86.917 Y94.070 E0.04022
G1 X94.370 Y101.523 E0.62771
G1 X94.370 Y102.198 E0.04022
G1 X86.917 Y94.746 E0.62772
G1 X86.917 Y95.421 E0.04022
G1 X94.370 Y102.874 E0.62773
G1 X94.370 Y103.549 E0.04022
G1 X86.917 Y96.096 E0.62773
G1 X86.917 Y96.771 E0.04022
G1 X94.370 Y104.224 E0.62774
G1 X94.370 Y104.900 E0.04022
G1 X86.917 Y97.447 E0.62775
G1 X86.917 Y98.122 E0.04022
G1 X94.370 Y105.575 E0.62775
G1 X94.370 Y106.250 E0.04022
G1 X86.917 Y98.797 E0.62776
G1 X86.917 Y99.472 E0.04022
G1 X94.370 Y106.925 E0.62776
G1 X94.370 Y107.601 E0.04022
G1 X86.917 Y100.148 E0.62777
G1 X86.917 Y100.823 E0.04022
G1 X94.370 Y108.276 E0.62778
G1 X94.370 Y108.951 E0.04022
G1 X86.916 Y101.498 E0.62778
G1 X86.916 Y102.173 E0.04022
G1 X94.370 Y109.627 E0.62779
G1 X94.370 Y110.302 E0.04022
G1 X86.916 Y102.848 E0.62780
G1 X86.916 Y103.524 E0.04022
G1 X94.370 Y110.977 E0.62780
G1 X94.370 Y111.653 E0.04022
G1 X86.916 Y104.199 E0.62781
G1 X86.916 Y104.874 E0.04022
G1 X94.370 Y112.328 E0.62781
G1 X94.370 Y113.003 E0.04022
G1 X86.916 Y105.549 E0.62782
G1 X86.916 Y106.225 E0.04022
G1 X94.370 Y113.679 E0.62783
G1 X94.370 Y114.354 E0.04022
G1 X86.916 Y106.900 E0.62783
G1 X86.916 Y107.575 E0.04022
G1 X94.370 Y115.029 E0.62784
G1 X94.370 Y115.704 E0.04022
G1 X86.916 Y108.250 E0.62784
G1 X86.916 Y108.926 E0.04022
G1 X94.370 Y116.380 E0.62785
G1 X94.370 Y117.055 E0.04022
G1 X86.916 Y109.601 E0.62786
G1 X86.916 Y110.276 E0.04022
G1 X94.370 Y117.730 E0.62786
G1 X94.370 Y118.406 E0.04022
G1 X86.915 Y110.951 E0.62787
G1 X86.915 Y111.626 E0.04022
G1 X94.370 Y119.081 E0.62788
G1 X94.370 Y119.756 E0.04022
G1 X86.915 Y112.302 E0.62788
G1 X86.915 Y112.977 E0.04022
G1 X94.370 Y120.432 E0.62789
G1 X94.370 Y121.107 E0.04022
G1 X86.915 Y113.652 E0.62789
G1 X86.915 Y114.327 E0.04022
G1 X94.370 Y121.782 E0.62790
G1 X94.370 Y122.457 E0.04022
G1 X86.915 Y115.003 E0.62791
G1 X86.915 Y115.678 E0.04022
G1 X94.370 Y123.133 E0.62791
G1 X94.370 Y123.808 E0.04022
G1 X86.915 Y116.353 E0.62792
G1 X86.915 Y117.028 E0.04022
G1 X94.370 Y124.483 E0.62793
G1 X94.370 Y125.159 E0.04022
G1 X86.915 Y117.704 E0.62793
G1 X86.915 Y118.379 E0.04022
G1 X94.370 Y125.834 E0.62794
G1 X94.370 Y126.509 E0.04022
G1 X86.915 Y119.054 E0.62794
G1 X86.914 Y119.729 E0.04022
G1 X94.370 Y127.185 E0.62795
G1 X94.370 Y127.860 E0.04022
G1 X86.914 Y120.404 E0.62796
G1 X86.914 Y121.080 E0.04022
G1 X94.370 Y128.535 E0.62796
G1 X94.370 Y129.211 E0.04022
G1 X86.914 Y121.755 E0.62797
G1 X86.914 Y122.430 E0.04022
G1 X94.370 Y129.886 E0.62798
G1 X94.370 Y130.561 E0.04022
G1 X86.914 Y123.105 E0.62798
G1 X86.914 Y123.781 E0.04022
G1 X94.370 Y131.236 E0.62799
G1 X94.370 Y131.912 E0.04022
G1 X86.914 Y124.456 E0.62799
G1 X86.914 Y125.131 E0.04022
G1 X94.370 Y132.587 E0.62800
G1 X94.370 Y133.262 E0.04022
G1 X86.914 Y125.806 E0.62801
G1 X86.914 Y126.482 E0.04022
G1 X94.370 Y133.938 E0.62801
G1 X94.370 Y134.613 E0.04022
G1 X86.914 Y127.157 E0.62802
G1 X86.914 Y127.832 E0.04022
G1 X94.370 Y135.288 E0.62802
G1 X94.370 Y135.964 E0.04022
G1 X86.914 Y128.507 E0.62803
G1 X86.913 Y129.183 E0.04022
G1 X94.370 Y136.639 E0.62804
G1 X94.370 Y137.314 E0.04022
G1 X86.913 Y129.858 E0.62804
G1 X86.913 Y130.533 E0.04022
G1 X94.370 Y137.990 E0.62805
G1 X94.370 Y138.665 E0.04022
G1 X86.913 Y131.208 E0.62806
G1 X86.913 Y131.883 E0.04022
G1 X94.370 Y139.340 E0.62806
G1 X94.370 Y140.015 E0.04022
G1 X86.913 Y132.559 E0.62807
G1 X86.913 Y133.234 E0.04022
G1 X94.370 Y140.691 E0.62807
G1 X94.370 Y141.366 E0.04022
G1 X86.913 Y133.909 E0.62808
G1 X86.913 Y134.584 E0.04022
G1 X94.370 Y142.041 E0.62809
G1 X94.370 Y142.717 E0.04022
G1 X86.913 Y135.260 E0.62809
G1 X86.913 Y135.935 E0.04022
G1 X94.370 Y143.392 E0.62810
G1 X94.370 Y144.067 E0.04022
G1 X86.913 Y136.610 E0.62811
G1 X86.913 Y137.285 E0.04022
G1 X94.370 Y144.743 E0.62811
G1 X94.370 Y145.418 E0.04022
G1 X86.912 Y137.961 E0.62812
G1 X86.912 Y138.636 E0.04022
G1 X94.370 Y146.093 E0.62812
G1 X94.370 Y146.769 E0.04022
G1 X86.912 Y139.311 E0.62813
G1 X86.912 Y139.986 E0.04022
G1 X94.370 Y147.444 E0.62814
G1 X94.370 Y148.119 E0.04022
G1 X86.879 Y140.628 E0.63098
G1 X86.726 Y141.151 E0.03244
G1 X94.370 Y148.794 E0.64382
G1 X94.370 Y149.470 E0.04022
G1 X86.574 Y141.673 E0.65666
G1 X86.421 Y142.196 E0.03244
G1 X94.370 Y150.145 E0.66950
G1 X94.370 Y150.820 E0.04022
G1 X86.269 Y142.719 E0.68235
G1 X85.978 Y143.104 E0.02872
G1 X94.370 Y151.496 E0.70681
G1 X94.370 Y152.171 E0.04022
G1 X85.678 Y143.479 E0.73213
G1 X85.377 Y143.853 E0.02861
G1 X96.911 Y155.388 E0.97151
G1 X97.216 Y156.367 E0.06111
G1 X85.076 Y144.228 E1.02247
G1 X84.776 Y144.603 E0.02861
G1 X96.849 Y156.676 E1.01687
G1 X96.481 Y156.984 E0.02855
G1 X84.349 Y144.851 E1.02192
G1 X83.912 Y145.090 E0.02962
G1 X96.114 Y157.292 E1.02773
G1 X95.747 Y157.600 E0.02855
G1 X83.476 Y145.329 E1.03354
G1 X83.040 Y145.568 E0.02962
G1 X95.380 Y157.908 E1.03935
G1 X95.013 Y158.216 E0.02855
G1 X82.585 Y145.789 E1.04673
G1 X81.977 Y145.856 E0.03646
G1 X94.645 Y158.524 E1.06706
G1 X94.278 Y158.832 E0.02855
G1 X81.368 Y145.922 E1.08738
G1 X80.760 Y145.989 E0.03646
G1 X88.973 Y154.203 E0.69181
G1 X87.681 Y153.586 F7800.000
G1 X80.087 Y145.992 E0.63963 F1620.000
G1 X79.134 Y145.714 E0.05913
G1 X86.619 Y153.199 E0.63048
G1 X85.833 Y153.089 E0.04727
G1 X78.180 Y145.436 E0.64457
G1 X75.652 Y142.908 F7800.000
G1 X67.019 Y134.274 E0.72720 F1620.000
G1 X67.019 Y134.949 E0.04022
G1 X85.048 Y152.979 E1.51856
G1 X84.353 Y152.959 E0.04138
G1 X67.019 Y135.625 E1.46005
G1 X67.019 Y136.300 E0.04022
G1 X83.722 Y153.003 E1.40687
G1 X83.090 Y153.047 E0.03770
G1 X67.019 Y136.975 E1.35369
G1 X67.019 Y137.651 E0.04022
G1 X82.520 Y153.152 E1.30565
G1 X81.995 Y153.302 E0.03252
G1 X67.019 Y138.326 E1.26144
G1 X67.019 Y139.001 E0.04022
G1 X81.470 Y153.453 E1.21724
G1 X80.952 Y153.610 E0.03227
G1 X67.019 Y139.677 E1.17356
G1 X67.019 Y140.352 E0.04022
G1 X80.511 Y153.844 E1.13642
G1 X80.070 Y154.078 E0.02974
G1 X67.019 Y141.027 E1.09928
G1 X67.019 Y141.702 E0.04022
G1 X79.629 Y154.313 E1.06214
G1 X79.206 Y154.566 E0.02933
G1 X67.019 Y142.378 E1.02655
G1 X67.019 Y143.053 E0.04022
G1 X78.839 Y154.874 E0.99562
G1 X78.472 Y155.182 E0.02855
G1 X67.019 Y143.728 E0.96470
G1 X67.019 Y144.404 E0.04022
G1 X78.105 Y155.490 E0.93377
G1 X77.756 Y155.817 E0.02845
G1 X67.019 Y145.079 E0.90442
G1 X67.019 Y145.754 E0.04022
G1 X77.460 Y156.196 E0.87947
G1 X77.164 Y156.575 E0.02865
G1 X67.019 Y146.430 E0.85453
G1 X67.019 Y147.105 E0.04022
G1 X76.868 Y156.954 E0.82958
G1 X76.594 Y157.355 E0.02894
G1 X67.019 Y147.780 E0.80649
G1 X67.019 Y148.455 E0.04022
G1 X76.372 Y157.809 E0.78784
G1 X76.151 Y158.263 E0.03008
