; generated by Slic3r 1.3.1-dev (Build 2d100c4) on 2020-05-07 at 12:48:06

; external perimeters extrusion width = 0.44mm (4.56mm^3/s)
; perimeters extrusion width = 0.48mm (5.65mm^3/s)
; infill extrusion width = 0.48mm (7.54mm^3/s)
; solid infill extrusion width = 0.48mm (6.91mm^3/s)
; top infill extrusion width = 0.48mm (6.28mm^3/s)

M107
M190 S60 ; set bed temperature and wait for it to be reached
M104 S212 ; set temperature
G28 ; home all axes
G92 E0.0 ; reset extruder
; Filament gcode

M109 S212 ; set temperature and wait for it to be reached
G21 ; set units to millimeters
G90 ; use absolute coordinates
M83 ; use relative distances for extrusion
G1 E-1.30000 F3600.00000
G1 Z0.300 F7800.000
G1 X75.033 Y74.976 F7800.000
G1 E1.30000 F3600.00000
M201 X500 Y500
M204 P500 T500
G1 F2160.000
G1 X76.623 Y73.545 E0.06288
G1 X78.484 Y72.193 E0.06758
G1 X80.337 Y71.123 E0.06289
G1 X82.438 Y70.188 E0.06758
G1 X84.473 Y69.526 E0.06289
G1 X86.722 Y69.048 E0.06758
G1 X88.850 Y68.825 E0.06288
G1 X91.150 Y68.825 E0.06758
G1 X93.278 Y69.048 E0.06288
G1 X95.527 Y69.526 E0.06758
G1 X97.562 Y70.188 E0.06288
G1 X99.663 Y71.123 E0.06758
G1 X101.516 Y72.193 E0.06289
G1 X103.377 Y73.545 E0.06758
G1 X104.967 Y74.976 E0.06288
G1 X106.506 Y76.685 E0.06758
G1 X107.764 Y78.417 E0.06289
G1 X108.913 Y80.408 E0.06758
G1 X109.784 Y82.363 E0.06289
G1 X110.494 Y84.550 E0.06758
G1 X110.939 Y86.643 E0.06288
G1 X111.180 Y88.930 E0.06758
G1 X111.180 Y91.070 E0.06289
G1 X110.939 Y93.357 E0.06758
G1 X110.494 Y95.450 E0.06288
G1 X109.784 Y97.637 E0.06758
G1 X108.913 Y99.592 E0.06289
G1 X107.764 Y101.583 E0.06758
G1 X106.506 Y103.315 E0.06289
G1 X104.967 Y105.024 E0.06758
G1 X103.377 Y106.455 E0.06288
G1 X101.516 Y107.807 E0.06758
G1 X99.663 Y108.877 E0.06289
G1 X97.562 Y109.812 E0.06758
G1 X95.527 Y110.474 E0.06288
G1 X93.278 Y110.952 E0.06758
G1 X91.150 Y111.175 E0.06288
G1 X88.850 Y111.175 E0.06758
G1 X86.722 Y110.952 E0.06288
G1 X84.473 Y110.474 E0.06758
G1 X82.438 Y109.812 E0.06288
G1 X80.337 Y108.877 E0.06758
G1 X78.484 Y107.807 E0.06289
G1 X76.623 Y106.455 E0.06758
G1 X75.033 Y105.024 E0.06288
G1 X73.494 Y103.315 E0.06758
G1 X72.236 Y101.583 E0.06289
G1 X71.087 Y99.592 E0.06758
G1 X70.216 Y97.637 E0.06289
G1 X69.506 Y95.450 E0.06758
G1 X69.061 Y93.357 E0.06288
G1 X68.820 Y91.070 E0.06758
G1 X68.820 Y88.930 E0.06289
G1 X69.061 Y86.643 E0.06758
G1 X69.506 Y84.550 E0.06288
G1 X70.216 Y82.363 E0.06758
G1 X71.087 Y80.408 E0.06289
G1 X72.236 Y78.417 E0.06758
G1 X73.494 Y76.685 E0.06289
G1 X74.993 Y75.021 E0.06582
G1 F6240.000
G1 X76.623 Y73.545 E-1.20549
G1 F6240.000
G1 X76.667 Y73.513 E-0.02951
G1 E-0.06500 F3600.00000
G1 X98.121 Y93.521 F7800.000
G1 E1.30000 F3600.00000
G1 F1080.000
G1 X94.379 Y93.521 E0.10998
G1 X94.379 Y86.479 E0.20696
G1 X98.121 Y86.479 E0.10998
G1 X98.121 Y93.461 E0.20520
G1 X97.886 Y93.286 F7800.000
G1 F1080.000
G1 X94.614 Y93.286 E0.09613
G1 X94.614 Y86.714 E0.19311
G1 X97.886 Y86.714 E0.09613
G1 X97.886 Y93.226 E0.19135
G1 X97.650 Y93.050 F7800.000
G1 F1080.000
G1 X94.850 Y93.050 E0.08229
G1 X94.850 Y86.950 E0.17927
G1 X97.650 Y86.950 E0.08229
G1 X97.650 Y92.990 E0.17750
G1 X97.707 Y93.446 F7800.000
G1 F6240.000
G1 X95.397 Y93.038 E-1.23500
G1 E-0.06500 F3600.00000
G1 X86.153 Y90.219 F7800.000
G1 E1.30000 F3600.00000
G1 F1080.000
G1 X86.912 Y90.219 E0.02232
G1 X86.912 Y89.781 E0.01286
G1 X86.153 Y89.781 E0.02232
G1 X88.357 Y87.154 E0.10078
G1 X90.571 Y86.764 E0.06606
G1 X92.517 Y87.888 E0.06606
G1 X93.286 Y90.000 E0.06606
G1 X92.517 Y92.112 E0.06606
G1 X90.571 Y93.236 E0.06606
G1 X88.357 Y92.846 E0.06606
G1 X86.191 Y90.265 E0.09902
G1 X86.658 Y90.454 F7800.000
G1 F1080.000
G1 X87.148 Y90.454 E0.01439
G1 X87.148 Y89.546 E0.02671
G1 X86.658 Y89.546 E0.01439
G1 X88.482 Y87.371 E0.08341
G1 X90.527 Y87.011 E0.06102
G1 X92.325 Y88.049 E0.06102
G1 X93.035 Y90.000 E0.06102
G1 X92.325 Y91.951 E0.06102
G1 X90.527 Y92.989 E0.06102
G1 X88.482 Y92.629 E0.06102
G1 X86.697 Y90.500 E0.08165
G1 X87.163 Y90.690 F7800.000
G1 F1080.000
G1 X87.383 Y90.690 E0.00647
G1 X87.383 Y89.310 E0.04056
G1 X87.163 Y89.310 E0.00647
G1 X88.608 Y87.588 E0.06604
G1 X90.484 Y87.258 E0.05598
G1 X92.133 Y88.210 E0.05598
G1 X92.785 Y90.000 E0.05598
G1 X92.133 Y91.790 E0.05598
G1 X90.484 Y92.742 E0.05598
G1 X88.608 Y92.412 E0.05598
G1 X87.202 Y90.736 E0.06428
G1 X87.090 Y90.483 F7800.000
G1 F6240.000
G1 X87.383 Y90.690 E-0.10263
G1 F6240.000
G1 X87.383 Y89.310 E-0.75646
G1 F6240.000
G1 X87.163 Y89.310 E-0.12063
G1 F6240.000
G1 X87.463 Y88.953 E-0.25529
G1 E-0.06500 F3600.00000
G1 X80.118 Y92.979 F7800.000
G1 E1.30000 F3600.00000
G1 F1620.000
G1 X79.851 Y92.157 E0.02540
G1 X79.625 Y90.000 E0.06374
G1 X79.851 Y87.843 E0.06374
G1 X80.522 Y85.780 E0.06374
G1 X81.606 Y83.902 E0.06374
G1 X83.058 Y82.290 E0.06374
G1 X84.812 Y81.015 E0.06374
G1 X86.794 Y80.132 E0.06374
G1 X88.915 Y79.682 E0.06374
G1 X91.085 Y79.682 E0.06374
G1 X93.206 Y80.132 E0.06374
G1 X95.188 Y81.015 E0.06374
G1 X96.942 Y82.290 E0.06374
G1 X98.394 Y83.902 E0.06374
G1 X99.478 Y85.780 E0.06374
G1 X100.149 Y87.843 E0.06374
G1 X100.375 Y90.000 E0.06374
G1 X100.149 Y92.157 E0.06374
G1 X99.478 Y94.220 E0.06374
G1 X98.394 Y96.098 E0.06374
G1 X96.942 Y97.710 E0.06374
G1 X95.188 Y98.985 E0.06374
G1 X93.206 Y99.868 E0.06374
G1 X91.085 Y100.318 E0.06374
G1 X88.915 Y100.318 E0.06374
G1 X86.794 Y99.868 E0.06374
G1 X84.812 Y98.985 E0.06374
G1 X83.058 Y97.710 E0.06374
G1 X81.606 Y96.098 E0.06374
G1 X80.522 Y94.220 E0.06374
G1 X80.137 Y93.036 E0.03658
G1 X79.894 Y93.052 F7800.000
G1 F1620.000
G1 X79.620 Y92.206 E0.02612
G1 X79.388 Y90.000 E0.06520
G1 X79.620 Y87.794 E0.06520
G1 X80.305 Y85.684 E0.06520
G1 X81.414 Y83.762 E0.06520
G1 X82.899 Y82.114 E0.06520
G1 X84.694 Y80.810 E0.06520
G1 X86.721 Y79.907 E0.06520
G1 X88.891 Y79.446 E0.06520
G1 X91.109 Y79.446 E0.06520
G1 X93.279 Y79.907 E0.06520
G1 X95.306 Y80.810 E0.06520
G1 X97.101 Y82.114 E0.06520
G1 X98.585 Y83.762 E0.06520
G1 X99.695 Y85.684 E0.06520
G1 X100.380 Y87.794 E0.06520
G1 X100.612 Y90.000 E0.06520
G1 X100.380 Y92.206 E0.06520
G1 X99.695 Y94.316 E0.06520
G1 X98.585 Y96.238 E0.06520
G1 X97.101 Y97.886 E0.06520
G1 X95.306 Y99.190 E0.06520
G1 X93.279 Y100.093 E0.06520
G1 X91.109 Y100.554 E0.06520
G1 X88.891 Y100.554 E0.06520
G1 X86.721 Y100.093 E0.06520
G1 X84.694 Y99.190 E0.06520
G1 X82.899 Y97.886 E0.06520
G1 X81.414 Y96.238 E0.06520
G1 X80.305 Y94.316 E0.06520
G1 X79.913 Y93.109 E0.03731
G1 X79.670 Y93.125 F7800.000
G1 F1458.000
G1 X79.388 Y92.256 E0.02685
G1 X79.151 Y90.000 E0.06665
G1 X79.388 Y87.744 E0.06665
G1 X80.089 Y85.587 E0.06665
G1 X81.223 Y83.623 E0.06665
G1 X82.740 Y81.937 E0.06665
G1 X84.575 Y80.604 E0.06665
G1 X86.647 Y79.682 E0.06665
G1 X88.866 Y79.210 E0.06665
G1 X91.134 Y79.210 E0.06665
G1 X93.353 Y79.682 E0.06665
G1 X95.425 Y80.604 E0.06665
G1 X97.260 Y81.937 E0.06665
G1 X98.777 Y83.623 E0.06665
G1 X99.911 Y85.587 E0.06665
G1 X100.612 Y87.744 E0.06665
G1 X100.849 Y90.000 E0.06665
G1 X100.612 Y92.256 E0.06665
G1 X99.911 Y94.413 E0.06665
G1 X98.777 Y96.377 E0.06665
G1 X97.260 Y98.063 E0.06665
G1 X95.425 Y99.396 E0.06665
G1 X93.353 Y100.318 E0.06665
G1 X91.134 Y100.790 E0.06665
G1 X88.866 Y100.790 E0.06665
G1 X86.647 Y100.318 E0.06665
G1 X84.575 Y99.396 E0.06665
G1 X82.740 Y98.063 E0.06665
G1 X81.223 Y96.377 E0.06665
G1 X80.089 Y94.413 E0.06665
G1 X79.689 Y93.182 E0.03804
G1 X79.925 Y92.816 F7800.000
G1 F6240.000
G1 X79.388 Y92.256 E-0.53365
G1 F6240.000
G1 X79.254 Y90.983 E-0.70135
G1 E-0.06500 F3600.00000
G1 X85.863 Y90.056 F7800.000
G1 E1.30000 F3600.00000
G1 F360.000
G1 X85.947 Y90.000 E0.00175
G1 X86.794 Y90.000 E0.01455
G1 X85.702 Y89.750 F7800.000
G1 F1980.000
G1 X85.893 Y89.638 E0.00660
G1 X85.969 Y89.638 E0.00224
G1 X86.779 Y88.673 E0.03745
G1 X85.652 Y89.800 E0.04738
G1 X85.531 Y89.921 F7800.000
G1 F1980.000
G1 X80.929 Y94.523 E0.19336
G1 X81.052 Y94.736 E0.00733
G1 X85.666 Y90.123 E0.19384
G1 X85.800 Y90.325 E0.00722
G1 X81.176 Y94.950 E0.19433
G1 X81.299 Y95.164 E0.00733
G1 X86.052 Y90.411 E0.19972
G1 X86.206 Y90.594 E0.00711
G1 X81.422 Y95.377 E0.20099
G1 X81.546 Y95.591 E0.00733
G1 X86.359 Y90.777 E0.20227
G1 X86.513 Y90.960 E0.00711
G1 X81.669 Y95.804 E0.20355
G1 X81.773 Y95.984 E0.00617
G1 X81.798 Y96.012 E0.00112
G1 X86.667 Y91.143 E0.20459
G1 X86.821 Y91.327 E0.00711
G1 X81.958 Y96.189 E0.20434
G1 X82.117 Y96.367 E0.00709
G1 X86.974 Y91.510 E0.20409
G1 X87.128 Y91.693 E0.00711
G1 X82.277 Y96.544 E0.20384
G1 X82.436 Y96.721 E0.00709
G1 X87.282 Y91.876 E0.20359
G1 X87.435 Y92.059 E0.00711
G1 X82.596 Y96.899 E0.20334
G1 X82.756 Y97.076 E0.00709
G1 X87.589 Y92.242 E0.20310
G1 X87.743 Y92.426 E0.00711
G1 X82.915 Y97.253 E0.20285
G1 X83.075 Y97.430 E0.00709
G1 X87.896 Y92.609 E0.20260
G1 X88.050 Y92.792 E0.00711
G1 X83.244 Y97.598 E0.20194
G1 X83.439 Y97.740 E0.00717
G1 X88.204 Y92.975 E0.20020
G1 X88.257 Y93.038 E0.00243
G1 X88.445 Y93.071 E0.00568
G1 X83.635 Y97.882 E0.20213
G1 X83.830 Y98.023 E0.00717
G1 X88.731 Y93.122 E0.20596
G1 X89.018 Y93.172 E0.00864
G1 X84.025 Y98.165 E0.20980
G1 X84.220 Y98.307 E0.00717
G1 X89.304 Y93.223 E0.21363
G1 X89.590 Y93.273 E0.00864
G1 X84.415 Y98.449 E0.21747
G1 X84.610 Y98.590 E0.00717
G1 X89.877 Y93.324 E0.22130
G1 X90.163 Y93.374 E0.00864
G1 X84.805 Y98.732 E0.22514
G1 X84.906 Y98.805 E0.00369
G1 X85.019 Y98.855 E0.00368
G1 X90.450 Y93.425 E0.22820
G1 X90.639 Y93.458 E0.00572
G1 X90.909 Y93.302 E0.00925
G1 X85.252 Y98.959 E0.23770
G1 X85.485 Y99.063 E0.00758
G1 X91.706 Y92.842 E0.26140
G1 X92.503 Y92.382 E0.02735
G1 X85.718 Y99.167 E0.28510
G1 F6240.000
G1 X87.312 Y97.573 E-1.23500
G1 E-0.06500 F3600.00000
G1 X92.073 Y99.887 F7800.000
G1 E1.30000 F3600.00000
G1 F1980.000
G1 X98.228 Y93.732 E0.25865
G1 X97.891 Y93.732 E0.01001
G1 X91.645 Y99.978 E0.26247
G1 X91.217 Y100.069 E0.01300
G1 X97.554 Y93.732 E0.26629
G1 X97.217 Y93.732 E0.01001
G1 X90.841 Y100.108 E0.26792
G1 X90.504 Y100.108 E0.01001
G1 X96.880 Y93.732 E0.26792
G1 X96.544 Y93.732 E0.01001
G1 X90.168 Y100.108 E0.26792
G1 X89.831 Y100.108 E0.01001
G1 X96.207 Y93.732 E0.26792
G1 X95.870 Y93.732 E0.01001
G1 X89.494 Y100.108 E0.26792
G1 X89.157 Y100.108 E0.01001
G1 X95.533 Y93.732 E0.26792
G1 X95.196 Y93.732 E0.01001
G1 X88.837 Y100.091 E0.26722
G1 X88.559 Y100.032 E0.00844
G1 X94.859 Y93.732 E0.26473
G1 X94.522 Y93.732 E0.01001
G1 X88.281 Y99.973 E0.26225
G1 X88.003 Y99.914 E0.00844
G1 X94.185 Y93.732 E0.25977
G1 X94.168 Y93.732 E0.00051
G1 X94.168 Y93.412 E0.00950
G1 X87.725 Y99.855 E0.27073
G1 X87.447 Y99.796 E0.00844
G1 X94.168 Y93.075 E0.28240
G1 X94.168 Y92.738 E0.01001
G1 X87.170 Y99.737 E0.29408
G1 X86.892 Y99.678 E0.00844
G1 X94.168 Y92.401 E0.30575
G1 X94.168 Y92.064 E0.01001
G1 X86.651 Y99.582 E0.31588
G1 X86.418 Y99.478 E0.00758
G1 X94.168 Y91.728 E0.32568
G1 X94.168 Y91.391 E0.01001
G1 X86.184 Y99.374 E0.33547
G1 X85.951 Y99.271 E0.00758
G1 X94.168 Y91.054 E0.34527
G1 X94.168 Y90.717 E0.01001
G1 X92.740 Y92.145 E0.06000
G1 X92.933 Y91.615 E0.01675
G1 X94.168 Y90.380 E0.05190
G1 X94.168 Y90.043 E0.01001
G1 X93.126 Y91.085 E0.04379
G1 X93.319 Y90.556 E0.01675
G1 X94.168 Y89.706 E0.03569
G1 X94.168 Y89.369 E0.01001
G1 X93.511 Y90.026 E0.02759
G1 X93.422 Y89.778 E0.00782
G1 X94.168 Y89.032 E0.03135
G1 X94.168 Y88.695 E0.01001
G1 X93.332 Y89.531 E0.03513
G1 X93.242 Y89.284 E0.00781
G1 X94.168 Y88.359 E0.03890
G1 X94.168 Y88.022 E0.01001
G1 X93.152 Y89.037 E0.04268
G1 X93.062 Y88.790 E0.00781
G1 X94.168 Y87.685 E0.04646
G1 X94.168 Y87.348 E0.01001
G1 X92.973 Y88.543 E0.05024
G1 X92.883 Y88.296 E0.00781
G1 X94.168 Y87.011 E0.05401
G1 X94.168 Y86.674 E0.01001
G1 X92.793 Y88.049 E0.05779
G1 X92.703 Y87.802 E0.00781
G1 F6240.000
G1 X92.793 Y88.049 E-0.14406
G1 F6240.000
G1 X94.168 Y86.674 E-1.06603
G1 F6240.000
G1 X94.168 Y86.720 E-0.02490
G1 E-0.06500 F3600.00000
G1 X96.758 Y97.560 F7800.000
G1 E1.30000 F3600.00000
G1 F1980.000
G1 X98.227 Y95.934 E0.06509
G1 X98.473 Y95.508 E0.01463
G1 X95.526 Y98.455 E0.12382
G1 X95.044 Y98.805 E0.01771
G1 X94.675 Y98.970 E0.01202
G1 X98.933 Y94.711 E0.17895
G1 X99.287 Y94.099 E0.02100
G1 X99.325 Y93.983 E0.00362
G1 X94.067 Y99.240 E0.22090
G1 X93.460 Y99.510 E0.01975
G1 X99.487 Y93.484 E0.25323
G1 X99.649 Y92.985 E0.01559
G1 X92.928 Y99.705 E0.28240
G1 X92.500 Y99.796 E0.01300
G1 X99.811 Y92.486 E0.30719
G1 X99.942 Y92.083 E0.01259
G1 X99.949 Y92.010 E0.00217
G1 X98.332 Y93.628 E0.06797
G1 X98.332 Y93.291 E0.01001
G1 X99.989 Y91.634 E0.06964
G1 X100.029 Y91.257 E0.01125
G1 X98.332 Y92.954 E0.07130
G1 X98.332 Y92.617 E0.01001
G1 X100.068 Y90.881 E0.07296
G1 X100.108 Y90.504 E0.01125
G1 X98.332 Y92.280 E0.07462
G1 X98.332 Y91.944 E0.01001
G1 X100.147 Y90.128 E0.07629
G1 X100.163 Y89.975 E0.00457
G1 X100.144 Y89.794 E0.00541
G1 X98.332 Y91.607 E0.07616
G1 X98.332 Y91.270 E0.01001
G1 X100.112 Y89.489 E0.07482
G1 X100.080 Y89.184 E0.00911
G1 X98.332 Y90.933 E0.07347
G1 X98.332 Y90.596 E0.01001
G1 X100.048 Y88.880 E0.07212
G1 X100.016 Y88.575 E0.00911
G1 X98.332 Y90.259 E0.07078
G1 X98.332 Y89.922 E0.01001
G1 X99.984 Y88.270 E0.06943
G1 X99.952 Y87.965 E0.00911
G1 X98.332 Y89.585 E0.06808
G1 X98.332 Y89.248 E0.01001
G1 X99.886 Y87.694 E0.06529
G1 X99.803 Y87.440 E0.00794
G1 X98.332 Y88.911 E0.06182
G1 X98.332 Y88.575 E0.01001
G1 X99.721 Y87.186 E0.05835
G1 X99.638 Y86.932 E0.00794
G1 X98.332 Y88.238 E0.05488
G1 X98.332 Y87.901 E0.01001
G1 X99.555 Y86.677 E0.05141
G1 X99.473 Y86.423 E0.00794
G1 X98.332 Y87.564 E0.04794
G1 X98.332 Y87.227 E0.01001
G1 X99.390 Y86.169 E0.04447
G1 X99.307 Y85.914 E0.00794
G1 X98.332 Y86.890 E0.04099
G1 X98.332 Y86.553 E0.01001
G1 X99.194 Y85.691 E0.03624
G1 X99.071 Y85.477 E0.00733
G1 X98.280 Y86.268 E0.03324
G1 X97.943 Y86.268 E0.01001
G1 X98.948 Y85.264 E0.04221
G1 X98.824 Y85.050 E0.00733
G1 X97.606 Y86.268 E0.05118
G1 X97.269 Y86.268 E0.01001
G1 X98.701 Y84.836 E0.06016
G1 X98.578 Y84.623 E0.00733
G1 X96.932 Y86.268 E0.06913
G1 X96.595 Y86.268 E0.01001
G1 X98.454 Y84.409 E0.07811
G1 X98.331 Y84.196 E0.00733
G1 X96.259 Y86.268 E0.08708
G1 X95.922 Y86.268 E0.01001
G1 X98.202 Y83.988 E0.09582
G1 X98.042 Y83.811 E0.00709
G1 X95.585 Y86.268 E0.10327
G1 X95.248 Y86.268 E0.01001
G1 X97.883 Y83.633 E0.11072
G1 X97.723 Y83.456 E0.00709
G1 X94.911 Y86.268 E0.11817
G1 X94.574 Y86.268 E0.01001
G1 X97.564 Y83.279 E0.12561
G1 X97.404 Y83.101 E0.00709
G1 X94.237 Y86.268 E0.13306
G1 X94.118 Y86.268 E0.00354
G1 X94.118 Y86.387 E0.00354
G1 X92.703 Y87.802 E0.05947
G1 X92.684 Y87.752 E0.00161
G1 X92.515 Y87.654 E0.00582
G1 X97.244 Y82.924 E0.19873
G1 X97.085 Y82.747 E0.00709
G1 X92.301 Y87.530 E0.20100
G1 X92.088 Y87.407 E0.00733
G1 X96.925 Y82.570 E0.20327
G1 X96.756 Y82.402 E0.00708
G1 X91.874 Y87.284 E0.20513
G1 X91.660 Y87.160 E0.00733
G1 X96.561 Y82.260 E0.20590
G1 X96.365 Y82.118 E0.00717
G1 X91.447 Y87.037 E0.20668
G1 X91.233 Y86.914 E0.00733
G1 X96.170 Y81.977 E0.20745
G1 X95.975 Y81.835 E0.00717
G1 X91.020 Y86.790 E0.20823
G1 X90.806 Y86.667 E0.00733
G1 X95.780 Y81.693 E0.20900
G1 X95.585 Y81.551 E0.00717
G1 X90.593 Y86.544 E0.20978
G1 X90.187 Y86.613 E0.01223
G1 X95.390 Y81.410 E0.21864
G1 X95.195 Y81.268 E0.00717
G1 X89.778 Y86.685 E0.22763
G1 X89.369 Y86.757 E0.01234
G1 X94.981 Y81.145 E0.23584
G1 X94.748 Y81.041 E0.00758
G1 X88.960 Y86.829 E0.24323
G1 X88.551 Y86.901 E0.01234
G1 X94.515 Y80.937 E0.25062
G1 X94.282 Y80.833 E0.00758
G1 X80.806 Y94.309 E0.56626
G1 X80.693 Y94.086 E0.00745
G1 X94.049 Y80.729 E0.56122
G1 X93.816 Y80.626 E0.00758
G1 X80.610 Y93.831 E0.55490
G1 X80.527 Y93.577 E0.00794
G1 X93.583 Y80.522 E0.54857
G1 X93.349 Y80.418 E0.00758
G1 X80.445 Y93.323 E0.54225
G1 X80.362 Y93.068 E0.00794
G1 X93.108 Y80.322 E0.53559
G1 X92.830 Y80.263 E0.00844
G1 X80.279 Y92.814 E0.52739
G1 X80.197 Y92.560 E0.00794
G1 X92.553 Y80.204 E0.51918
G1 X92.275 Y80.145 E0.00844
G1 X80.114 Y92.306 E0.51098
G1 X80.058 Y92.133 E0.00540
G1 X80.048 Y92.035 E0.00292
G1 X91.997 Y80.086 E0.50210
G1 X91.719 Y80.027 E0.00844
G1 X80.016 Y91.730 E0.49177
G1 X79.984 Y91.425 E0.00911
G1 X91.441 Y79.968 E0.48144
G1 X91.163 Y79.909 E0.00844
G1 X79.952 Y91.121 E0.47111
G1 X79.920 Y90.816 E0.00911
G1 X90.843 Y79.892 E0.45900
G1 X90.506 Y79.892 E0.01001
G1 X79.888 Y90.511 E0.44619
