; generated by Slic3r 1.2.9 on 2020-05-14 at 22:51:55

; external perimeters extrusion width = 0.40mm
; perimeters extrusion width = 0.56mm
; infill extrusion width = 0.56mm
; solid infill extrusion width = 0.56mm
; top infill extrusion width = 0.56mm

M107
M190 S60 ; set bed temperature
M104 S215 ; set temperature
G28 ; home all axes
G92 E0.0 ; reset extruder
M109 S215 ; wait for temperature to be reached
G21 ; set units to millimeters
G90 ; use absolute coordinates
M83 ; use relative distances for extrusion
G1 E-1.30000 F3600.00000
G1 Z0.300 F7800.000
G1 X57.049 Y67.957 F7800.000
G1 E1.30000 F3600.00000
M204 S500
G1 X59.776 Y65.735 E0.20863 F2160.000
G1 X60.334 Y65.309 E0.04170
G1 X61.380 Y64.590 E0.07527
G1 X64.368 Y62.735 E0.20863
G1 X65.476 Y62.117 E0.07527
G1 X66.106 Y61.805 E0.04172
G1 X69.307 Y60.347 E0.20863
G1 X70.485 Y59.875 E0.07529
G1 X71.149 Y59.646 E0.04168
G1 X74.510 Y58.610 E0.20863
G1 X75.187 Y58.424 E0.04163
G1 X76.427 Y58.150 E0.07534
G1 X79.893 Y57.552 E0.20864
G1 X81.153 Y57.394 E0.07532
G1 X81.853 Y57.342 E0.04165
G1 X85.367 Y57.192 E0.20863
G1 X86.636 Y57.196 E0.07531
G1 X87.337 Y57.234 E0.04166 F2160.000
G1 X90.841 Y57.534 E0.20863
G1 X91.539 Y57.616 E0.04166
G1 X92.791 Y57.828 E0.07533
G1 X96.228 Y58.574 E0.20863
G1 X141.275 Y68.864 E2.74114
G1 X143.291 Y69.535 E0.12602
G1 X145.392 Y70.471 E0.13642
G1 X147.374 Y71.615 E0.13581
G1 X149.235 Y72.967 E0.13642
G1 X150.936 Y74.499 E0.13581
G1 X152.475 Y76.208 E0.13642
G1 X153.821 Y78.060 E0.13582
G1 X154.971 Y80.052 E0.13643
G1 X155.902 Y82.143 E0.13581
G1 X156.612 Y84.330 E0.13642
G1 X157.088 Y86.570 E0.13580
G1 X157.329 Y88.857 E0.13642
G1 X157.329 Y91.146 E0.13583
G1 X157.088 Y93.433 E0.13642
G1 X156.612 Y95.672 E0.13579
G1 X155.902 Y97.859 E0.13642
G1 X154.971 Y99.951 E0.13581
G1 X153.821 Y101.943 E0.13642
G1 X152.475 Y103.795 E0.13582
G1 X150.936 Y105.504 E0.13642
G1 X149.235 Y107.036 E0.13581
G1 X147.374 Y108.387 E0.13642
G1 X108.846 Y135.845 E2.80661
G1 X107.785 Y136.530 E0.07489
G1 X107.177 Y136.881 E0.04168
G1 X104.076 Y138.541 E0.20863
G1 X103.446 Y138.853 E0.04171
G1 X102.282 Y139.358 E0.07527
G1 X98.995 Y140.608 E0.20863
G1 X97.788 Y141.004 E0.07532
G1 X97.111 Y141.189 E0.04165
G1 X93.691 Y142.008 E0.20863
G1 X93.002 Y142.150 E0.04170
G1 X91.748 Y142.344 E0.07528
G1 X88.251 Y142.719 E0.20863
G1 X87.551 Y142.771 E0.04164
G1 X86.282 Y142.803 E0.07533
G1 X82.765 Y142.728 E0.20863
G1 X82.064 Y142.690 E0.04166
G1 X80.801 Y142.560 E0.07533
G1 X77.323 Y142.035 E0.20863
G1 X76.078 Y141.788 E0.07531
G1 X75.397 Y141.617 E0.04165
G1 X72.015 Y140.653 E0.20863
G1 X71.346 Y140.439 E0.04166
G1 X70.158 Y139.992 E0.07532
G1 X66.927 Y138.603 E0.20863
G1 X66.291 Y138.305 E0.04167
G1 X65.169 Y137.710 E0.07531
G1 X62.143 Y135.919 E0.20863
G1 X61.550 Y135.542 E0.04165
G1 X60.514 Y134.808 E0.07533
G1 X57.741 Y132.645 E0.20863
G1 X56.777 Y131.819 E0.07529
G1 X56.267 Y131.335 E0.04169
G1 X53.794 Y128.835 E0.20863
G1 X52.944 Y127.892 E0.07532
G1 X52.500 Y127.348 E0.04165
G1 X50.367 Y124.552 E0.20863
G1 X49.644 Y123.508 E0.07533
G1 X49.274 Y122.911 E0.04164
G1 X47.515 Y119.866 E0.20863
G1 X46.932 Y118.738 E0.07531
G1 X46.641 Y118.098 E0.04168
G1 X45.286 Y114.853 E0.20863
G1 X44.852 Y113.660 E0.07531
G1 X44.645 Y112.989 E0.04165
G1 X43.717 Y109.597 E0.20863
G1 X43.553 Y108.913 E0.04171
G1 X43.319 Y107.666 E0.07527
G1 X42.832 Y104.183 E0.20863
G1 X42.715 Y102.919 E0.07532
G1 X42.685 Y102.217 E0.04167
G1 X42.647 Y98.700 E0.20863
G1 X42.662 Y97.997 E0.04172
G1 X42.753 Y96.732 E0.07525
G1 X43.165 Y93.239 E0.20863
G1 X43.372 Y91.987 E0.07529
G1 X43.521 Y91.300 E0.04170
G1 X44.377 Y87.889 E0.20863
G1 X44.742 Y86.673 E0.07531
G1 X44.978 Y86.011 E0.04166
G1 X46.263 Y82.737 E0.20863
G1 X46.780 Y81.580 E0.07524
G1 X47.099 Y80.952 E0.04174
G1 X48.792 Y77.870 E0.20863
G1 X49.454 Y76.786 E0.07531
G1 X49.850 Y76.206 E0.04167
G1 X51.923 Y73.365 E0.20864
G1 X52.718 Y72.376 E0.07525
G1 X53.185 Y71.851 E0.04171
G1 X55.604 Y69.298 E0.20863
G1 X56.103 Y68.804 E0.04165
G1 X57.004 Y67.997 E0.07177
G1 X57.350 Y68.326 F7800.000
G1 X60.076 Y66.104 E0.20863 F2160.000
G1 X60.611 Y65.696 E0.03989
G1 X61.631 Y64.994 E0.07347
G1 X64.619 Y63.139 E0.20863
G1 X65.700 Y62.536 E0.07346
G1 X66.303 Y62.237 E0.03991
G1 X69.504 Y60.780 E0.20863
G1 X70.654 Y60.319 E0.07349
G1 X71.289 Y60.101 E0.03987
G1 X74.650 Y59.064 E0.20863
G1 X75.298 Y58.887 E0.03982
G1 X76.508 Y58.619 E0.07353
G1 X79.974 Y58.021 E0.20864
G1 X81.203 Y57.867 E0.07352
G1 X81.873 Y57.817 E0.03984
G1 X85.387 Y57.667 E0.20863
G1 X86.626 Y57.672 E0.07350
G1 X87.297 Y57.707 E0.03985 F2160.000
G1 X90.801 Y58.008 E0.20863
G1 X91.468 Y58.087 E0.03985
G1 X92.690 Y58.293 E0.07352
G1 X96.127 Y59.038 E0.20863
G1 X141.170 Y69.327 E2.74083
G1 X143.097 Y69.970 E0.12055
G1 X145.198 Y70.905 E0.13642
G1 X147.095 Y72.000 E0.12991
G1 X148.955 Y73.352 E0.13642
G1 X150.583 Y74.817 E0.12991
G1 X152.122 Y76.526 E0.13642
G1 X153.409 Y78.298 E0.12992
G1 X154.559 Y80.290 E0.13643
G1 X155.449 Y82.290 E0.12991
G1 X156.160 Y84.477 E0.13642
G1 X156.615 Y86.619 E0.12990
G1 X156.856 Y88.906 E0.13642
G1 X156.856 Y91.097 E0.12993
G1 X156.615 Y93.384 E0.13642
G1 X156.160 Y95.525 E0.12990
G1 X155.449 Y97.713 E0.13642
G1 X154.559 Y99.713 E0.12992
G1 X153.409 Y101.705 E0.13642
G1 X152.122 Y103.477 E0.12992
G1 X150.583 Y105.186 E0.13642
G1 X148.955 Y106.651 E0.12991
G1 X147.095 Y108.003 E0.13642
G1 X108.570 Y135.458 E2.80635
G1 X107.534 Y136.126 E0.07310
G1 X106.952 Y136.462 E0.03987
G1 X103.851 Y138.122 E0.20863
G1 X103.249 Y138.420 E0.03990
G1 X102.113 Y138.914 E0.07346
G1 X98.826 Y140.163 E0.20863
G1 X97.648 Y140.549 E0.07351
G1 X97.000 Y140.727 E0.03984
G1 X93.580 Y141.546 E0.20863
G1 X92.921 Y141.681 E0.03989
G1 X91.697 Y141.871 E0.07348
G1 X88.200 Y142.246 E0.20863
G1 X87.531 Y142.296 E0.03983
G1 X86.292 Y142.328 E0.07352
G1 X82.776 Y142.252 E0.20863
G1 X82.105 Y142.217 E0.03985
G1 X80.872 Y142.089 E0.07352
G1 X77.394 Y141.565 E0.20863
G1 X76.179 Y141.323 E0.07350
G1 X75.528 Y141.160 E0.03984
G1 X72.146 Y140.195 E0.20863
G1 X71.506 Y139.991 E0.03986
G1 X70.346 Y139.555 E0.07351
G1 X67.115 Y138.166 E0.20863
G1 X66.506 Y137.881 E0.03986
G1 X65.412 Y137.300 E0.07351
G1 X62.385 Y135.509 E0.20863
G1 X61.818 Y135.149 E0.03984
G1 X60.806 Y134.433 E0.07352
G1 X58.033 Y132.270 E0.20863
G1 X57.093 Y131.463 E0.07349
G1 X56.605 Y131.001 E0.03988
G1 X54.132 Y128.501 E0.20863
G1 X53.302 Y127.580 E0.07352
G1 X52.878 Y127.059 E0.03984
G1 X50.745 Y124.263 E0.20863
G1 X50.040 Y123.244 E0.07352
G1 X49.685 Y122.673 E0.03983
G1 X47.927 Y119.628 E0.20863
G1 X47.358 Y118.527 E0.07351
G1 X47.080 Y117.915 E0.03987
G1 X45.725 Y114.670 E0.20863
G1 X45.302 Y113.505 E0.07350
G1 X45.104 Y112.863 E0.03984
G1 X44.175 Y109.471 E0.20863
G1 X44.019 Y108.817 E0.03990
G1 X43.790 Y107.600 E0.07347
G1 X43.303 Y104.117 E0.20863
G1 X43.189 Y102.883 E0.07352
G1 X43.160 Y102.212 E0.03986
G1 X43.123 Y98.695 E0.20863
G1 X43.137 Y98.023 E0.03991
G1 X43.225 Y96.788 E0.07344
G1 X43.637 Y93.295 E0.20863
G1 X43.840 Y92.073 E0.07349
G1 X43.982 Y91.416 E0.03989
G1 X44.838 Y88.004 E0.20863
G1 X45.195 Y86.818 E0.07351
G1 X45.421 Y86.185 E0.03985
G1 X46.706 Y82.911 E0.20863
G1 X47.211 Y81.781 E0.07343
G1 X47.516 Y81.181 E0.03993
G1 X49.209 Y78.099 E0.20863
G1 X49.856 Y77.042 E0.07350
G1 X50.234 Y76.486 E0.03986
G1 X52.307 Y73.646 E0.20864
G1 X53.083 Y72.681 E0.07345
G1 X53.530 Y72.178 E0.03990
G1 X55.949 Y69.626 E0.20863
G1 X56.427 Y69.153 E0.03984
G1 X57.305 Y68.365 E0.06996
G1 F6240
G1 X59.051 Y66.941 E-1.23500
G1 E-0.06500 F3600.00000
G1 X76.161 Y123.026 F7800.000
G1 E1.30000 F3600.00000
G1 X78.041 Y114.181 E0.53640 F1620.000
G1 X78.181 Y114.211 E0.00851
G1 X78.328 Y113.708 E0.03109
G1 X79.615 Y111.759 E0.13855
G1 X81.419 Y110.275 E0.13855
G1 X83.580 Y109.390 E0.13854
G1 X85.906 Y109.180 E0.13854
G1 X88.191 Y109.666 E0.13855
G1 X90.230 Y110.803 E0.13854
G1 X91.844 Y112.491 E0.13854
G1 X92.889 Y114.580 E0.13855
G1 X93.272 Y116.884 E0.13855
G1 X92.958 Y119.199 E0.13854
G1 X91.976 Y121.318 E0.13854
G1 X90.414 Y123.053 E0.13855
G1 X88.409 Y124.251 E0.13855
G1 X86.140 Y124.805 E0.13855
G1 X83.901 Y124.671 E0.13305
G1 X76.220 Y123.038 E0.46584
G1 X76.725 Y122.659 F7800.000
G1 X78.407 Y114.745 E0.47998 F1620.000
G1 X78.514 Y114.768 E0.00648
G1 X78.765 Y113.910 E0.05301
G1 X79.972 Y112.081 E0.13004
G1 X81.666 Y110.688 E0.13005
G1 X83.694 Y109.857 E0.13004
G1 X85.877 Y109.661 E0.13004
G1 X88.021 Y110.116 E0.13004
G1 X89.936 Y111.184 E0.13004
G1 X91.451 Y112.768 E0.13004
G1 X92.432 Y114.729 E0.13004
G1 X92.791 Y116.891 E0.13004
G1 X92.496 Y119.064 E0.13004
G1 X91.575 Y121.053 E0.13004
G1 X90.108 Y122.682 E0.13004
G1 X88.226 Y123.806 E0.13004
G1 X86.097 Y124.326 E0.13004
G1 X83.965 Y124.198 E0.12669
G1 X76.784 Y122.672 E0.43551
G1 X77.289 Y122.293 F7800.000
G1 X78.774 Y115.309 E0.42355 F1458.000
G1 X78.847 Y115.325 E0.00444
G1 X79.201 Y114.112 E0.07493
G1 X80.330 Y112.402 E0.12154
G1 X81.912 Y111.101 E0.12154
G1 X83.808 Y110.324 E0.12153
G1 X85.848 Y110.141 E0.12153
G1 X87.852 Y110.567 E0.12154
G1 X89.642 Y111.564 E0.12153
G1 X91.058 Y113.045 E0.12153
G1 X91.974 Y114.878 E0.12154
G1 X92.310 Y116.899 E0.12154
G1 X92.035 Y118.929 E0.12153
G1 X91.174 Y120.788 E0.12154
G1 X89.803 Y122.310 E0.12154
G1 X88.044 Y123.361 E0.12154
G1 X86.054 Y123.847 E0.12154
G1 X84.029 Y123.726 E0.12032
G1 X77.348 Y122.305 E0.40518
G1 X76.898 Y122.210 F7800.000
G1 F6240
G1 X77.798 Y120.097 E-1.23500
G1 E-0.06500 F3600.00000
G1 X83.935 Y103.630 F7800.000
G1 E1.30000 F3600.00000
G1 X83.256 Y103.267 E0.04567 F1080.000
G1 X82.661 Y102.778 E0.04567
G1 X82.172 Y102.183 E0.04567
G1 X81.809 Y101.504 E0.04567
G1 X81.586 Y100.767 E0.04567
G1 X81.510 Y100.001 E0.04567
G1 X81.586 Y99.235 E0.04567
G1 X81.809 Y98.499 E0.04567
G1 X82.172 Y97.820 E0.04567
G1 X82.661 Y97.224 E0.04567
G1 X83.256 Y96.736 E0.04567
G1 X83.935 Y96.373 E0.04567
G1 X84.671 Y96.150 E0.04567
G1 X85.419 Y96.076 E0.04456 F1080.000
G1 X86.200 Y96.149 E0.04656
G1 X86.940 Y96.373 E0.04587
G1 X87.619 Y96.736 E0.04567
G1 X88.214 Y97.224 E0.04567
G1 X88.703 Y97.820 E0.04567
G1 X89.066 Y98.499 E0.04567
G1 X89.289 Y99.235 E0.04567
G1 X89.365 Y100.001 E0.04567
G1 X89.289 Y100.767 E0.04567
G1 X89.066 Y101.504 E0.04567
G1 X88.703 Y102.183 E0.04567
G1 X88.214 Y102.778 E0.04567
G1 X87.619 Y103.267 E0.04567
G1 X86.940 Y103.630 E0.04567
G1 X86.204 Y103.853 E0.04567
G1 X85.437 Y103.929 E0.04566
G1 X84.671 Y103.853 E0.04567
G1 X83.992 Y103.647 E0.04211
G1 X84.118 Y103.188 F7800.000
G1 X83.521 Y102.869 E0.04011 F1080.000
G1 X82.998 Y102.440 E0.04012
G1 X82.569 Y101.918 E0.04012
G1 X82.251 Y101.321 E0.04011
G1 X82.055 Y100.674 E0.04011
G1 X81.988 Y100.001 E0.04011
G1 X82.055 Y99.329 E0.04011
G1 X82.251 Y98.681 E0.04011
G1 X82.569 Y98.085 E0.04011
G1 X82.998 Y97.562 E0.04011
G1 X83.521 Y97.133 E0.04011
G1 X84.118 Y96.815 E0.04011
G1 X84.765 Y96.618 E0.04011
G1 X85.420 Y96.554 E0.03908 F1080.000
G1 X86.108 Y96.618 E0.04100
G1 X86.757 Y96.815 E0.04023
G1 X87.354 Y97.133 E0.04011
G1 X87.876 Y97.562 E0.04011
G1 X88.305 Y98.085 E0.04011
G1 X88.624 Y98.681 E0.04011
G1 X88.820 Y99.329 E0.04011
G1 X88.887 Y100.001 E0.04011
G1 X88.820 Y100.674 E0.04011
G1 X88.624 Y101.321 E0.04011
G1 X88.305 Y101.918 E0.04011
G1 X87.876 Y102.440 E0.04012
G1 X87.354 Y102.869 E0.04012
G1 X86.757 Y103.188 E0.04011
G1 X86.110 Y103.384 E0.04011
G1 X85.437 Y103.451 E0.04011
G1 X84.765 Y103.384 E0.04011
G1 X84.175 Y103.206 E0.03655
G1 X84.300 Y102.747 F7800.000
G1 X83.787 Y102.472 E0.03455 F1080.000
G1 X83.336 Y102.102 E0.03456
G1 X82.967 Y101.652 E0.03456
G1 X82.692 Y101.138 E0.03455
G1 X82.523 Y100.581 E0.03455
G1 X82.466 Y100.001 E0.03455
G1 X82.523 Y99.422 E0.03455
G1 X82.692 Y98.864 E0.03455
G1 X82.967 Y98.351 E0.03455
G1 X83.336 Y97.900 E0.03456
G1 X83.787 Y97.531 E0.03456
G1 X84.300 Y97.256 E0.03455
G1 X84.858 Y97.087 E0.03455
G1 X85.422 Y97.032 E0.03360 F1080.000
G1 X86.016 Y97.087 E0.03544
G1 X86.574 Y97.256 E0.03460
G1 X87.088 Y97.531 E0.03455
G1 X87.538 Y97.900 E0.03456
G1 X87.908 Y98.351 E0.03456
G1 X88.183 Y98.864 E0.03455
G1 X88.352 Y99.422 E0.03455
G1 X88.409 Y100.001 E0.03455
G1 X88.352 Y100.581 E0.03455
G1 X88.183 Y101.138 E0.03455
G1 X87.908 Y101.652 E0.03455
G1 X87.538 Y102.102 E0.03456
G1 X87.088 Y102.472 E0.03456
G1 X86.574 Y102.747 E0.03455
G1 X86.017 Y102.916 E0.03455
G1 X85.437 Y102.973 E0.03455
G1 X84.858 Y102.916 E0.03455
G1 X84.358 Y102.764 E0.03099
G1 X83.975 Y102.980 F7800.000
G1 X100.739 Y119.547 F7800.000
G1 X94.019 Y113.497 E0.53641 F1620.000
G1 X94.115 Y113.390 E0.00851
G1 X93.753 Y113.011 E0.03106
G1 X92.708 Y110.923 E0.13855
G1 X92.326 Y108.619 E0.13855
G1 X92.639 Y106.304 E0.13854
G1 X93.621 Y104.185 E0.13854
G1 X95.184 Y102.449 E0.13855
G1 X97.189 Y101.252 E0.13854
G1 X99.458 Y100.698 E0.13855
G1 X101.789 Y100.838 E0.13854
G1 X103.975 Y101.658 E0.13855
G1 X105.823 Y103.087 E0.13855
G1 X107.167 Y104.997 E0.13854
G1 X107.889 Y107.218 E0.13855
G1 X107.924 Y109.553 E0.13854
G1 X107.269 Y111.795 E0.13855
G1 X106.033 Y113.667 E0.13306
G1 X100.779 Y119.503 E0.46584
G1 X100.704 Y118.875 F7800.000
G1 X94.691 Y113.461 E0.47998 F1620.000
G1 X94.764 Y113.380 E0.00648
G1 X94.146 Y112.735 E0.05299
G1 X93.166 Y110.774 E0.13004
G1 X92.807 Y108.611 E0.13004
G1 X93.101 Y106.439 E0.13004
G1 X94.022 Y104.450 E0.13004
G1 X95.489 Y102.821 E0.13005
G1 X97.371 Y101.697 E0.13004
G1 X99.501 Y101.177 E0.13004
G1 X101.689 Y101.308 E0.13004
G1 X103.741 Y102.078 E0.13005
G1 X105.475 Y103.419 E0.13004
G1 X106.737 Y105.212 E0.13004
G1 X107.415 Y107.297 E0.13004
G1 X107.447 Y109.489 E0.13004
G1 X106.833 Y111.593 E0.13005
G1 X105.656 Y113.375 E0.12669
G1 X100.744 Y118.831 E0.43551
G1 X100.668 Y118.204 F7800.000
G1 X95.362 Y113.426 E0.42355 F1458.000
G1 X95.412 Y113.371 E0.00444
G1 X94.540 Y112.458 E0.07492
G1 X93.623 Y110.625 E0.12154
G1 X93.288 Y108.604 E0.12154
G1 X93.563 Y106.574 E0.12153
G1 X94.424 Y104.715 E0.12153
G1 X95.795 Y103.192 E0.12154
G1 X97.553 Y102.142 E0.12153
G1 X99.544 Y101.656 E0.12154
G1 X101.589 Y101.779 E0.12153
G1 X103.507 Y102.498 E0.12154
G1 X105.128 Y103.752 E0.12154
G1 X106.307 Y105.427 E0.12153
G1 X106.940 Y107.375 E0.12154
G1 X106.971 Y109.424 E0.12153
G1 X106.396 Y111.391 E0.12154
G1 X105.279 Y113.083 E0.12032
G1 X100.708 Y118.159 E0.40518
G1 X100.401 Y118.501 F7800.000
G1 F6240
G1 X99.021 Y116.665 E-1.23500
G1 E-0.06500 F3600.00000
G1 X110.015 Y96.523 F7800.000
G1 E1.30000 F3600.00000
G1 X101.415 Y99.317 E0.53644 F1620.000
G1 X101.371 Y99.181 E0.00851
G1 X100.862 Y99.305 E0.03104
G1 X98.531 Y99.165 E0.13855
G1 X96.344 Y98.345 E0.13855
G1 X94.497 Y96.916 E0.13854
G1 X93.152 Y95.006 E0.13855
G1 X92.431 Y92.785 E0.13855
G1 X92.396 Y90.450 E0.13855
G1 X93.051 Y88.208 E0.13855
G1 X94.337 Y86.259 E0.13855
G1 X96.141 Y84.775 E0.13855
G1 X98.302 Y83.890 E0.13855
G1 X100.628 Y83.680 E0.13854
G1 X102.913 Y84.166 E0.13855
G1 X104.953 Y85.303 E0.13855
G1 X106.567 Y86.991 E0.13855
G1 X107.570 Y88.997 E0.13306
G1 X109.997 Y96.466 E0.46584
G1 X109.416 Y96.218 F7800.000
G1 X101.720 Y98.718 E0.48001 F1620.000
G1 X101.687 Y98.614 E0.00648
G1 X100.819 Y98.826 E0.05297
G1 X98.631 Y98.695 E0.13004
G1 X96.579 Y97.924 E0.13004
G1 X94.844 Y96.584 E0.13004
G1 X93.583 Y94.791 E0.13004
G1 X92.905 Y92.706 E0.13004
G1 X92.872 Y90.514 E0.13004
G1 X93.487 Y88.410 E0.13004
G1 X94.695 Y86.581 E0.13004
G1 X96.388 Y85.188 E0.13004
G1 X98.416 Y84.357 E0.13004
G1 X100.600 Y84.161 E0.13004
G1 X102.744 Y84.616 E0.13004
G1 X104.659 Y85.684 E0.13004
G1 X106.173 Y87.268 E0.13004
G1 X107.129 Y89.178 E0.12669
G1 X109.397 Y96.161 E0.43551
G1 X108.817 Y95.912 F7800.000
G1 X102.026 Y98.119 E0.42357 F1458.000
G1 X102.003 Y98.047 E0.00444
G1 X100.776 Y98.347 E0.07491
G1 X98.731 Y98.224 E0.12154
G1 X96.813 Y97.504 E0.12154
G1 X95.192 Y96.251 E0.12153
G1 X94.013 Y94.576 E0.12154
G1 X93.380 Y92.627 E0.12154
G1 X93.349 Y90.579 E0.12154
G1 X93.924 Y88.612 E0.12154
G1 X95.052 Y86.902 E0.12153
G1 X96.635 Y85.601 E0.12153
G1 X98.530 Y84.824 E0.12154
G1 X100.571 Y84.641 E0.12153
G1 X102.575 Y85.067 E0.12154
G1 X104.364 Y86.064 E0.12154
G1 X105.780 Y87.545 E0.12154
G1 X106.687 Y89.359 E0.12032
G1 X108.798 Y95.855 E0.40518
