; generated by Slic3r 1.2.9 on 2020-05-25 at 12:27:08

; external perimeters extrusion width = 0.40mm
; perimeters extrusion width = 0.48mm
; infill extrusion width = 0.48mm
; solid infill extrusion width = 0.48mm
; top infill extrusion width = 0.48mm

M107
M190 S60 ; set bed temperature
M104 S212 ; set temperature
G28 ; home all axes
G92 E0.0 ; reset extruder
M109 S212 ; wait for temperature to be reached
G21 ; set units to millimeters
G90 ; use absolute coordinates
M83 ; use relative distances for extrusion
G1 E-1.30000 F3600.00000
G1 Z0.300 F7800.000
G1 X57.502 Y68.512 F7800.000
G1 E1.30000 F3600.00000
M204 S500
G1 X60.228 Y66.290 E0.10336 F2160.000
G1 X60.750 Y65.891 E0.01931
G1 X61.758 Y65.198 E0.03594
G1 X64.746 Y63.343 E0.10335
G1 X65.814 Y62.747 E0.03594
G1 X66.403 Y62.456 E0.01932
G1 X69.603 Y60.998 E0.10335
G1 X70.739 Y60.544 E0.03595
G1 X71.360 Y60.330 E0.01930
G1 X74.721 Y59.293 E0.10336
G1 X75.353 Y59.120 E0.01927
G1 X76.549 Y58.856 E0.03598
G1 X80.014 Y58.257 E0.10336
G1 X81.229 Y58.106 E0.03597
G1 X81.883 Y58.057 E0.01929
G1 X85.397 Y57.906 E0.10336
G1 X86.621 Y57.912 E0.03596
G1 X87.276 Y57.947 E0.01929 F2160.000
G1 X90.780 Y58.247 E0.10336
G1 X91.432 Y58.324 E0.01929
G1 X92.639 Y58.527 E0.03597
G1 X96.076 Y59.273 E0.10335
G1 X141.116 Y69.561 E1.35772
G1 X143.000 Y70.189 E0.05835
G1 X145.101 Y71.124 E0.06758
G1 X146.954 Y72.194 E0.06288
G1 X148.814 Y73.546 E0.06758
G1 X150.404 Y74.978 E0.06288
G1 X151.943 Y76.687 E0.06758
G1 X153.201 Y78.418 E0.06289
G1 X154.351 Y80.410 E0.06759
G1 X155.221 Y82.364 E0.06288
G1 X155.932 Y84.552 E0.06758
G1 X156.377 Y86.644 E0.06288
G1 X156.617 Y88.931 E0.06758
G1 X156.617 Y91.071 E0.06289
G1 X156.377 Y93.359 E0.06758
G1 X155.932 Y95.451 E0.06288
G1 X155.221 Y97.638 E0.06758
G1 X154.351 Y99.593 E0.06289
G1 X153.201 Y101.585 E0.06758
G1 X151.943 Y103.316 E0.06289
G1 X150.404 Y105.025 E0.06758
G1 X148.814 Y106.457 E0.06288
G1 X146.954 Y107.808 E0.06758
G1 X108.430 Y135.262 E1.39019
G1 X107.408 Y135.922 E0.03577
G1 X106.839 Y136.250 E0.01930
G1 X103.738 Y137.910 E0.10335
G1 X103.149 Y138.202 E0.01931
G1 X102.028 Y138.689 E0.03594
G1 X98.740 Y139.939 E0.10336
G1 X97.577 Y140.320 E0.03597
G1 X96.944 Y140.493 E0.01929
G1 X93.524 Y141.312 E0.10335
G1 X92.881 Y141.445 E0.01931
G1 X91.672 Y141.632 E0.03595
G1 X88.175 Y142.007 E0.10336
G1 X87.520 Y142.056 E0.01928
G1 X86.297 Y142.088 E0.03597
G1 X82.781 Y142.012 E0.10336
G1 X82.125 Y141.977 E0.01929
G1 X80.908 Y141.852 E0.03597
G1 X77.430 Y141.328 E0.10335
G1 X76.230 Y141.089 E0.03596
G1 X75.594 Y140.929 E0.01929
G1 X72.211 Y139.965 E0.10335
G1 X71.586 Y139.764 E0.01929
G1 X70.441 Y139.334 E0.03596
G1 X67.210 Y137.945 E0.10336
G1 X66.615 Y137.667 E0.01929
G1 X65.534 Y137.094 E0.03596
G1 X62.507 Y135.303 E0.10335
G1 X61.953 Y134.951 E0.01929
G1 X60.954 Y134.244 E0.03597
G1 X58.181 Y132.081 E0.10335
G1 X57.253 Y131.284 E0.03595
G1 X56.776 Y130.832 E0.01930
G1 X54.303 Y128.332 E0.10335
G1 X53.484 Y127.422 E0.03597
G1 X53.069 Y126.914 E0.01929
G1 X50.935 Y124.118 E0.10335
G1 X50.239 Y123.111 E0.03597
G1 X49.893 Y122.553 E0.01928
G1 X48.135 Y119.508 E0.10335
G1 X47.573 Y118.420 E0.03596
G1 X47.301 Y117.823 E0.01930
G1 X45.947 Y114.577 E0.10336
G1 X45.529 Y113.427 E0.03596
G1 X45.335 Y112.800 E0.01928
G1 X44.407 Y109.408 E0.10335
G1 X44.254 Y108.769 E0.01931
G1 X44.028 Y107.567 E0.03594
G1 X43.541 Y104.084 E0.10335
G1 X43.428 Y102.865 E0.03597
G1 X43.400 Y102.209 E0.01929
G1 X43.363 Y98.693 E0.10335
G1 X43.377 Y98.035 E0.01932
G1 X43.463 Y96.816 E0.03593
G1 X43.876 Y93.323 E0.10336
G1 X44.076 Y92.116 E0.03595
G1 X44.215 Y91.474 E0.01931
G1 X45.071 Y88.063 E0.10336
G1 X45.424 Y86.891 E0.03596
G1 X45.644 Y86.273 E0.01929
G1 X46.929 Y82.999 E0.10336
G1 X47.428 Y81.883 E0.03593
G1 X47.726 Y81.297 E0.01933
G1 X49.419 Y78.214 E0.10335
G1 X50.058 Y77.170 E0.03596
G1 X50.428 Y76.628 E0.01930
G1 X52.501 Y73.787 E0.10336
G1 X53.268 Y72.834 E0.03594
G1 X53.704 Y72.343 E0.01931
G1 X56.124 Y69.791 E0.10335
G1 X56.590 Y69.329 E0.01929
G1 X57.456 Y68.551 E0.03421
G1 F6240
G1 X59.202 Y67.127 E-1.23500
G1 E-0.06500 F3600.00000
G1 X76.873 Y122.564 F7800.000
G1 E1.30000 F3600.00000
G1 X78.503 Y114.893 E0.23047 F1620.000
G1 X78.601 Y114.913 E0.00294
G1 X78.879 Y113.963 E0.02910
G1 X80.066 Y112.165 E0.06332
G1 X81.730 Y110.796 E0.06332
G1 X83.724 Y109.979 E0.06332
G1 X85.870 Y109.786 E0.06332
G1 X87.977 Y110.234 E0.06332
G1 X89.859 Y111.283 E0.06332
G1 X91.348 Y112.841 E0.06332
G1 X92.312 Y114.768 E0.06332
G1 X92.665 Y116.893 E0.06332
G1 X92.376 Y119.028 E0.06332
G1 X91.470 Y120.983 E0.06332
G1 X90.028 Y122.585 E0.06332
G1 X88.179 Y123.690 E0.06332
G1 X86.085 Y124.201 E0.06332
G1 X83.982 Y124.075 E0.06193
G1 X76.931 Y122.576 E0.21182
G1 X77.152 Y122.382 F7800.000
G1 X78.685 Y115.172 E0.21662 F1620.000
G1 X78.766 Y115.189 E0.00245
G1 X79.095 Y114.063 E0.03448
G1 X80.243 Y112.324 E0.06123
G1 X81.852 Y111.001 E0.06123
G1 X83.780 Y110.211 E0.06123
G1 X85.855 Y110.024 E0.06123
G1 X87.894 Y110.457 E0.06123
G1 X89.713 Y111.472 E0.06123
G1 X91.153 Y112.978 E0.06123
G1 X92.085 Y114.841 E0.06123
G1 X92.427 Y116.897 E0.06123
G1 X92.147 Y118.962 E0.06123
G1 X91.271 Y120.852 E0.06123
G1 X89.877 Y122.401 E0.06123
G1 X88.088 Y123.469 E0.06123
G1 X86.064 Y123.963 E0.06123
G1 X84.013 Y123.840 E0.06037
G1 X77.211 Y122.394 E0.20438
G1 X77.432 Y122.201 F7800.000
G1 X78.866 Y115.451 E0.20277 F1458.000
G1 X78.931 Y115.465 E0.00195
G1 X79.311 Y114.163 E0.03986
G1 X80.420 Y112.484 E0.05914
G1 X81.975 Y111.205 E0.05915
G1 X83.837 Y110.442 E0.05914
G1 X85.841 Y110.262 E0.05914
G1 X87.810 Y110.680 E0.05915
G1 X89.568 Y111.660 E0.05914
G1 X90.958 Y113.115 E0.05914
G1 X91.859 Y114.915 E0.05915
G1 X92.188 Y116.900 E0.05915
G1 X91.918 Y118.895 E0.05914
G1 X91.072 Y120.721 E0.05914
G1 X89.726 Y122.217 E0.05915
G1 X87.998 Y123.249 E0.05914
G1 X86.043 Y123.726 E0.05915
G1 X84.045 Y123.606 E0.05881
G1 X77.490 Y122.213 E0.19694
G1 X77.040 Y122.117 F7800.000
G1 F6240
G1 X77.940 Y120.005 E-1.23500
G1 E-0.06500 F3600.00000
G1 X84.165 Y103.073 F7800.000
G1 E1.30000 F3600.00000
G1 X83.591 Y102.765 E0.01915 F1080.000
G1 X83.087 Y102.352 E0.01915
G1 X82.673 Y101.848 E0.01915
G1 X82.366 Y101.273 E0.01915
G1 X82.177 Y100.650 E0.01915
G1 X82.113 Y100.001 E0.01915
G1 X82.177 Y99.353 E0.01915
G1 X82.366 Y98.729 E0.01915
G1 X82.673 Y98.155 E0.01915
G1 X83.087 Y97.651 E0.01915
G1 X83.591 Y97.237 E0.01915
G1 X84.165 Y96.930 E0.01915
G1 X84.789 Y96.741 E0.01915
G1 X85.421 Y96.679 E0.01865 F1080.000
G1 X86.084 Y96.741 E0.01959
G1 X86.710 Y96.930 E0.01920
G1 X87.284 Y97.237 E0.01915
G1 X87.788 Y97.651 E0.01915
G1 X88.201 Y98.155 E0.01915
G1 X88.509 Y98.729 E0.01915
G1 X88.698 Y99.353 E0.01915
G1 X88.762 Y100.001 E0.01915
G1 X88.698 Y100.650 E0.01915
G1 X88.509 Y101.273 E0.01915
G1 X88.201 Y101.848 E0.01915
G1 X87.788 Y102.352 E0.01915
G1 X87.284 Y102.765 E0.01915
G1 X86.710 Y103.073 E0.01915
G1 X86.086 Y103.262 E0.01915
G1 X85.437 Y103.326 E0.01915
G1 X84.789 Y103.262 E0.01915
G1 X84.223 Y103.090 E0.01739
G1 X84.256 Y102.854 F7800.000
G1 X83.722 Y102.569 E0.01779 F1080.000
G1 X83.254 Y102.185 E0.01779
G1 X82.870 Y101.717 E0.01779
G1 X82.585 Y101.183 E0.01779
G1 X82.409 Y100.604 E0.01779
G1 X82.350 Y100.001 E0.01779
G1 X82.409 Y99.399 E0.01779
G1 X82.585 Y98.820 E0.01779
G1 X82.870 Y98.286 E0.01779
G1 X83.254 Y97.818 E0.01779
G1 X83.722 Y97.434 E0.01779
G1 X84.256 Y97.149 E0.01779
G1 X84.835 Y96.973 E0.01779
G1 X85.421 Y96.916 E0.01731 F1080.000
G1 X86.039 Y96.973 E0.01823
G1 X86.619 Y97.149 E0.01782
G1 X87.153 Y97.434 E0.01779
G1 X87.621 Y97.818 E0.01779
G1 X88.005 Y98.286 E0.01779
G1 X88.290 Y98.820 E0.01779
G1 X88.466 Y99.399 E0.01779
G1 X88.525 Y100.001 E0.01779
G1 X88.466 Y100.604 E0.01779
G1 X88.290 Y101.183 E0.01779
G1 X88.005 Y101.717 E0.01779
G1 X87.621 Y102.185 E0.01779
G1 X87.153 Y102.569 E0.01779
G1 X86.619 Y102.854 E0.01779
G1 X86.040 Y103.030 E0.01779
G1 X85.437 Y103.089 E0.01779
G1 X84.835 Y103.030 E0.01779
G1 X84.313 Y102.871 E0.01602
G1 X84.347 Y102.635 F7800.000
G1 X83.854 Y102.372 E0.01642 F1080.000
G1 X83.422 Y102.017 E0.01642
G1 X83.067 Y101.585 E0.01642
G1 X82.804 Y101.092 E0.01642
G1 X82.642 Y100.558 E0.01642
G1 X82.587 Y100.001 E0.01642
G1 X82.642 Y99.445 E0.01642
G1 X82.804 Y98.910 E0.01642
G1 X83.067 Y98.418 E0.01642
G1 X83.422 Y97.986 E0.01642
G1 X83.854 Y97.631 E0.01642
G1 X84.347 Y97.368 E0.01642
G1 X84.881 Y97.205 E0.01642
G1 X85.422 Y97.152 E0.01596 F1080.000
G1 X85.993 Y97.205 E0.01686
G1 X86.528 Y97.368 E0.01644
G1 X87.021 Y97.631 E0.01642
G1 X87.453 Y97.986 E0.01642
G1 X87.808 Y98.418 E0.01642
G1 X88.071 Y98.910 E0.01642
G1 X88.233 Y99.445 E0.01642
G1 X88.288 Y100.001 E0.01642
G1 X88.233 Y100.558 E0.01642
G1 X88.071 Y101.092 E0.01642
G1 X87.808 Y101.585 E0.01642
G1 X87.453 Y102.017 E0.01642
G1 X87.021 Y102.372 E0.01642
G1 X86.528 Y102.635 E0.01642
G1 X85.994 Y102.797 E0.01642
G1 X85.437 Y102.852 E0.01642
G1 X84.881 Y102.797 E0.01642
G1 X84.404 Y102.653 E0.01466
G1 X84.021 Y102.868 F7800.000
G1 X100.694 Y118.700 F7800.000
G1 X94.866 Y113.452 E0.23047 F1620.000
G1 X94.933 Y113.378 E0.00295
G1 X94.249 Y112.662 E0.02909
G1 X93.285 Y110.735 E0.06332
G1 X92.932 Y108.609 E0.06332
G1 X93.222 Y106.474 E0.06332
G1 X94.127 Y104.519 E0.06332
G1 X95.569 Y102.918 E0.06332
G1 X97.419 Y101.813 E0.06332
G1 X99.512 Y101.302 E0.06332
G1 X101.663 Y101.431 E0.06332
G1 X103.680 Y102.188 E0.06332
G1 X105.384 Y103.506 E0.06332
G1 X106.625 Y105.268 E0.06332
G1 X107.291 Y107.317 E0.06332
G1 X107.323 Y109.472 E0.06332
G1 X106.719 Y111.540 E0.06332
G1 X105.557 Y113.299 E0.06194
G1 X100.734 Y118.655 E0.21182
G1 X100.677 Y118.367 F7800.000
G1 X95.199 Y113.435 E0.21662 F1620.000
G1 X95.255 Y113.373 E0.00245
G1 X94.444 Y112.525 E0.03447
G1 X93.512 Y110.661 E0.06123
G1 X93.171 Y108.606 E0.06123
G1 X93.450 Y106.541 E0.06123
G1 X94.326 Y104.651 E0.06123
G1 X95.720 Y103.102 E0.06124
G1 X97.509 Y102.034 E0.06123
G1 X99.533 Y101.540 E0.06123
G1 X101.613 Y101.664 E0.06123
G1 X103.564 Y102.396 E0.06124
G1 X105.212 Y103.671 E0.06123
G1 X106.412 Y105.375 E0.06123
G1 X107.055 Y107.356 E0.06123
G1 X107.087 Y109.440 E0.06123
G1 X106.502 Y111.440 E0.06123
G1 X105.371 Y113.154 E0.06037
G1 X100.717 Y118.322 E0.20438
G1 X100.659 Y118.034 F7800.000
G1 X95.532 Y113.417 E0.20277 F1458.000
G1 X95.576 Y113.368 E0.00195
G1 X94.639 Y112.388 E0.03986
G1 X93.739 Y110.588 E0.05915
G1 X93.409 Y108.602 E0.05915
G1 X93.679 Y106.608 E0.05914
G1 X94.525 Y104.782 E0.05914
G1 X95.872 Y103.286 E0.05915
G1 X97.599 Y102.254 E0.05914
G1 X99.555 Y101.777 E0.05915
G1 X101.564 Y101.897 E0.05914
G1 X103.448 Y102.604 E0.05915
G1 X105.040 Y103.836 E0.05914
G1 X106.198 Y105.481 E0.05914
G1 X106.820 Y107.395 E0.05915
G1 X106.850 Y109.408 E0.05914
G1 X106.286 Y111.340 E0.05915
G1 X105.184 Y113.010 E0.05881
G1 X100.700 Y117.990 E0.19693
G1 X100.392 Y118.331 F7800.000
G1 F6240
G1 X99.012 Y116.496 E-1.23500
G1 E-0.06500 F3600.00000
G1 X109.259 Y96.138 F7800.000
G1 E1.30000 F3600.00000
G1 X101.800 Y98.561 E0.23048 F1620.000
G1 X101.769 Y98.466 E0.00295
G1 X100.808 Y98.701 E0.02908
G1 X98.657 Y98.572 E0.06332
G1 X96.640 Y97.815 E0.06332
G1 X94.935 Y96.497 E0.06332
G1 X93.695 Y94.735 E0.06332
G1 X93.029 Y92.686 E0.06332
G1 X92.997 Y90.531 E0.06332
G1 X93.601 Y88.463 E0.06332
G1 X94.788 Y86.665 E0.06332
G1 X96.453 Y85.296 E0.06332
G1 X98.446 Y84.479 E0.06332
G1 X100.401 Y84.303 E0.05768
G1 X100.592 Y84.286 E0.00564
G1 X102.700 Y84.734 E0.06332
G1 X104.582 Y85.783 E0.06332
G1 X106.071 Y87.341 E0.06332
G1 X107.013 Y89.226 E0.06194
G1 X109.241 Y96.081 E0.21182
G1 X108.962 Y95.986 F7800.000
G1 X101.952 Y98.264 E0.21663 F1620.000
G1 X101.926 Y98.185 E0.00245
G1 X100.787 Y98.463 E0.03447
G1 X98.707 Y98.339 E0.06123
G1 X96.756 Y97.606 E0.06123
G1 X95.108 Y96.332 E0.06123
G1 X93.908 Y94.628 E0.06123
G1 X93.264 Y92.646 E0.06123
G1 X93.233 Y90.563 E0.06123
G1 X93.817 Y88.563 E0.06123
G1 X94.965 Y86.824 E0.06123
G1 X96.575 Y85.501 E0.06123
G1 X98.503 Y84.711 E0.06123
G1 X100.578 Y84.524 E0.06123
G1 X102.616 Y84.957 E0.06123
G1 X104.436 Y85.972 E0.06123
G1 X105.876 Y87.478 E0.06123
G1 X106.795 Y89.315 E0.06037
G1 X108.944 Y95.929 E0.20438
G1 X108.665 Y95.835 F7800.000
G1 X102.103 Y97.967 E0.20278 F1458.000
G1 X102.083 Y97.904 E0.00195
G1 X100.765 Y98.226 E0.03985
G1 X98.756 Y98.106 E0.05915
G1 X96.872 Y97.398 E0.05914
G1 X95.280 Y96.167 E0.05914
G1 X94.121 Y94.522 E0.05915
G1 X93.499 Y92.607 E0.05914
G1 X93.469 Y90.595 E0.05915
G1 X94.034 Y88.663 E0.05915
G1 X95.142 Y86.984 E0.05914
G1 X96.697 Y85.705 E0.05914
G1 X98.559 Y84.942 E0.05914
G1 X100.443 Y84.773 E0.05559
G1 X100.564 Y84.762 E0.00356
G1 X102.532 Y85.180 E0.05915
G1 X104.290 Y86.160 E0.05914
G1 X105.681 Y87.615 E0.05915
G1 X106.576 Y89.405 E0.05881
G1 X108.647 Y95.778 E0.19693
G1 X108.789 Y96.216 F7800.000
G1 F6240
G1 X106.510 Y96.493 E-1.23500
G1 E-0.06500 F3600.00000
G1 X94.002 Y77.439 F7800.000
G1 E1.30000 F3600.00000
G1 X92.372 Y85.110 E0.23047 F1620.000
G1 X92.274 Y85.090 E0.00295
G1 X91.996 Y86.040 E0.02909
G1 X90.809 Y87.838 E0.06332
G1 X89.145 Y89.206 E0.06332
G1 X87.151 Y90.024 E0.06332
G1 X85.005 Y90.217 E0.06332
G1 X82.898 Y89.769 E0.06332
G1 X81.016 Y88.719 E0.06332
G1 X79.527 Y87.162 E0.06332
G1 X78.563 Y85.235 E0.06332
G1 X78.210 Y83.110 E0.06332
G1 X78.499 Y80.974 E0.06332
G1 X79.405 Y79.019 E0.06332
G1 X80.847 Y77.418 E0.06332
G1 X82.696 Y76.313 E0.06332
G1 X84.790 Y75.802 E0.06332
G1 X86.893 Y75.928 E0.06194
G1 X93.944 Y77.427 E0.21182
G1 X93.723 Y77.621 F7800.000
G1 X92.190 Y84.831 E0.21662 F1620.000
G1 X92.109 Y84.814 E0.00245
G1 X91.780 Y85.940 E0.03447
G1 X90.632 Y87.679 E0.06123
G1 X89.023 Y89.002 E0.06123
G1 X87.095 Y89.792 E0.06123
G1 X85.019 Y89.979 E0.06123
G1 X82.981 Y89.546 E0.06123
G1 X81.161 Y88.531 E0.06123
G1 X79.722 Y87.025 E0.06123
G1 X78.790 Y85.161 E0.06123
G1 X78.448 Y83.106 E0.06123
G1 X78.728 Y81.041 E0.06123
G1 X79.604 Y79.151 E0.06123
G1 X80.998 Y77.602 E0.06123
G1 X82.787 Y76.534 E0.06123
G1 X84.811 Y76.040 E0.06123
G1 X86.862 Y76.162 E0.06037
G1 X93.664 Y77.608 E0.20438
G1 X93.443 Y77.802 F7800.000
G1 X92.009 Y84.552 E0.20278 F1458.000
G1 X91.944 Y84.538 E0.00195
G1 X91.564 Y85.840 E0.03986
G1 X90.455 Y87.519 E0.05914
G1 X88.900 Y88.797 E0.05915
G1 X87.038 Y89.561 E0.05915
G1 X85.034 Y89.741 E0.05914
G1 X83.065 Y89.323 E0.05915
G1 X81.307 Y88.342 E0.05914
G1 X79.917 Y86.888 E0.05914
G1 X79.016 Y85.088 E0.05915
G1 X78.686 Y83.102 E0.05914
G1 X78.957 Y81.108 E0.05915
G1 X79.803 Y79.282 E0.05914
G1 X81.149 Y77.786 E0.05915
G1 X82.877 Y76.754 E0.05914
G1 X84.832 Y76.277 E0.05915
G1 X86.830 Y76.397 E0.05881
G1 X93.385 Y77.790 E0.19694
G1 X93.835 Y77.885 F7800.000
G1 F6240
G1 X92.935 Y79.998 E-1.23500
G1 E-0.06500 F3600.00000
G1 X70.181 Y81.303 F7800.000
G1 E1.30000 F3600.00000
G1 X76.009 Y86.551 E0.23048 F1620.000
G1 X75.942 Y86.625 E0.00295
G1 X76.626 Y87.341 E0.02909
G1 X77.589 Y89.268 E0.06332
G1 X77.942 Y91.393 E0.06332
G1 X77.653 Y93.528 E0.06332
G1 X76.748 Y95.483 E0.06332
G1 X75.306 Y97.085 E0.06332
G1 X73.456 Y98.190 E0.06332
G1 X71.363 Y98.701 E0.06332
G1 X69.212 Y98.572 E0.06332
G1 X67.195 Y97.815 E0.06332
G1 X65.490 Y96.497 E0.06332
G1 X64.250 Y94.735 E0.06332
G1 X63.584 Y92.686 E0.06332
G1 X63.552 Y90.531 E0.06332
G1 X64.156 Y88.463 E0.06332
G1 X65.317 Y86.704 E0.06194
G1 X70.140 Y81.348 E0.21182
G1 X70.198 Y81.636 F7800.000
G1 X75.676 Y86.568 E0.21663 F1620.000
G1 X75.620 Y86.630 E0.00245
G1 X76.431 Y87.478 E0.03447
G1 X77.363 Y89.341 E0.06123
G1 X77.704 Y91.397 E0.06123
G1 X77.424 Y93.462 E0.06123
G1 X76.549 Y95.352 E0.06123
G1 X75.154 Y96.901 E0.06123
G1 X73.366 Y97.969 E0.06123
G1 X71.342 Y98.463 E0.06123
G1 X69.262 Y98.339 E0.06123
G1 X67.311 Y97.606 E0.06124
G1 X65.663 Y96.332 E0.06123
G1 X64.463 Y94.628 E0.06123
G1 X63.819 Y92.646 E0.06123
G1 X63.788 Y90.563 E0.06123
G1 X64.373 Y88.563 E0.06123
G1 X65.504 Y86.849 E0.06037
G1 X70.158 Y81.680 E0.20438
G1 X70.215 Y81.969 F7800.000
G1 X75.343 Y86.586 E0.20278 F1458.000
G1 X75.299 Y86.635 E0.00195
G1 X76.236 Y87.615 E0.03986
G1 X77.136 Y89.415 E0.05914
G1 X77.466 Y91.400 E0.05915
G1 X77.196 Y93.395 E0.05914
G1 X76.350 Y95.221 E0.05914
G1 X75.003 Y96.717 E0.05915
