; generated by Slic3r 1.3.1-dev (Build 2d100c4) on 2020-05-15 at 06:23:58

; external perimeters extrusion width = 0.44mm (3.91mm^3/s)
; perimeters extrusion width = 0.56mm (5.65mm^3/s)
; infill extrusion width = 0.50mm (6.70mm^3/s)
; solid infill extrusion width = 0.56mm (6.91mm^3/s)
; top infill extrusion width = 0.56mm (6.28mm^3/s)

M107
M190 S60 ; set bed temperature and wait for it to be reached
M104 S215 ; set temperature
G28 ; home all axes
G92 E0.0 ; reset extruder
; Filament gcode

M109 S215 ; set temperature and wait for it to be reached
G21 ; set units to millimeters
G90 ; use absolute coordinates
M83 ; use relative distances for extrusion
G1 E-1.30000 F3600.00000
G1 Z0.300 F7800.000
G1 X47.049 Y57.957 F7800.000
G1 E1.30000 F3600.00000
M201 X500 Y500
M204 P500 T500
G1 F2160.000
G1 X49.776 Y55.735 E0.20863
G1 X50.334 Y55.309 E0.04169
G1 X51.380 Y54.590 E0.07529
G1 X54.368 Y52.735 E0.20863
G1 X55.476 Y52.117 E0.07527
G1 X56.106 Y51.805 E0.04172
G1 X59.307 Y50.347 E0.20863
G1 X60.485 Y49.875 E0.07530
G1 X61.149 Y49.646 E0.04167
G1 X64.510 Y48.610 E0.20863
G1 X65.739 Y48.292 E0.07532
G1 X66.427 Y48.150 E0.04166
G1 X69.893 Y47.552 E0.20864
G1 X71.153 Y47.394 E0.07533
G1 X71.853 Y47.342 E0.04165
G1 X75.367 Y47.192 E0.20863
G1 X76.068 Y47.184 E0.04162
G1 X77.337 Y47.234 E0.07534
G1 X80.841 Y47.534 E0.20863
G1 X81.539 Y47.616 E0.04167
G1 X82.791 Y47.828 E0.07533
G1 X86.344 Y48.600 E0.21568
G1 X131.275 Y58.864 E2.73409
G1 X133.291 Y59.535 E0.12602
G1 X135.392 Y60.471 E0.13642
G1 X137.374 Y61.615 E0.13582
G1 X139.235 Y62.967 E0.13642
G1 X140.936 Y64.499 E0.13581
G1 X142.475 Y66.208 E0.13642
G1 X143.821 Y68.060 E0.13582
G1 X144.971 Y70.052 E0.13642
G1 X145.902 Y72.143 E0.13582
G1 X146.612 Y74.330 E0.13642
G1 X147.088 Y76.570 E0.13580
G1 X147.329 Y78.857 E0.13642
G1 X147.329 Y81.146 E0.13583
G1 X147.088 Y83.433 E0.13642
G1 X146.612 Y85.672 E0.13580
G1 X145.902 Y87.860 E0.13642
G1 X144.971 Y89.951 E0.13582
G1 X143.821 Y91.943 E0.13642
G1 X142.475 Y93.795 E0.13582
G1 X140.936 Y95.504 E0.13642
G1 X139.235 Y97.036 E0.13581
G1 X137.293 Y98.446 E0.14237
G1 X98.846 Y125.845 E2.80066
G1 X97.785 Y126.530 E0.07489
G1 X97.177 Y126.881 E0.04168
G1 X94.076 Y128.541 E0.20863
G1 X93.446 Y128.853 E0.04171
G1 X92.282 Y129.358 E0.07527
G1 X88.995 Y130.608 E0.20863
G1 X87.788 Y131.004 E0.07532
G1 X87.111 Y131.189 E0.04165
G1 X83.691 Y132.008 E0.20863
G1 X82.442 Y132.247 E0.07540
G1 X81.748 Y132.344 E0.04159
G1 X78.251 Y132.719 E0.20863
G1 X77.551 Y132.771 E0.04164
G1 X76.282 Y132.803 E0.07533
G1 X72.766 Y132.728 E0.20863
G1 X72.064 Y132.690 E0.04166
G1 X70.801 Y132.560 E0.07534
G1 X67.323 Y132.035 E0.20863
G1 X66.078 Y131.788 E0.07531
G1 X65.397 Y131.617 E0.04165
G1 X62.015 Y130.653 E0.20863
G1 X60.811 Y130.248 E0.07534
G1 X60.158 Y129.992 E0.04164
G1 X56.927 Y128.603 E0.20863
G1 X55.785 Y128.047 E0.07535
G1 X55.169 Y127.710 E0.04163
G1 X52.143 Y125.919 E0.20863
G1 X51.081 Y125.222 E0.07534
G1 X50.514 Y124.808 E0.04164
G1 X47.741 Y122.645 E0.20863
G1 X46.777 Y121.819 E0.07530
G1 X46.267 Y121.335 E0.04168
G1 X43.794 Y118.835 E0.20863
G1 X42.944 Y117.892 E0.07533
G1 X42.500 Y117.348 E0.04165
G1 X40.367 Y114.552 E0.20863
G1 X39.644 Y113.508 E0.07533
G1 X39.273 Y112.911 E0.04165
G1 X37.515 Y109.866 E0.20863
G1 X36.932 Y108.738 E0.07530
G1 X36.641 Y108.098 E0.04169
G1 X35.286 Y104.853 E0.20863
G1 X35.037 Y104.197 E0.04162
G1 X34.645 Y102.989 E0.07533
G1 X33.717 Y99.597 E0.20863
G1 X33.553 Y98.913 E0.04170
G1 X33.319 Y97.666 E0.07527
G1 X32.832 Y94.183 E0.20863
G1 X32.757 Y93.485 E0.04163
G1 X32.685 Y92.217 E0.07536
G1 X32.647 Y88.700 E0.20863
G1 X32.662 Y87.997 E0.04173
G1 X32.753 Y86.732 E0.07524
G1 X33.165 Y83.239 E0.20863
G1 X33.269 Y82.546 E0.04161
G1 X33.521 Y81.300 E0.07539
G1 X34.377 Y77.889 E0.20863
G1 X34.569 Y77.214 E0.04162
G1 X34.978 Y76.011 E0.07535
G1 X36.263 Y72.737 E0.20863
G1 X36.780 Y71.580 E0.07524
G1 X37.099 Y70.952 E0.04173
G1 X38.792 Y67.870 E0.20863
G1 X39.454 Y66.786 E0.07531
G1 X39.850 Y66.206 E0.04167
G1 X41.923 Y63.365 E0.20864
G1 X42.718 Y62.376 E0.07525
G1 X43.185 Y61.851 E0.04170
G1 X45.604 Y59.298 E0.20863
G1 X46.104 Y58.804 E0.04166
G1 X47.004 Y57.997 E0.07176
G1 X47.350 Y58.326 F7800.000
G1 F2160.000
G1 X50.076 Y56.104 E0.20863
G1 X50.610 Y55.696 E0.03988
G1 X51.631 Y54.994 E0.07348
G1 X54.619 Y53.139 E0.20863
G1 X55.700 Y52.536 E0.07346
G1 X56.303 Y52.237 E0.03990
G1 X59.504 Y50.780 E0.20863
G1 X60.654 Y50.319 E0.07350
G1 X61.289 Y50.101 E0.03986
G1 X64.650 Y49.064 E0.20863
G1 X65.850 Y48.755 E0.07351
G1 X66.508 Y48.619 E0.03985
G1 X69.974 Y48.021 E0.20864
G1 X71.203 Y47.867 E0.07352
G1 X71.873 Y47.817 E0.03984
G1 X75.387 Y47.667 E0.20863
G1 X76.058 Y47.660 E0.03982
G1 X77.297 Y47.707 E0.07354
G1 X80.801 Y48.008 E0.20863
G1 X81.468 Y48.087 E0.03986
G1 X82.690 Y48.293 E0.07352
G1 X86.238 Y49.063 E0.21537
G1 X131.170 Y59.327 E2.73409
G1 X133.097 Y59.970 E0.12055
G1 X135.198 Y60.905 E0.13642
G1 X137.095 Y62.000 E0.12992
G1 X138.955 Y63.352 E0.13642
G1 X140.583 Y64.817 E0.12991
G1 X142.122 Y66.526 E0.13642
G1 X143.409 Y68.298 E0.12992
G1 X144.559 Y70.290 E0.13642
G1 X145.449 Y72.290 E0.12992
G1 X146.160 Y74.477 E0.13642
G1 X146.615 Y76.619 E0.12990
G1 X146.856 Y78.906 E0.13642
G1 X146.856 Y81.097 E0.12993
G1 X146.615 Y83.384 E0.13642
G1 X146.160 Y85.525 E0.12990
G1 X145.449 Y87.713 E0.13642
G1 X144.559 Y89.713 E0.12992
G1 X143.409 Y91.705 E0.13642
G1 X142.122 Y93.477 E0.12992
G1 X140.583 Y95.186 E0.13642
G1 X138.955 Y96.651 E0.12991
G1 X137.017 Y98.059 E0.14211
G1 X98.570 Y125.458 E2.80066
G1 X97.534 Y126.126 E0.07310
G1 X96.952 Y126.462 E0.03987
G1 X93.851 Y128.122 E0.20863
G1 X93.249 Y128.420 E0.03990
G1 X92.113 Y128.914 E0.07346
G1 X88.826 Y130.163 E0.20863
G1 X87.648 Y130.549 E0.07352
G1 X87.000 Y130.727 E0.03984
G1 X83.580 Y131.546 E0.20863
G1 X82.361 Y131.778 E0.07358
G1 X81.697 Y131.871 E0.03978
G1 X78.200 Y132.246 E0.20863
G1 X77.531 Y132.296 E0.03983
G1 X76.292 Y132.328 E0.07352
G1 X72.776 Y132.252 E0.20863
G1 X72.105 Y132.217 E0.03985
G1 X70.872 Y132.089 E0.07353
G1 X67.394 Y131.565 E0.20863
G1 X66.179 Y131.323 E0.07350
G1 X65.528 Y131.160 E0.03984
G1 X62.146 Y130.195 E0.20863
G1 X60.971 Y129.800 E0.07353
G1 X60.346 Y129.555 E0.03983
G1 X57.115 Y128.166 E0.20863
G1 X56.000 Y127.623 E0.07354
G1 X55.412 Y127.300 E0.03982
G1 X52.385 Y125.509 E0.20863
G1 X51.349 Y124.829 E0.07353
G1 X50.806 Y124.433 E0.03983
G1 X48.033 Y122.270 E0.20863
G1 X47.093 Y121.463 E0.07349
G1 X46.605 Y121.001 E0.03987
G1 X44.132 Y118.501 E0.20863
G1 X43.302 Y117.580 E0.07352
G1 X42.878 Y117.059 E0.03984
G1 X40.745 Y114.263 E0.20863
G1 X40.040 Y113.244 E0.07352
G1 X39.685 Y112.673 E0.03984
G1 X37.927 Y109.628 E0.20863
G1 X37.358 Y108.527 E0.07350
G1 X37.080 Y107.915 E0.03988
G1 X35.725 Y104.670 E0.20863
G1 X35.487 Y104.042 E0.03982
G1 X35.104 Y102.863 E0.07352
G1 X34.175 Y99.471 E0.20863
G1 X34.019 Y98.817 E0.03989
G1 X33.790 Y97.600 E0.07347
G1 X33.303 Y94.117 E0.20863
G1 X33.232 Y93.450 E0.03982
G1 X33.160 Y92.212 E0.07355
G1 X33.123 Y88.695 E0.20863
G1 X33.137 Y88.022 E0.03991
G1 X33.225 Y86.788 E0.07344
G1 X33.637 Y83.295 E0.20863
G1 X33.737 Y82.631 E0.03980
G1 X33.982 Y81.416 E0.07358
G1 X34.838 Y78.004 E0.20863
G1 X35.022 Y77.359 E0.03981
G1 X35.421 Y76.185 E0.07355
G1 X36.706 Y72.911 E0.20863
G1 X37.211 Y71.781 E0.07343
G1 X37.516 Y71.181 E0.03992
G1 X39.209 Y68.099 E0.20863
G1 X39.856 Y67.042 E0.07351
G1 X40.234 Y66.486 E0.03986
G1 X42.307 Y63.646 E0.20864
G1 X43.083 Y62.681 E0.07345
G1 X43.530 Y62.178 E0.03989
G1 X45.949 Y59.626 E0.20863
G1 X46.427 Y59.153 E0.03985
G1 X47.305 Y58.365 E0.06996
G1 F6240.000
G1 X49.051 Y56.941 E-1.23500
G1 E-0.06500 F3600.00000
G1 X66.161 Y113.026 F7800.000
G1 E1.30000 F3600.00000
G1 F1620.000
G1 X68.041 Y104.181 E0.53639
G1 X68.181 Y104.211 E0.00851
G1 X68.328 Y103.708 E0.03110
G1 X69.615 Y101.759 E0.13855
G1 X71.419 Y100.275 E0.13855
G1 X73.580 Y99.390 E0.13854
G1 X75.906 Y99.180 E0.13854
G1 X78.191 Y99.666 E0.13855
G1 X80.230 Y100.803 E0.13854
G1 X81.844 Y102.491 E0.13854
G1 X82.889 Y104.580 E0.13855
G1 X83.272 Y106.884 E0.13855
G1 X82.958 Y109.199 E0.13854
G1 X81.976 Y111.318 E0.13854
G1 X80.414 Y113.053 E0.13855
G1 X78.409 Y114.251 E0.13855
G1 X76.140 Y114.805 E0.13855
G1 X73.901 Y114.671 E0.13305
G1 X66.220 Y113.038 E0.46584
G1 X66.725 Y112.659 F7800.000
G1 F1620.000
G1 X68.407 Y104.745 E0.47997
G1 X68.514 Y104.768 E0.00648
G1 X68.765 Y103.910 E0.05301
G1 X69.972 Y102.081 E0.13004
G1 X71.666 Y100.688 E0.13005
G1 X73.694 Y99.857 E0.13004
G1 X75.877 Y99.661 E0.13004
G1 X78.021 Y100.116 E0.13004
G1 X79.936 Y101.184 E0.13004
G1 X81.451 Y102.768 E0.13004
G1 X82.432 Y104.729 E0.13004
G1 X82.791 Y106.891 E0.13004
G1 X82.496 Y109.064 E0.13004
G1 X81.575 Y111.053 E0.13004
G1 X80.108 Y112.682 E0.13004
G1 X78.226 Y113.806 E0.13004
G1 X76.097 Y114.326 E0.13004
G1 X73.965 Y114.198 E0.12669
G1 X66.784 Y112.672 E0.43551
G1 X67.289 Y112.293 F7800.000
G1 F1458.000
G1 X68.774 Y105.309 E0.42355
G1 X68.847 Y105.325 E0.00444
G1 X69.201 Y104.112 E0.07493
G1 X70.330 Y102.402 E0.12154
G1 X71.912 Y101.101 E0.12154
G1 X73.808 Y100.324 E0.12153
G1 X75.848 Y100.141 E0.12153
G1 X77.852 Y100.567 E0.12154
G1 X79.642 Y101.564 E0.12153
G1 X81.058 Y103.045 E0.12153
G1 X81.974 Y104.878 E0.12154
G1 X82.310 Y106.899 E0.12154
G1 X82.035 Y108.929 E0.12153
G1 X81.174 Y110.788 E0.12154
G1 X79.803 Y112.310 E0.12154
G1 X78.044 Y113.361 E0.12154
G1 X76.054 Y113.847 E0.12154
G1 X74.029 Y113.726 E0.12032
G1 X67.348 Y112.305 E0.40518
G1 X66.897 Y112.214 F7800.000
G1 F6240.000
G1 X67.798 Y110.097 E-1.23500
G1 E-0.06500 F3600.00000
G1 X73.935 Y93.630 F7800.000
G1 E1.30000 F3600.00000
G1 F1080.000
G1 X73.256 Y93.267 E0.04567
G1 X72.661 Y92.778 E0.04567
G1 X72.172 Y92.183 E0.04567
G1 X71.809 Y91.504 E0.04567
G1 X71.586 Y90.767 E0.04567
G1 X71.510 Y90.001 E0.04567
G1 X71.586 Y89.235 E0.04567
G1 X71.809 Y88.499 E0.04567
G1 X72.172 Y87.820 E0.04567
G1 X72.661 Y87.224 E0.04567
G1 X73.256 Y86.736 E0.04567
G1 X73.935 Y86.373 E0.04567
G1 X74.671 Y86.150 E0.04567
G1 X75.437 Y86.074 E0.04567
G1 X76.204 Y86.150 E0.04567
G1 X76.940 Y86.373 E0.04567
G1 X77.619 Y86.736 E0.04567
G1 X78.214 Y87.224 E0.04567
G1 X78.703 Y87.820 E0.04567
G1 X79.066 Y88.499 E0.04567
G1 X79.289 Y89.235 E0.04567
G1 X79.365 Y90.001 E0.04567
G1 X79.289 Y90.767 E0.04567
G1 X79.066 Y91.504 E0.04567
G1 X78.703 Y92.183 E0.04567
G1 X78.214 Y92.778 E0.04567
G1 X77.619 Y93.267 E0.04567
G1 X76.940 Y93.630 E0.04567
G1 X76.204 Y93.853 E0.04567
G1 X75.437 Y93.929 E0.04567
G1 X74.671 Y93.853 E0.04567
G1 X73.992 Y93.647 E0.04211
G1 X74.118 Y93.188 F7800.000
G1 F1080.000
G1 X73.521 Y92.869 E0.04011
G1 X72.998 Y92.440 E0.04012
G1 X72.569 Y91.918 E0.04012
G1 X72.251 Y91.321 E0.04011
G1 X72.055 Y90.674 E0.04011
G1 X71.988 Y90.001 E0.04011
G1 X72.055 Y89.329 E0.04011
G1 X72.251 Y88.681 E0.04011
G1 X72.569 Y88.085 E0.04011
G1 X72.998 Y87.562 E0.04011
G1 X73.521 Y87.133 E0.04011
G1 X74.118 Y86.815 E0.04011
G1 X74.765 Y86.618 E0.04011
G1 X75.437 Y86.552 E0.04011
G1 X76.110 Y86.618 E0.04011
G1 X76.757 Y86.815 E0.04011
G1 X77.354 Y87.133 E0.04011
G1 X77.876 Y87.562 E0.04011
G1 X78.305 Y88.085 E0.04011
G1 X78.624 Y88.681 E0.04011
G1 X78.820 Y89.329 E0.04011
G1 X78.887 Y90.001 E0.04011
G1 X78.820 Y90.674 E0.04011
G1 X78.624 Y91.321 E0.04011
G1 X78.305 Y91.918 E0.04011
G1 X77.876 Y92.440 E0.04012
G1 X77.354 Y92.869 E0.04012
G1 X76.757 Y93.188 E0.04011
G1 X76.110 Y93.384 E0.04011
G1 X75.437 Y93.451 E0.04011
G1 X74.765 Y93.384 E0.04011
G1 X74.175 Y93.206 E0.03655
G1 X74.300 Y92.747 F7800.000
G1 F1080.000
G1 X73.787 Y92.472 E0.03455
G1 X73.336 Y92.102 E0.03456
G1 X72.967 Y91.652 E0.03456
G1 X72.692 Y91.138 E0.03455
G1 X72.523 Y90.581 E0.03455
G1 X72.466 Y90.001 E0.03455
G1 X72.523 Y89.422 E0.03455
G1 X72.692 Y88.864 E0.03455
G1 X72.967 Y88.351 E0.03455
G1 X73.336 Y87.900 E0.03456
G1 X73.787 Y87.531 E0.03456
G1 X74.300 Y87.256 E0.03455
G1 X74.858 Y87.087 E0.03455
G1 X75.437 Y87.030 E0.03455
G1 X76.017 Y87.087 E0.03455
G1 X76.574 Y87.256 E0.03455
G1 X77.088 Y87.531 E0.03455
G1 X77.538 Y87.900 E0.03456
G1 X77.908 Y88.351 E0.03456
G1 X78.183 Y88.864 E0.03455
G1 X78.352 Y89.422 E0.03455
G1 X78.409 Y90.001 E0.03455
G1 X78.352 Y90.581 E0.03455
G1 X78.183 Y91.138 E0.03455
G1 X77.908 Y91.652 E0.03455
G1 X77.538 Y92.102 E0.03456
G1 X77.088 Y92.472 E0.03456
G1 X76.574 Y92.747 E0.03455
G1 X76.017 Y92.916 E0.03455
G1 X75.437 Y92.973 E0.03455
G1 X74.858 Y92.916 E0.03455
G1 X74.358 Y92.764 E0.03099
G1 X74.300 Y92.747 F7800.000
G1 F6240.000
G1 X74.300 Y92.747 E-0.03288
G1 F6240.000
G1 X73.787 Y92.472 E-0.31925
G1 F6240.000
G1 X73.336 Y92.102 E-0.31928
G1 F6240.000
G1 X72.967 Y91.652 E-0.31927
G1 F6240.000
G1 X72.757 Y91.259 E-0.24432
G1 E-0.06500 F3600.00000
G1 X90.739 Y109.547 F7800.000
G1 E1.30000 F3600.00000
G1 F1620.000
G1 X84.019 Y103.497 E0.53641
G1 X84.115 Y103.390 E0.00851
G1 X83.753 Y103.011 E0.03107
G1 X82.708 Y100.923 E0.13855
G1 X82.326 Y98.619 E0.13855
G1 X82.639 Y96.304 E0.13854
G1 X83.621 Y94.185 E0.13854
G1 X85.184 Y92.449 E0.13855
G1 X87.189 Y91.252 E0.13854
G1 X89.458 Y90.698 E0.13855
G1 X91.789 Y90.838 E0.13854
G1 X93.976 Y91.658 E0.13855
G1 X95.823 Y93.087 E0.13855
G1 X97.167 Y94.997 E0.13854
G1 X97.889 Y97.218 E0.13855
G1 X97.924 Y99.553 E0.13854
G1 X97.269 Y101.795 E0.13855
G1 X96.033 Y103.667 E0.13306
G1 X90.779 Y109.503 E0.46584
G1 X90.704 Y108.875 F7800.000
G1 F1620.000
G1 X84.691 Y103.461 E0.47998
G1 X84.764 Y103.380 E0.00648
G1 X84.146 Y102.735 E0.05299
G1 X83.166 Y100.774 E0.13004
G1 X82.807 Y98.611 E0.13004
G1 X83.101 Y96.439 E0.13004
G1 X84.022 Y94.450 E0.13004
G1 X85.489 Y92.821 E0.13005
G1 X87.371 Y91.697 E0.13004
G1 X89.501 Y91.177 E0.13004
G1 X91.689 Y91.308 E0.13004
G1 X93.741 Y92.078 E0.13005
G1 X95.475 Y93.419 E0.13004
G1 X96.737 Y95.212 E0.13004
G1 X97.415 Y97.297 E0.13004
G1 X97.447 Y99.489 E0.13004
G1 X96.833 Y101.593 E0.13005
G1 X95.656 Y103.375 E0.12669
G1 X90.744 Y108.831 E0.43551
G1 X90.668 Y108.204 F7800.000
G1 F1458.000
G1 X85.362 Y103.426 E0.42355
G1 X85.412 Y103.371 E0.00444
G1 X84.540 Y102.458 E0.07492
G1 X83.623 Y100.625 E0.12154
G1 X83.288 Y98.604 E0.12154
G1 X83.563 Y96.574 E0.12153
G1 X84.424 Y94.715 E0.12153
G1 X85.795 Y93.192 E0.12154
G1 X87.553 Y92.142 E0.12153
G1 X89.544 Y91.656 E0.12154
G1 X91.589 Y91.779 E0.12153
G1 X93.507 Y92.498 E0.12154
G1 X95.128 Y93.752 E0.12154
G1 X96.307 Y95.427 E0.12153
G1 X96.940 Y97.375 E0.12154
G1 X96.971 Y99.424 E0.12153
G1 X96.396 Y101.391 E0.12154
G1 X95.279 Y103.083 E0.12032
G1 X90.708 Y108.159 E0.40518
G1 X90.404 Y108.504 F7800.000
G1 F6240.000
G1 X89.021 Y106.665 E-1.23500
G1 E-0.06500 F3600.00000
G1 X100.015 Y86.523 F7800.000
G1 E1.30000 F3600.00000
G1 F1620.000
G1 X91.415 Y89.317 E0.53644
G1 X91.371 Y89.181 E0.00851
G1 X90.862 Y89.305 E0.03104
G1 X88.531 Y89.165 E0.13855
G1 X86.344 Y88.345 E0.13855
G1 X84.497 Y86.916 E0.13854
G1 X83.152 Y85.006 E0.13855
G1 X82.431 Y82.785 E0.13855
G1 X82.396 Y80.450 E0.13855
G1 X83.051 Y78.208 E0.13855
G1 X84.337 Y76.259 E0.13855
G1 X86.141 Y74.775 E0.13855
G1 X88.302 Y73.890 E0.13855
G1 X90.628 Y73.680 E0.13854
G1 X92.913 Y74.166 E0.13855
G1 X94.953 Y75.303 E0.13855
G1 X96.567 Y76.991 E0.13855
G1 X97.570 Y78.997 E0.13306
G1 X99.997 Y86.466 E0.46584
G1 X99.416 Y86.218 F7800.000
G1 F1620.000
G1 X91.720 Y88.718 E0.48000
G1 X91.687 Y88.614 E0.00648
G1 X90.819 Y88.826 E0.05297
G1 X88.631 Y88.695 E0.13005
G1 X86.579 Y87.924 E0.13004
G1 X84.844 Y86.584 E0.13004
G1 X83.583 Y84.791 E0.13004
G1 X82.905 Y82.706 E0.13004
G1 X82.872 Y80.514 E0.13004
G1 X83.487 Y78.410 E0.13004
G1 X84.695 Y76.581 E0.13004
G1 X86.388 Y75.188 E0.13004
G1 X88.416 Y74.357 E0.13004
G1 X90.600 Y74.161 E0.13004
G1 X92.744 Y74.616 E0.13004
G1 X94.659 Y75.684 E0.13004
G1 X96.173 Y77.268 E0.13004
G1 X97.129 Y79.178 E0.12669
G1 X99.397 Y86.161 E0.43551
G1 X98.817 Y85.912 F7800.000
G1 F1458.000
G1 X92.026 Y88.119 E0.42357
G1 X92.003 Y88.047 E0.00444
G1 X90.776 Y88.347 E0.07491
G1 X88.731 Y88.224 E0.12154
G1 X86.813 Y87.504 E0.12154
G1 X85.192 Y86.251 E0.12153
G1 X84.013 Y84.576 E0.12154
G1 X83.380 Y82.627 E0.12154
G1 X83.349 Y80.579 E0.12154
G1 X83.924 Y78.612 E0.12154
G1 X85.052 Y76.902 E0.12153
