; generated by Slic3r 1.3.1-dev (Build 2d100c4) on 2020-05-15 at 06:23:50

; external perimeters extrusion width = 0.44mm (3.91mm^3/s)
; perimeters extrusion width = 0.56mm (5.65mm^3/s)
; infill extrusion width = 0.50mm (5.02mm^3/s)
; solid infill extrusion width = 0.56mm (5.65mm^3/s)
; top infill extrusion width = 0.56mm (5.65mm^3/s)

M107
M190 S60 ; set bed temperature and wait for it to be reached
M104 S215 ; set temperature
G28 ; home all axes
G92 E0.0 ; reset extruder
; Filament gcode

M109 S215 ; set temperature and wait for it to be reached
G21 ; set units to millimeters
G90 ; use absolute coordinates
M83 ; use relative distances for extrusion
G1 E-1.30000 F3600.00000
G1 Z0.300 F7800.000
G1 X60.756 Y57.006 F7800.000
G1 E1.30000 F3600.00000
M201 X500 Y500
M204 P500 T500
G1 F2160.000
G1 X70.756 Y47.006 E0.83894
G1 X73.107 Y45.219 E0.17519
G1 X75.850 Y44.124 E0.17519
G1 X78.500 Y43.799 E0.15840
G1 X101.500 Y43.799 E1.36440
G1 X104.426 Y44.197 E0.17519
G1 X107.140 Y45.363 E0.17519
G1 X109.244 Y47.006 E0.15840
G1 X119.244 Y57.006 E0.83894
G1 X121.031 Y59.357 E0.17519
G1 X122.227 Y62.546 E0.20203
G1 X129.727 Y99.046 E2.21049
G1 X129.951 Y101.250 E0.13143
G1 X129.951 Y118.750 E1.03813
G1 X129.553 Y121.676 E0.17519
G1 X128.387 Y124.390 E0.17519
G1 X126.744 Y126.494 E0.15840
G1 X120.244 Y132.994 E0.54531
G1 X117.893 Y134.781 E0.17519
G1 X115.150 Y135.876 E0.17519
G1 X112.500 Y136.201 E0.15840
G1 X67.500 Y136.201 E2.66948
G1 X64.574 Y135.803 E0.17519
G1 X61.860 Y134.637 E0.17519
G1 X59.756 Y132.994 E0.15840
G1 X53.256 Y126.494 E0.54531
G1 X51.469 Y124.143 E0.17519
G1 X50.374 Y121.400 E0.17519
G1 X50.049 Y118.750 E0.15840
G1 X50.049 Y101.250 E1.03813
G1 X50.273 Y99.046 E0.13143
G1 X57.773 Y62.546 E2.21049
G1 X58.752 Y59.760 E0.17519
G1 X60.721 Y57.055 E0.19847
G1 X61.093 Y57.343 F7800.000
G1 F2160.000
G1 X71.093 Y47.343 E0.83894
G1 X73.397 Y45.601 E0.17132
G1 X76.089 Y44.556 E0.17132
G1 X78.500 Y44.274 E0.14401
G1 X101.500 Y44.274 E1.36440
G1 X104.360 Y44.672 E0.17132
G1 X107.003 Y45.836 E0.17132
G1 X108.907 Y47.343 E0.14401
G1 X118.907 Y57.343 E0.83894
G1 X120.649 Y59.647 E0.17132
G1 X121.761 Y62.642 E0.18952
G1 X129.261 Y99.142 E2.21049
G1 X129.476 Y101.250 E0.12572
G1 X129.476 Y118.750 E1.03813
G1 X129.078 Y121.610 E0.17132
G1 X127.914 Y124.253 E0.17132
G1 X126.407 Y126.157 E0.14401
G1 X119.907 Y132.657 E0.54531
G1 X117.603 Y134.399 E0.17132
G1 X114.911 Y135.444 E0.17132
G1 X112.500 Y135.726 E0.14401
G1 X67.500 Y135.726 E2.66948
G1 X64.640 Y135.328 E0.17132
G1 X61.997 Y134.164 E0.17132
G1 X60.093 Y132.657 E0.14401
G1 X53.593 Y126.157 E0.54531
G1 X51.851 Y123.853 E0.17132
G1 X50.806 Y121.161 E0.17132
G1 X50.524 Y118.750 E0.14401
G1 X50.524 Y101.250 E1.03813
G1 X50.739 Y99.142 E0.12572
G1 X58.239 Y62.642 E2.21049
G1 X59.204 Y59.920 E0.17132
G1 X61.057 Y57.391 E0.18596
G1 F6240.000
G1 X62.649 Y55.797 E-1.23500
G1 E-0.06500 F3600.00000
G1 X111.246 Y108.545 F7800.000
G1 E1.30000 F3600.00000
G1 F1080.000
G1 X111.246 Y117.955 E0.55820
G1 X105.754 Y117.955 E0.32575
G1 X105.754 Y108.545 E0.55820
G1 X111.186 Y108.545 E0.32219
G1 X110.770 Y109.021 F7800.000
G1 F1080.000
G1 X110.770 Y117.479 E0.50177
G1 X106.230 Y117.479 E0.26932
G1 X106.230 Y109.021 E0.50177
G1 X110.710 Y109.021 E0.26576
G1 X111.144 Y108.880 F7800.000
G1 F6240.000
G1 X110.726 Y111.274 E-1.23500
G1 E-0.06500 F3600.00000
G1 X99.246 Y108.545 F7800.000
G1 E1.30000 F3600.00000
G1 F1080.000
G1 X99.246 Y117.955 E0.55820
G1 X93.754 Y117.955 E0.32575
G1 X93.754 Y108.545 E0.55820
G1 X99.186 Y108.545 E0.32219
G1 X98.770 Y109.021 F7800.000
G1 F1080.000
G1 X98.770 Y117.479 E0.50177
G1 X94.230 Y117.479 E0.26932
G1 X94.230 Y109.021 E0.50177
G1 X98.710 Y109.021 E0.26576
G1 X99.144 Y108.880 F7800.000
G1 F6240.000
G1 X98.726 Y111.274 E-1.23500
G1 E-0.06500 F3600.00000
G1 X86.246 Y108.545 F7800.000
G1 E1.30000 F3600.00000
G1 F1080.000
G1 X86.246 Y117.955 E0.55820
G1 X80.754 Y117.955 E0.32575
G1 X80.754 Y108.545 E0.55820
G1 X86.186 Y108.545 E0.32219
G1 X85.770 Y109.021 F7800.000
G1 F1080.000
G1 X85.770 Y117.479 E0.50177
G1 X81.230 Y117.479 E0.26932
G1 X81.230 Y109.021 E0.50177
G1 X85.710 Y109.021 E0.26576
G1 X86.144 Y108.880 F7800.000
G1 F6240.000
G1 X85.726 Y111.274 E-1.23500
G1 E-0.06500 F3600.00000
G1 X74.246 Y108.545 F7800.000
G1 E1.30000 F3600.00000
G1 F1080.000
G1 X74.246 Y117.955 E0.55820
G1 X68.754 Y117.955 E0.32575
G1 X68.754 Y108.545 E0.55820
G1 X74.186 Y108.545 E0.32219
G1 X73.770 Y109.021 F7800.000
G1 F1080.000
G1 X73.770 Y117.479 E0.50177
G1 X69.230 Y117.479 E0.26932
G1 X69.230 Y109.021 E0.50177
G1 X73.710 Y109.021 E0.26576
G1 X74.144 Y108.880 F7800.000
G1 F6240.000
G1 X73.726 Y111.274 E-1.23500
G1 E-0.06500 F3600.00000
G1 X75.000 Y92.849 F7800.000
G1 E1.30000 F3600.00000
G1 F1080.000
G1 X74.493 Y92.799 E0.03022
G1 X74.005 Y92.651 E0.03024
G1 X73.556 Y92.411 E0.03023
G1 X73.162 Y92.088 E0.03022
G1 X72.839 Y91.694 E0.03022
G1 X72.599 Y91.245 E0.03023
G1 X72.451 Y90.757 E0.03024
G1 X72.401 Y90.250 E0.03022
G1 X72.451 Y89.743 E0.03022
G1 X72.599 Y89.255 E0.03024
G1 X72.839 Y88.806 E0.03023
G1 X73.162 Y88.412 E0.03022
G1 X73.556 Y88.089 E0.03022
G1 X74.005 Y87.849 E0.03023
G1 X74.493 Y87.701 E0.03024
G1 X75.000 Y87.651 E0.03022
G1 X75.507 Y87.701 E0.03022
G1 X75.995 Y87.849 E0.03024
G1 X76.444 Y88.089 E0.03023
G1 X76.838 Y88.412 E0.03022
G1 X77.161 Y88.806 E0.03022
G1 X77.401 Y89.255 E0.03023
G1 X77.549 Y89.743 E0.03024
G1 X77.599 Y90.250 E0.03022
G1 X77.549 Y90.757 E0.03022
G1 X77.401 Y91.245 E0.03024
G1 X77.161 Y91.694 E0.03023
G1 X76.838 Y92.088 E0.03022
G1 X76.444 Y92.411 E0.03022
G1 X75.995 Y92.651 E0.03023
G1 X75.507 Y92.799 E0.03024
G1 X75.060 Y92.843 E0.02666
G1 X75.000 Y92.371 F7800.000
G1 F1080.000
G1 X74.586 Y92.331 E0.02467
G1 X74.188 Y92.210 E0.02467
G1 X73.821 Y92.014 E0.02467
G1 X73.500 Y91.750 E0.02467
G1 X73.236 Y91.429 E0.02467
G1 X73.040 Y91.062 E0.02467
G1 X72.919 Y90.664 E0.02467
G1 X72.879 Y90.250 E0.02467
G1 X72.919 Y89.836 E0.02467
G1 X73.040 Y89.438 E0.02467
G1 X73.236 Y89.071 E0.02467
G1 X73.500 Y88.750 E0.02467
G1 X73.821 Y88.486 E0.02467
G1 X74.188 Y88.290 E0.02467
G1 X74.586 Y88.169 E0.02467
G1 X75.000 Y88.129 E0.02467
G1 X75.414 Y88.169 E0.02467
G1 X75.812 Y88.290 E0.02467
G1 X76.179 Y88.486 E0.02467
G1 X76.500 Y88.750 E0.02467
G1 X76.764 Y89.071 E0.02467
G1 X76.960 Y89.438 E0.02467
G1 X77.081 Y89.836 E0.02467
G1 X77.121 Y90.250 E0.02467
G1 X77.081 Y90.664 E0.02467
G1 X76.960 Y91.062 E0.02467
G1 X76.764 Y91.429 E0.02467
G1 X76.500 Y91.750 E0.02467
G1 X76.179 Y92.014 E0.02467
G1 X75.812 Y92.210 E0.02467
G1 X75.414 Y92.331 E0.02467
G1 X75.060 Y92.365 E0.02111
G1 X75.000 Y92.371 F7800.000
G1 F6240.000
G1 X75.000 Y92.371 E-0.03288
G1 F6240.000
G1 X74.586 Y92.331 E-0.22790
G1 F6240.000
G1 X74.188 Y92.210 E-0.22797
G1 F6240.000
G1 X73.821 Y92.014 E-0.22792
G1 F6240.000
G1 X73.500 Y91.750 E-0.22789
G1 F6240.000
G1 X73.236 Y91.429 E-0.22788
G1 F6240.000
G1 X73.182 Y91.328 E-0.06256
G1 E-0.06500 F3600.00000
G1 X81.254 Y72.955 F7800.000
G1 E1.30000 F3600.00000
G1 F1080.000
G1 X81.254 Y63.545 E0.55820
G1 X86.746 Y63.545 E0.32575
G1 X86.746 Y72.955 E0.55820
G1 X81.314 Y72.955 E0.32219
G1 X81.730 Y72.479 F7800.000
G1 F1080.000
G1 X81.730 Y64.021 E0.50177
G1 X86.270 Y64.021 E0.26932
G1 X86.270 Y72.479 E0.50177
G1 X81.790 Y72.479 E0.26576
G1 X81.356 Y72.620 F7800.000
G1 F6240.000
G1 X81.774 Y70.226 E-1.23500
G1 E-0.06500 F3600.00000
G1 X93.254 Y72.955 F7800.000
G1 E1.30000 F3600.00000
G1 F1080.000
G1 X93.254 Y63.545 E0.55820
G1 X98.746 Y63.545 E0.32575
G1 X98.746 Y72.955 E0.55820
G1 X93.314 Y72.955 E0.32219
G1 X93.730 Y72.479 F7800.000
G1 F1080.000
G1 X93.730 Y64.021 E0.50177
G1 X98.270 Y64.021 E0.26932
G1 X98.270 Y72.479 E0.50177
G1 X93.790 Y72.479 E0.26576
G1 X93.356 Y72.620 F7800.000
G1 F6240.000
G1 X93.774 Y70.226 E-1.23500
G1 E-0.06500 F3600.00000
G1 X103.556 Y88.089 F7800.000
G1 E1.30000 F3600.00000
G1 F1080.000
G1 X104.005 Y87.849 E0.03023
G1 X104.493 Y87.701 E0.03023
G1 X105.000 Y87.651 E0.03023
G1 X105.507 Y87.701 E0.03023
G1 X105.995 Y87.849 E0.03023
G1 X106.444 Y88.089 E0.03023
G1 X106.838 Y88.412 E0.03022
G1 X107.161 Y88.806 E0.03022
G1 X107.401 Y89.255 E0.03023
G1 X107.549 Y89.743 E0.03023
G1 X107.599 Y90.250 E0.03022
G1 X107.549 Y90.757 E0.03023
G1 X107.401 Y91.245 E0.03023
G1 X107.161 Y91.694 E0.03023
G1 X106.838 Y92.088 E0.03022
G1 X106.444 Y92.411 E0.03022
G1 X105.995 Y92.651 E0.03023
G1 X105.507 Y92.799 E0.03023
G1 X105.000 Y92.849 E0.03023
G1 X104.493 Y92.799 E0.03023
G1 X104.005 Y92.651 E0.03023
G1 X103.556 Y92.411 E0.03023
G1 X103.162 Y92.088 E0.03022
G1 X102.839 Y91.694 E0.03022
G1 X102.599 Y91.245 E0.03023
G1 X102.451 Y90.757 E0.03023
G1 X102.401 Y90.250 E0.03022
G1 X102.451 Y89.743 E0.03022
G1 X102.599 Y89.255 E0.03023
G1 X102.839 Y88.806 E0.03023
G1 X103.162 Y88.412 E0.03022
G1 X103.510 Y88.127 E0.02667
G1 X103.821 Y88.486 F7800.000
G1 F1080.000
G1 X104.188 Y88.290 E0.02467
G1 X104.586 Y88.169 E0.02467
G1 X105.000 Y88.129 E0.02467
G1 X105.414 Y88.169 E0.02467
G1 X105.812 Y88.290 E0.02467
G1 X106.179 Y88.486 E0.02467
G1 X106.500 Y88.750 E0.02467
G1 X106.764 Y89.071 E0.02467
G1 X106.960 Y89.438 E0.02467
G1 X107.081 Y89.836 E0.02467
G1 X107.121 Y90.250 E0.02467
G1 X107.081 Y90.664 E0.02467
G1 X106.960 Y91.062 E0.02467
G1 X106.764 Y91.429 E0.02467
G1 X106.500 Y91.750 E0.02467
G1 X106.179 Y92.014 E0.02467
G1 X105.812 Y92.210 E0.02467
G1 X105.414 Y92.331 E0.02467
G1 X105.000 Y92.371 E0.02467
G1 X104.586 Y92.331 E0.02467
G1 X104.188 Y92.210 E0.02467
G1 X103.821 Y92.014 E0.02467
G1 X103.500 Y91.750 E0.02467
G1 X103.236 Y91.429 E0.02467
G1 X103.040 Y91.062 E0.02467
G1 X102.919 Y90.664 E0.02467
G1 X102.879 Y90.250 E0.02467
G1 X102.919 Y89.836 E0.02467
G1 X103.040 Y89.438 E0.02467
G1 X103.236 Y89.071 E0.02467
G1 X103.500 Y88.750 E0.02467
G1 X103.775 Y88.524 E0.02111
G1 X103.821 Y88.486 F7800.000
G1 F6240.000
G1 X103.821 Y88.486 E-0.03288
G1 F6240.000
G1 X104.188 Y88.290 E-0.22792
G1 F6240.000
G1 X104.586 Y88.169 E-0.22794
G1 F6240.000
G1 X105.000 Y88.129 E-0.22791
G1 F6240.000
G1 X105.414 Y88.169 E-0.22791
G1 F6240.000
G1 X105.812 Y88.290 E-0.22794
G1 F6240.000
G1 X105.912 Y88.344 E-0.06249
G1 E-0.06500 F3600.00000
G1 X110.754 Y88.486 F7800.000
G1 E1.30000 F3600.00000
G1 F1620.000
G1 X110.754 Y89.624 E0.06750
G1 X118.254 Y101.466 E0.83153
G1 X118.254 Y118.441 E1.00698
G1 X112.191 Y124.504 E0.50867
G1 X67.809 Y124.504 E2.63284
G1 X61.746 Y118.441 E0.50867
G1 X61.746 Y101.466 E1.00698
G1 X69.246 Y89.624 E0.83153
G1 X69.246 Y65.059 E1.45726
G1 X78.809 Y55.496 E0.80230
G1 X101.191 Y55.496 E1.32776
G1 X110.754 Y65.059 E0.80230
G1 X110.754 Y88.426 E1.38620
G1 X111.230 Y88.486 F7800.000
G1 F1458.000
G1 X111.230 Y89.486 E0.05932
G1 X118.730 Y101.328 E0.83153
G1 X118.730 Y118.638 E1.02685
G1 X112.388 Y124.980 E0.53204
G1 X67.612 Y124.980 E2.65622
G1 X61.270 Y118.638 E0.53204
G1 X61.270 Y101.328 E1.02685
G1 X68.770 Y89.486 E0.83153
G1 X68.770 Y64.862 E1.46076
G1 X78.612 Y55.020 E0.82567
G1 X101.388 Y55.020 E1.35113
G1 X111.230 Y64.862 E0.82567
G1 X111.230 Y88.426 E1.39788
G1 X110.904 Y88.718 F7800.000
G1 F6240.000
G1 X111.230 Y89.486 E-0.58095
G1 F6240.000
G1 X111.869 Y90.494 E-0.65405
G1 E-0.06500 F3600.00000
G1 X99.671 Y114.122 F7800.000
G1 E1.30000 F3600.00000
G1 F1620.000
G1 X99.671 Y114.796 E0.04002
G1 X105.329 Y109.137 E0.47542
G1 X105.329 Y109.811 E0.04002
G1 X99.671 Y115.469 E0.47542
G1 X99.671 Y116.143 E0.04002
G1 X105.329 Y110.484 E0.47542
G1 X105.329 Y111.158 E0.04002
G1 X99.671 Y116.817 E0.47542
G1 X99.671 Y117.490 E0.04002
G1 X105.329 Y111.832 E0.47542
G1 X105.329 Y112.505 E0.04002
G1 X99.671 Y118.164 E0.47542
G1 F6240.000
G1 X101.264 Y116.570 E-1.23500
G1 E-0.06500 F3600.00000
G1 X105.881 Y124.079 F7800.000
G1 E1.30000 F3600.00000
G1 F1620.000
G1 X111.580 Y118.380 E0.47885
G1 X110.906 Y118.380 E0.04002
G1 X105.207 Y124.079 E0.47885
G1 X104.534 Y124.079 E0.04002
G1 X110.233 Y118.380 E0.47885
G1 X109.559 Y118.380 E0.04002
G1 X103.860 Y124.079 E0.47885
G1 X103.186 Y124.079 E0.04002
G1 X108.886 Y118.380 E0.47885
G1 X108.212 Y118.380 E0.04002
G1 X102.513 Y124.079 E0.47885
G1 X101.839 Y124.079 E0.04002
G1 X107.538 Y118.380 E0.47885
G1 X106.865 Y118.380 E0.04002
G1 X101.165 Y124.079 E0.47885
G1 X100.492 Y124.079 E0.04002
G1 X106.191 Y118.380 E0.47885
G1 X105.517 Y118.380 E0.04002
G1 X99.818 Y124.079 E0.47885
G1 X99.144 Y124.079 E0.04002
G1 X105.329 Y117.894 E0.51964
G1 X105.329 Y117.221 E0.04002
G1 X98.471 Y124.079 E0.57624
G1 X97.797 Y124.079 E0.04002
G1 X105.329 Y116.547 E0.63284
G1 X105.329 Y115.874 E0.04002
G1 X97.124 Y124.079 E0.68944
G1 X96.450 Y124.079 E0.04002
G1 X105.329 Y115.200 E0.74604
G1 X105.329 Y114.526 E0.04002
G1 X95.776 Y124.079 E0.80264
G1 X95.103 Y124.079 E0.04002
G1 X105.329 Y113.853 E0.85923
G1 X105.329 Y113.179 E0.04002
G1 X94.429 Y124.079 E0.91583
G1 X93.755 Y124.079 E0.04002
G1 X99.455 Y118.380 E0.47885
G1 X98.781 Y118.380 E0.04002
G1 X93.082 Y124.079 E0.47885
G1 X92.408 Y124.079 E0.04002
G1 X98.107 Y118.380 E0.47885
G1 X97.434 Y118.380 E0.04002
G1 X91.734 Y124.079 E0.47885
G1 X91.061 Y124.079 E0.04002
G1 X96.760 Y118.380 E0.47885
G1 X96.086 Y118.380 E0.04002
G1 X90.387 Y124.079 E0.47885
G1 X89.714 Y124.079 E0.04002
G1 X95.413 Y118.380 E0.47885
G1 X94.739 Y118.380 E0.04002
G1 X89.040 Y124.079 E0.47885
G1 X88.366 Y124.079 E0.04002
G1 X94.066 Y118.380 E0.47885
G1 X93.392 Y118.380 E0.04002
G1 X87.693 Y124.079 E0.47885
G1 X87.019 Y124.079 E0.04002
G1 X93.329 Y117.769 E0.53018
G1 X93.329 Y117.095 E0.04002
G1 X86.345 Y124.079 E0.58678
G1 X85.672 Y124.079 E0.04002
G1 X93.329 Y116.422 E0.64338
G1 X93.329 Y115.748 E0.04002
G1 X84.998 Y124.079 E0.69998
G1 X84.324 Y124.079 E0.04002
G1 X93.329 Y115.074 E0.75658
G1 X93.329 Y114.401 E0.04002
G1 X83.651 Y124.079 E0.81318
G1 X82.977 Y124.079 E0.04002
G1 X93.329 Y113.727 E0.86977
G1 X93.329 Y113.054 E0.04002
G1 X82.304 Y124.079 E0.92637
G1 X81.630 Y124.079 E0.04002
G1 X93.329 Y112.380 E0.98297
G1 X93.329 Y111.706 E0.04002
G1 X86.671 Y118.365 E0.55944
G1 X86.671 Y117.691 E0.04002
G1 X93.329 Y111.033 E0.55944
G1 X93.329 Y110.359 E0.04002
G1 X86.671 Y117.017 E0.55944
G1 X86.671 Y116.344 E0.04002
G1 X93.329 Y109.685 E0.55944
G1 X93.329 Y109.012 E0.04002
G1 X86.671 Y115.670 E0.55944
G1 X86.671 Y114.997 E0.04002
G1 F6240.000
G1 X86.671 Y115.670 E-0.36920
G1 F6240.000
G1 X87.788 Y114.553 E-0.86580
G1 E-0.06500 F3600.00000
G1 X86.671 Y112.302 F7800.000
G1 E1.30000 F3600.00000
G1 F1620.000
G1 X105.801 Y93.172 E1.60729
G1 X105.651 Y93.218 E0.00931
G1 X105.025 Y93.274 E0.03733
G1 X86.671 Y111.628 E1.54212
G1 X86.671 Y110.955 E0.04002
G1 X104.418 Y93.208 E1.49109
G1 X103.901 Y93.051 E0.03209
G1 X86.671 Y110.281 E1.44767
G1 X86.671 Y109.607 E0.04002
G1 X103.458 Y92.821 E1.41043
G1 X103.341 Y92.758 E0.00788
G1 X103.069 Y92.535 E0.02086
G1 X86.671 Y108.934 E1.37781
G1 X86.671 Y108.260 E0.04002
G1 X102.731 Y92.200 E1.34936
G1 X102.492 Y91.909 E0.02237
G1 X102.442 Y91.815 E0.00631
G1 X86.137 Y108.120 E1.36990
G1 X85.464 Y108.120 E0.04002
G1 X102.207 Y91.376 E1.40680
G1 X102.051 Y90.860 E0.03209
G1 X84.790 Y108.120 E1.45022
G1 X84.116 Y108.120 E0.04002
G1 X101.979 Y90.257 E1.50081
G1 X102.032 Y89.599 E0.03923
G1 X102.062 Y89.500 E0.00614
G1 X83.443 Y108.120 E1.56442
G1 X82.769 Y108.120 E0.04002
G1 F6240.000
G1 X83.443 Y108.120 E-0.36920
G1 F6240.000
G1 X84.560 Y107.003 E-0.86580
G1 E-0.06500 F3600.00000
G1 X80.329 Y108.539 F7800.000
G1 E1.30000 F3600.00000
G1 F1620.000
G1 X74.671 Y114.197 E0.47542
G1 X74.671 Y114.871 E0.04002
G1 X80.329 Y109.213 E0.47542
G1 X80.329 Y109.886 E0.04002
G1 X74.671 Y115.545 E0.47542
G1 X74.671 Y116.218 E0.04002
G1 X80.329 Y110.560 E0.47542
G1 X80.329 Y111.234 E0.04002
G1 X74.671 Y116.892 E0.47542
G1 X74.671 Y117.566 E0.04002
G1 X80.329 Y111.907 E0.47542
G1 X80.329 Y112.581 E0.04002
G1 X74.671 Y118.239 E0.47542
G1 F6240.000
G1 X76.264 Y116.646 E-1.23500
G1 E-0.06500 F3600.00000
G1 X80.956 Y124.079 F7800.000
G1 E1.30000 F3600.00000
G1 F1620.000
G1 X86.656 Y118.380 E0.47885
G1 X85.982 Y118.380 E0.04002
G1 X80.283 Y124.079 E0.47885
G1 X79.609 Y124.079 E0.04002
G1 X85.308 Y118.380 E0.47885
G1 X84.635 Y118.380 E0.04002
G1 X78.935 Y124.079 E0.47885
