; generated by Slic3r 1.2.9 on 2020-05-13 at 11:59:15

; external perimeters extrusion width = 0.40mm
; perimeters extrusion width = 0.56mm
; infill extrusion width = 0.56mm
; solid infill extrusion width = 0.56mm
; top infill extrusion width = 0.56mm

M107
M190 S60 ; set bed temperature
M104 S215 ; set temperature
G28 ; home all axes
G92 E0.0 ; reset extruder
M109 S215 ; wait for temperature to be reached
G21 ; set units to millimeters
G90 ; use absolute coordinates
M83 ; use relative distances for extrusion
G1 E-1.30000 F3600.00000
G1 Z0.300 F7800.000
G1 X70.756 Y67.006 F7800.000
G1 E1.30000 F3600.00000
M204 S500
G1 X80.756 Y57.006 E0.83895 F2160.000
G1 X83.107 Y55.219 E0.17519
G1 X85.850 Y54.124 E0.17519
G1 X88.500 Y53.799 E0.15839
G1 X111.500 Y53.799 E1.36440
G1 X114.426 Y54.197 E0.17519 F2160.000
G1 X117.140 Y55.362 E0.17519
G1 X119.244 Y57.006 E0.15840
G1 X129.244 Y67.006 E0.83894
G1 X131.031 Y69.357 E0.17519
G1 X132.227 Y72.546 E0.20203
G1 X139.727 Y109.046 E2.21049
G1 X139.951 Y111.250 E0.13143
G1 X139.951 Y128.750 E1.03813
G1 X139.553 Y131.676 E0.17519
G1 X138.388 Y134.390 E0.17519
G1 X136.744 Y136.494 E0.15840
G1 X130.244 Y142.994 E0.54531
G1 X127.893 Y144.781 E0.17519
G1 X125.150 Y145.876 E0.17519
G1 X122.500 Y146.201 E0.15840
G1 X77.500 Y146.201 E2.66948
G1 X74.574 Y145.803 E0.17519
G1 X71.860 Y144.637 E0.17519
G1 X69.756 Y142.994 E0.15839
G1 X63.256 Y136.494 E0.54532
G1 X61.469 Y134.143 E0.17519
G1 X60.374 Y131.400 E0.17519
G1 X60.049 Y128.750 E0.15840
G1 X60.049 Y111.250 E1.03813
G1 X60.273 Y109.046 E0.13143
G1 X67.773 Y72.546 E2.21049
G1 X68.752 Y69.760 E0.17519
G1 X70.721 Y67.055 E0.19847
G1 X71.093 Y67.343 F7800.000
G1 X81.093 Y57.343 E0.83895 F2160.000
G1 X83.397 Y55.601 E0.17132
G1 X86.089 Y54.556 E0.17132
G1 X88.500 Y54.274 E0.14400
G1 X111.500 Y54.274 E1.36440
G1 X114.360 Y54.672 E0.17132 F2160.000
G1 X117.003 Y55.836 E0.17132
G1 X118.907 Y57.343 E0.14401
G1 X128.907 Y67.343 E0.83894
G1 X130.649 Y69.647 E0.17132
G1 X131.761 Y72.642 E0.18952
G1 X139.261 Y109.142 E2.21049
G1 X139.476 Y111.250 E0.12572
G1 X139.476 Y128.750 E1.03813
G1 X139.078 Y131.610 E0.17132
G1 X137.914 Y134.253 E0.17132
G1 X136.407 Y136.157 E0.14401
G1 X129.907 Y142.657 E0.54531
G1 X127.603 Y144.399 E0.17132
G1 X124.911 Y145.444 E0.17132
G1 X122.500 Y145.726 E0.14401
G1 X77.500 Y145.726 E2.66948
G1 X74.640 Y145.328 E0.17132
G1 X71.997 Y144.164 E0.17132
G1 X70.093 Y142.657 E0.14401
G1 X63.593 Y136.157 E0.54532
G1 X61.851 Y133.853 E0.17132
G1 X60.806 Y131.161 E0.17132
G1 X60.524 Y128.750 E0.14401
G1 X60.524 Y111.250 E1.03813
G1 X60.739 Y109.142 E0.12572
G1 X68.239 Y72.642 E2.21049
G1 X69.204 Y69.920 E0.17132
G1 X71.057 Y67.391 E0.18596
G1 F6240
G1 X72.649 Y65.797 E-1.23500
G1 E-0.06500 F3600.00000
G1 X84.246 Y127.955 F7800.000
G1 E1.30000 F3600.00000
G1 X78.754 Y127.955 E0.32575 F1080.000
G1 X78.754 Y118.545 E0.55820
G1 X84.246 Y118.545 E0.32575
G1 X84.246 Y127.895 E0.55464
G1 X83.770 Y127.479 F7800.000
G1 X79.230 Y127.479 E0.26932 F1080.000
G1 X79.230 Y119.021 E0.50177
G1 X83.770 Y119.021 E0.26932
G1 X83.770 Y127.419 E0.49821
G1 X83.770 Y127.879 F7800.000
G1 X90.754 Y127.955 F7800.000
G1 X90.754 Y118.545 E0.55820 F1080.000
G1 X96.246 Y118.545 E0.32575
G1 X96.246 Y127.955 E0.55820
G1 X90.814 Y127.955 E0.32219
G1 X91.230 Y127.479 F7800.000
G1 X91.230 Y119.021 E0.50177 F1080.000
G1 X95.770 Y119.021 E0.26932
G1 X95.770 Y127.479 E0.50177
G1 X91.290 Y127.479 E0.26576
G1 X90.830 Y127.479 F7800.000
G1 F6240
G1 X91.274 Y125.226 E-1.23500
G1 E-0.06500 F3600.00000
G1 X103.754 Y127.955 F7800.000
G1 E1.30000 F3600.00000
G1 X103.754 Y118.545 E0.55820 F1080.000
G1 X109.246 Y118.545 E0.32575
G1 X109.246 Y127.955 E0.55820
G1 X103.814 Y127.955 E0.32219
G1 X104.230 Y127.479 F7800.000
G1 X104.230 Y119.021 E0.50177 F1080.000
G1 X108.770 Y119.021 E0.26932
G1 X108.770 Y127.479 E0.50177
G1 X104.290 Y127.479 E0.26576
G1 X103.830 Y127.479 F7800.000
G1 F6240
G1 X104.274 Y125.226 E-1.23500
G1 E-0.06500 F3600.00000
G1 X115.754 Y127.955 F7800.000
G1 E1.30000 F3600.00000
G1 X115.754 Y118.545 E0.55820 F1080.000
G1 X121.246 Y118.545 E0.32575
G1 X121.246 Y127.955 E0.55820
G1 X115.814 Y127.955 E0.32219
G1 X116.230 Y127.479 F7800.000
G1 X116.230 Y119.021 E0.50177 F1080.000
G1 X120.770 Y119.021 E0.26932
G1 X120.770 Y127.479 E0.50177
G1 X116.290 Y127.479 E0.26576
G1 X115.830 Y127.479 F7800.000
G1 X115.000 Y102.849 F7800.000
G1 X114.493 Y102.799 E0.03023 F1080.000
G1 X114.005 Y102.651 E0.03023
G1 X113.556 Y102.411 E0.03023
G1 X113.162 Y102.088 E0.03022
G1 X112.839 Y101.694 E0.03022
G1 X112.599 Y101.245 E0.03023
G1 X112.451 Y100.757 E0.03023
G1 X112.401 Y100.250 E0.03022
G1 X112.451 Y99.743 E0.03022
G1 X112.599 Y99.255 E0.03023
G1 X112.839 Y98.806 E0.03023
G1 X113.162 Y98.412 E0.03022
G1 X113.556 Y98.089 E0.03022
G1 X114.005 Y97.849 E0.03023
G1 X114.493 Y97.701 E0.03023
G1 X114.994 Y97.651 E0.02984 F1080.000
G1 X115.506 Y97.700 E0.03054
G1 X115.995 Y97.849 E0.03030
G1 X116.444 Y98.089 E0.03023
G1 X116.838 Y98.412 E0.03022
G1 X117.161 Y98.806 E0.03022
G1 X117.401 Y99.255 E0.03023
G1 X117.549 Y99.743 E0.03023
G1 X117.599 Y100.250 E0.03022
G1 X117.549 Y100.757 E0.03023
G1 X117.401 Y101.245 E0.03023
G1 X117.161 Y101.694 E0.03023
G1 X116.838 Y102.088 E0.03022
G1 X116.444 Y102.411 E0.03022
G1 X115.995 Y102.651 E0.03023
G1 X115.507 Y102.799 E0.03023
G1 X115.060 Y102.843 E0.02667
G1 X115.000 Y102.371 F7800.000
G1 X114.586 Y102.331 E0.02467 F1080.000
G1 X114.188 Y102.210 E0.02467
G1 X113.821 Y102.014 E0.02467
G1 X113.500 Y101.750 E0.02467
G1 X113.236 Y101.429 E0.02467
G1 X113.040 Y101.062 E0.02467
G1 X112.919 Y100.664 E0.02467
G1 X112.879 Y100.250 E0.02467
G1 X112.919 Y99.836 E0.02467
G1 X113.040 Y99.438 E0.02467
G1 X113.236 Y99.071 E0.02467
G1 X113.500 Y98.750 E0.02467
G1 X113.821 Y98.486 E0.02467
G1 X114.188 Y98.290 E0.02467
G1 X114.586 Y98.169 E0.02467
G1 X114.994 Y98.129 E0.02432 F1080.000
G1 X115.413 Y98.169 E0.02498
G1 X115.812 Y98.290 E0.02469
G1 X116.179 Y98.486 E0.02467
G1 X116.500 Y98.750 E0.02467
G1 X116.764 Y99.071 E0.02467
G1 X116.960 Y99.438 E0.02467
G1 X117.081 Y99.836 E0.02467
G1 X117.121 Y100.250 E0.02467
G1 X117.081 Y100.664 E0.02467
G1 X116.960 Y101.062 E0.02467
G1 X116.764 Y101.429 E0.02467
G1 X116.500 Y101.750 E0.02467
G1 X116.179 Y102.014 E0.02467
G1 X115.812 Y102.210 E0.02467
G1 X115.414 Y102.331 E0.02467
G1 X115.060 Y102.365 E0.02111
G1 X114.789 Y102.711 F7800.000
G1 F6240
G1 X114.586 Y102.331 E-0.26024
G1 F6240
G1 X114.188 Y102.210 E-0.22794
G1 F6240
G1 X113.821 Y102.014 E-0.22792
G1 F6240
G1 X113.500 Y101.750 E-0.22792
G1 F6240
G1 X113.236 Y101.429 E-0.22789
G1 F6240
G1 X113.182 Y101.327 E-0.06309
G1 E-0.06500 F3600.00000
G1 X108.746 Y82.955 F7800.000
G1 E1.30000 F3600.00000
G1 X103.254 Y82.955 E0.32575 F1080.000
G1 X103.254 Y73.545 E0.55820
G1 X108.746 Y73.545 E0.32575
G1 X108.746 Y82.895 E0.55464
G1 X108.270 Y82.479 F7800.000
G1 X103.730 Y82.479 E0.26932 F1080.000
G1 X103.730 Y74.021 E0.50177
G1 X108.270 Y74.021 E0.26932
G1 X108.270 Y82.419 E0.49821
G1 X108.270 Y82.879 F7800.000
G1 F6240
G1 X106.017 Y82.449 E-1.23500
G1 E-0.06500 F3600.00000
G1 X96.746 Y82.955 F7800.000
G1 E1.30000 F3600.00000
G1 X91.254 Y82.955 E0.32575 F1080.000
G1 X91.254 Y73.545 E0.55820
G1 X96.746 Y73.545 E0.32575
G1 X96.746 Y82.895 E0.55464
G1 X96.270 Y82.479 F7800.000
G1 X91.730 Y82.479 E0.26932 F1080.000
G1 X91.730 Y74.021 E0.50177
G1 X96.270 Y74.021 E0.26932
G1 X96.270 Y82.419 E0.49821
G1 X96.270 Y82.879 F7800.000
G1 F6240
G1 X94.017 Y82.449 E-1.23500
G1 E-0.06500 F3600.00000
G1 X86.444 Y98.089 F7800.000
G1 E1.30000 F3600.00000
G1 X86.838 Y98.412 E0.03022 F1080.000
G1 X87.161 Y98.806 E0.03022
G1 X87.401 Y99.255 E0.03023
G1 X87.549 Y99.743 E0.03024
G1 X87.599 Y100.250 E0.03022
G1 X87.549 Y100.757 E0.03022
G1 X87.401 Y101.245 E0.03024
G1 X87.161 Y101.694 E0.03023
G1 X86.838 Y102.088 E0.03022
G1 X86.444 Y102.411 E0.03022
G1 X85.995 Y102.651 E0.03023
G1 X85.507 Y102.799 E0.03024
G1 X85.000 Y102.849 E0.03022
G1 X84.493 Y102.799 E0.03022
G1 X84.005 Y102.651 E0.03024
G1 X83.556 Y102.411 E0.03023
G1 X83.162 Y102.088 E0.03022
G1 X82.839 Y101.694 E0.03022
G1 X82.599 Y101.245 E0.03023
G1 X82.451 Y100.757 E0.03024
G1 X82.401 Y100.250 E0.03022
G1 X82.451 Y99.743 E0.03022
G1 X82.599 Y99.255 E0.03024
G1 X82.839 Y98.806 E0.03023
G1 X83.162 Y98.412 E0.03022
G1 X83.556 Y98.089 E0.03022
G1 X84.005 Y97.849 E0.03023
G1 X84.493 Y97.701 E0.03024
G1 X84.994 Y97.651 E0.02984 F1080.000
G1 X85.506 Y97.700 E0.03054
G1 X85.995 Y97.849 E0.03030
G1 X86.391 Y98.061 E0.02667
G1 X86.179 Y98.486 F7800.000
G1 X86.500 Y98.750 E0.02467 F1080.000
G1 X86.764 Y99.071 E0.02467
G1 X86.960 Y99.438 E0.02467
G1 X87.081 Y99.836 E0.02467
G1 X87.121 Y100.250 E0.02467
G1 X87.081 Y100.664 E0.02467
G1 X86.960 Y101.062 E0.02467
G1 X86.764 Y101.429 E0.02467
G1 X86.500 Y101.750 E0.02467
G1 X86.179 Y102.014 E0.02467
G1 X85.812 Y102.210 E0.02467
G1 X85.414 Y102.331 E0.02467
G1 X85.000 Y102.371 E0.02467
G1 X84.586 Y102.331 E0.02467
G1 X84.188 Y102.210 E0.02467
G1 X83.821 Y102.014 E0.02467
G1 X83.500 Y101.750 E0.02467
G1 X83.236 Y101.429 E0.02466
G1 X83.040 Y101.062 E0.02467
G1 X82.919 Y100.664 E0.02467
G1 X82.879 Y100.250 E0.02467
G1 X82.919 Y99.836 E0.02467
G1 X83.040 Y99.438 E0.02467
G1 X83.236 Y99.071 E0.02467
G1 X83.500 Y98.750 E0.02467
G1 X83.821 Y98.486 E0.02467
G1 X84.188 Y98.290 E0.02467
G1 X84.586 Y98.169 E0.02467
G1 X84.994 Y98.129 E0.02432 F1080.000
G1 X85.413 Y98.169 E0.02498
G1 X85.812 Y98.290 E0.02470
G1 X86.126 Y98.458 E0.02111
G1 X86.543 Y98.321 F7800.000
G1 F6240
G1 X86.500 Y98.750 E-0.26022
G1 F6240
G1 X86.764 Y99.071 E-0.22789
G1 F6240
G1 X86.960 Y99.438 E-0.22792
G1 F6240
G1 X87.081 Y99.836 E-0.22797
G1 F6240
G1 X87.121 Y100.250 E-0.22790
G1 F6240
G1 X87.110 Y100.365 E-0.06311
G1 E-0.06500 F3600.00000
G1 X79.246 Y98.486 F7800.000
G1 E1.30000 F3600.00000
G1 X79.246 Y75.059 E1.38976 F1620.000
G1 X88.809 Y65.496 E0.80230
G1 X111.094 Y65.496 E1.32200
G1 X111.191 Y65.496 E0.00576 F1620.000
G1 X120.754 Y75.059 E0.80230
G1 X120.754 Y99.624 E1.45726
G1 X128.254 Y111.466 E0.83153
G1 X128.254 Y128.441 E1.00698
G1 X122.191 Y134.504 E0.50867
G1 X77.809 Y134.504 E2.63284
G1 X71.746 Y128.441 E0.50867
G1 X71.746 Y111.466 E1.00698
G1 X79.246 Y99.624 E0.83153
G1 X79.246 Y98.546 E0.06394
G1 X78.770 Y98.486 F7800.000
G1 X78.770 Y74.862 E1.40144 F1458.000
G1 X88.612 Y65.020 E0.82567
G1 X111.094 Y65.020 E1.33369
G1 X111.388 Y65.020 E0.01744 F1458.000
G1 X121.230 Y74.862 E0.82567
G1 X121.230 Y99.486 E1.46076
G1 X128.730 Y111.328 E0.83153
G1 X128.730 Y128.638 E1.02685
G1 X122.388 Y134.980 E0.53204
G1 X77.612 Y134.980 E2.65622
G1 X71.270 Y128.638 E0.53204
G1 X71.270 Y111.328 E1.02685
G1 X78.770 Y99.486 E0.83153
G1 X78.770 Y98.546 E0.05576
G1 X79.116 Y98.286 F7800.000
G1 X78.649 Y101.024 F7800.000
G1 X95.887 Y118.262 E1.45123 F1620.000
G1 X95.212 Y118.262 E0.04018
G1 X78.387 Y101.437 E1.41644
G1 X78.126 Y101.850 E0.02912
G1 X94.537 Y118.262 E1.38165
G1 X93.862 Y118.262 E0.04018
G1 X77.864 Y102.264 E1.34685
G1 X77.602 Y102.677 E0.02912
G1 X93.187 Y118.262 E1.31206
G1 X92.512 Y118.262 E0.04018
G1 X77.341 Y103.090 E1.27727
G1 X77.079 Y103.503 E0.02912
G1 X91.837 Y118.262 E1.24248
G1 X91.162 Y118.262 E0.04018
G1 X76.817 Y103.917 E1.20769
G1 X76.555 Y104.330 E0.02912
G1 X90.487 Y118.262 E1.17290
G1 X90.471 Y118.921 E0.03923
G1 X76.294 Y104.743 E1.19357
G1 X76.032 Y105.156 E0.02912
G1 X90.471 Y119.596 E1.21560
G1 X90.471 Y120.271 E0.04018
G1 X75.770 Y105.570 E1.23763
G1 X75.508 Y105.983 E0.02912
G1 X90.471 Y120.946 E1.25967
G1 X90.471 Y121.620 E0.04018
G1 X75.247 Y106.396 E1.28170
G1 X74.985 Y106.809 E0.02912
G1 X90.471 Y122.295 E1.30374
G1 X90.471 Y122.970 E0.04018
G1 X74.723 Y107.223 E1.32577
G1 X74.462 Y107.636 E0.02912
G1 X90.471 Y123.645 E1.34781
G1 X90.471 Y124.320 E0.04018
G1 X74.200 Y108.049 E1.36984
G1 X73.938 Y108.462 E0.02912
G1 X83.737 Y118.262 E0.82499
G1 X83.062 Y118.262 E0.04018
G1 X73.676 Y108.876 E0.79020
G1 X73.415 Y109.289 E0.02912
G1 X82.387 Y118.262 E0.75540
G1 X81.712 Y118.262 E0.04018
G1 X73.153 Y109.702 E0.72061
G1 X72.891 Y110.115 E0.02912
G1 X81.037 Y118.262 E0.68582
G1 X80.362 Y118.262 E0.04018
G1 X72.629 Y110.529 E0.65103
G1 X72.368 Y110.942 E0.02912
G1 X79.688 Y118.262 E0.61624
G1 X79.013 Y118.262 E0.04018
G1 X72.106 Y111.355 E0.58145
G1 X72.029 Y111.953 E0.03589
G1 X78.471 Y118.395 E0.54234
G1 X78.471 Y119.070 E0.04018
G1 X72.029 Y112.628 E0.54234
G1 X72.029 Y113.303 E0.04018
G1 X78.471 Y119.745 E0.54234
G1 X78.471 Y120.420 E0.04018
G1 X72.029 Y113.978 E0.54234
G1 X72.029 Y114.653 E0.04018
G1 X78.471 Y121.095 E0.54234
G1 X78.471 Y121.770 E0.04018
G1 X72.029 Y115.328 E0.54234
G1 X72.029 Y116.003 E0.04018
G1 X78.471 Y122.445 E0.54234
G1 X78.471 Y123.120 E0.04018
G1 X72.029 Y116.678 E0.54234
G1 X72.029 Y117.353 E0.04018
G1 X78.471 Y123.795 E0.54234
G1 X78.471 Y124.470 E0.04018
G1 X72.029 Y118.028 E0.54234
G1 X72.029 Y118.703 E0.04018
G1 X78.471 Y125.145 E0.54234
G1 X78.471 Y125.820 E0.04018
G1 X72.029 Y119.378 E0.54234
G1 X72.029 Y120.053 E0.04018
G1 X78.471 Y126.495 E0.54234
G1 X78.471 Y127.170 E0.04018
G1 X72.029 Y120.728 E0.54234
G1 X72.029 Y121.403 E0.04018
G1 X78.471 Y127.845 E0.54234
G1 X78.864 Y128.238 F7800.000
G1 X84.847 Y134.221 E0.50368 F1620.000
G1 X84.172 Y134.221 E0.04018
G1 X72.029 Y122.078 E1.02229
G1 X72.029 Y122.753 E0.04018
G1 X83.497 Y134.221 E0.96547
G1 X82.822 Y134.221 E0.04018
G1 X72.029 Y123.428 E0.90864
G1 X72.029 Y124.103 E0.04018
G1 X82.147 Y134.221 E0.85181
G1 X81.472 Y134.221 E0.04018
G1 X72.029 Y124.778 E0.79499
G1 X72.029 Y125.453 E0.04018
G1 X80.797 Y134.221 E0.73816
G1 X80.122 Y134.221 E0.04018
G1 X72.029 Y126.128 E0.68134
G1 X72.029 Y126.803 E0.04018
G1 X79.447 Y134.221 E0.62451
G1 X78.772 Y134.221 E0.04018
G1 X72.029 Y127.478 E0.56769
G1 X72.029 Y128.153 E0.04018
G1 X78.097 Y134.221 E0.51086
G1 X79.539 Y128.238 F7800.000
G1 X85.522 Y134.221 E0.50368 F1620.000
G1 X86.197 Y134.221 E0.04018
G1 X80.214 Y128.238 E0.50368
G1 X80.889 Y128.238 E0.04018
G1 X86.872 Y134.221 E0.50368
G1 X87.547 Y134.221 E0.04018
G1 X81.564 Y128.238 E0.50368
G1 X82.239 Y128.238 E0.04018
G1 X88.222 Y134.221 E0.50368
G1 X88.897 Y134.221 E0.04018
G1 X82.914 Y128.238 E0.50368
G1 X83.589 Y128.238 E0.04018
G1 X89.572 Y134.221 E0.50368
G1 X90.247 Y134.221 E0.04018
G1 X84.264 Y128.238 E0.50368
G1 X84.529 Y127.828 F7800.000
G1 X90.922 Y134.221 E0.53820 F1620.000
G1 X91.597 Y134.221 E0.04018
G1 X84.529 Y127.153 E0.59502
G1 X84.529 Y126.478 E0.04018
G1 X92.272 Y134.221 E0.65185
G1 X92.947 Y134.221 E0.04018
G1 X84.529 Y125.803 E0.70867
G1 X84.529 Y125.128 E0.04018
G1 X93.622 Y134.221 E0.76550
G1 X94.297 Y134.221 E0.04018
G1 X84.529 Y124.453 E0.82233
G1 X84.529 Y123.778 E0.04018
G1 X94.972 Y134.221 E0.87915
G1 X95.647 Y134.221 E0.04018
G1 X84.529 Y123.103 E0.93598
G1 X84.529 Y122.428 E0.04018
G1 X96.322 Y134.221 E0.99280
G1 X96.997 Y134.221 E0.04018
G1 X91.014 Y128.238 E0.50368
G1 X91.689 Y128.238 E0.04018
G1 X97.672 Y134.221 E0.50368
G1 X98.347 Y134.221 E0.04018
G1 X92.364 Y128.238 E0.50368
G1 X93.039 Y128.238 E0.04018
G1 X99.022 Y134.221 E0.50368
G1 X99.697 Y134.221 E0.04018
G1 X93.714 Y128.238 E0.50368
G1 X94.389 Y128.238 E0.04018
G1 X100.372 Y134.221 E0.50368
G1 X101.047 Y134.221 E0.04018
G1 X95.064 Y128.238 E0.50368
G1 X95.739 Y128.238 E0.04018
G1 X101.722 Y134.221 E0.50368
G1 X102.397 Y134.221 E0.04018
G1 X96.414 Y128.238 E0.50368
G1 X96.529 Y127.678 E0.03402
G1 X103.072 Y134.221 E0.55080
G1 X103.747 Y134.221 E0.04018
G1 X96.529 Y127.003 E0.60763
G1 X96.529 Y126.328 E0.04018
G1 X104.422 Y134.221 E0.66445
G1 X105.096 Y134.221 E0.04018
G1 X96.529 Y125.654 E0.72128
G1 X96.529 Y124.979 E0.04018
G1 X105.771 Y134.221 E0.77811
G1 X106.446 Y134.221 E0.04018
G1 X96.529 Y124.304 E0.83493
G1 X96.529 Y123.629 E0.04018
G1 X107.121 Y134.221 E0.89176
G1 X107.796 Y134.221 E0.04018
G1 X96.529 Y122.954 E0.94858
G1 X96.529 Y122.279 E0.04018
G1 X108.471 Y134.221 E1.00541
G1 X109.146 Y134.221 E0.04018
G1 X96.529 Y121.604 E1.06223
G1 F6240
G1 X98.122 Y123.197 E-1.23500
G1 E-0.06500 F3600.00000
G1 X90.471 Y124.995 F7800.000
G1 E1.30000 F3600.00000
G1 X84.529 Y119.053 E0.50025 F1620.000
