; generated by Slic3r 1.2.9 on 2020-05-13 at 11:59:35

; external perimeters extrusion width = 0.40mm
; perimeters extrusion width = 0.56mm
; infill extrusion width = 0.56mm
; solid infill extrusion width = 0.56mm
; top infill extrusion width = 0.56mm

M107
M190 S60 ; set bed temperature
M104 S215 ; set temperature
G28 ; home all axes
G92 E0.0 ; reset extruder
M109 S215 ; wait for temperature to be reached
G21 ; set units to millimeters
G90 ; use absolute coordinates
M83 ; use relative distances for extrusion
G1 E-1.30000 F3600.00000
G1 Z0.300 F7800.000
G1 X75.875 Y74.139 F7800.000
G1 E1.30000 F3600.00000
M204 S500
G1 X78.252 Y72.388 E0.17519 F2160.000
G1 X81.012 Y71.335 E0.17519
G1 X83.500 Y71.049 E0.14859
G1 X116.500 Y71.049 E1.95762
G1 X119.426 Y71.447 E0.17519 F2160.000
G1 X122.140 Y72.613 E0.17519
G1 X124.443 Y74.461 E0.17519
G1 X126.169 Y76.857 E0.17519
G1 X127.084 Y79.189 E0.14859
G1 X135.584 Y111.189 E1.96413
G1 X135.951 Y114.000 E0.16819
G1 X135.951 Y118.000 E0.23729
G1 X135.553 Y120.926 E0.17519
G1 X134.387 Y123.640 E0.17519
G1 X132.539 Y125.943 E0.17519
G1 X130.143 Y127.669 E0.17519
G1 X127.372 Y128.691 E0.17519
G1 X125.000 Y128.951 E0.14158
G1 X75.000 Y128.951 E2.96609
G1 X72.074 Y128.553 E0.17519
G1 X69.360 Y127.388 E0.17519
G1 X67.057 Y125.539 E0.17519
G1 X65.331 Y123.143 E0.17519
G1 X64.309 Y120.372 E0.17519
G1 X64.049 Y118.000 E0.14158
G1 X64.049 Y114.000 E0.23729
G1 X64.416 Y111.189 E0.16819
G1 X72.916 Y79.189 E1.96413
G1 X74.052 Y76.463 E0.17519
G1 X75.838 Y74.187 E0.17163
G1 X76.257 Y74.445 F7800.000
G1 X76.298 Y74.393 E0.00394 F2160.000
G1 X78.649 Y72.715 E0.17132
G1 X81.369 Y71.744 E0.17132
G1 X83.500 Y71.524 E0.12711
G1 X116.500 Y71.524 E1.95762
G1 X119.360 Y71.922 E0.17132 F2160.000
G1 X122.003 Y73.086 E0.17132
G1 X124.228 Y74.928 E0.17132
G1 X125.866 Y77.307 E0.17132
G1 X126.625 Y79.311 E0.12711
G1 X135.125 Y111.311 E1.96413
G1 X135.476 Y114.000 E0.16089
G1 X135.476 Y118.000 E0.23729
G1 X135.078 Y120.860 E0.17132
G1 X133.914 Y123.503 E0.17132
G1 X132.072 Y125.728 E0.17132
G1 X129.693 Y127.366 E0.17132
G1 X126.957 Y128.291 E0.17132
G1 X125.000 Y128.476 E0.11663
G1 X75.000 Y128.476 E2.96609
G1 X72.140 Y128.078 E0.17132
G1 X69.497 Y126.914 E0.17132
G1 X67.272 Y125.072 E0.17132
G1 X65.634 Y122.693 E0.17132
G1 X64.709 Y119.957 E0.17132
G1 X64.524 Y118.000 E0.11663
G1 X64.524 Y114.000 E0.23729
G1 X64.875 Y111.311 E0.16089
G1 X73.375 Y79.311 E1.96413
G1 X74.495 Y76.648 E0.17132
G1 X76.219 Y74.491 E0.16382
G1 F6240
G1 X76.298 Y74.393 E-0.06932
G1 F6240
G1 X78.029 Y73.157 E-1.16568
G1 E-0.06500 F3600.00000
G1 X107.246 Y112.746 F7800.000
G1 E1.30000 F3600.00000
G1 X92.754 Y112.746 E0.85965 F1620.000
G1 X92.754 Y98.254 E0.85965
G1 X107.246 Y98.254 E0.85965
G1 X107.246 Y112.686 E0.85609
G1 X106.770 Y112.270 F7800.000
G1 X93.230 Y112.270 E0.80322 F1458.000
G1 X93.230 Y98.730 E0.80322
G1 X106.770 Y98.730 E0.80322
G1 X106.770 Y112.210 E0.79966
G1 X106.770 Y112.670 F7800.000
G1 X115.754 Y114.746 F7800.000
G1 X124.254 Y114.746 E0.50424 F1620.000
G1 X124.254 Y117.254 E0.14882
G1 X75.746 Y117.254 E2.87763
G1 X75.746 Y114.746 E0.14882
G1 X84.246 Y114.746 E0.50424
G1 X84.246 Y82.746 E1.89830
G1 X115.754 Y82.746 E1.86916
G1 X115.754 Y114.686 E1.89474
G1 X116.230 Y114.270 F7800.000
G1 X124.730 Y114.270 E0.50424 F1458.000
G1 X124.730 Y117.730 E0.20525
G1 X75.270 Y117.730 E2.93406
G1 X75.270 Y114.270 E0.20525
G1 X83.770 Y114.270 E0.50424
G1 X83.770 Y82.270 E1.89830
G1 X116.230 Y82.270 E1.92559
G1 X116.230 Y114.210 E1.89474
G1 X116.230 Y114.670 F7800.000
G1 X116.179 Y115.029 F7800.000
G1 X118.121 Y116.971 E0.16350 F1620.000
G1 X118.796 Y116.971 E0.04018
G1 X116.854 Y115.029 E0.16350
G1 X117.529 Y115.029 E0.04018
G1 X119.471 Y116.971 E0.16350
G1 X120.146 Y116.971 E0.04018
G1 X118.204 Y115.029 E0.16350
G1 X118.879 Y115.029 E0.04018
G1 X120.821 Y116.971 E0.16350
G1 X121.496 Y116.971 E0.04018
G1 X119.554 Y115.029 E0.16350
G1 X120.229 Y115.029 E0.04018
G1 X122.171 Y116.971 E0.16350
G1 X122.846 Y116.971 E0.04018
G1 X120.904 Y115.029 E0.16350
G1 X121.579 Y115.029 E0.04018
G1 X123.521 Y116.971 E0.16350
G1 X123.971 Y116.746 E0.02995
G1 X122.254 Y115.029 E0.14455
G1 X122.929 Y115.029 E0.04018
G1 X123.971 Y116.071 E0.08772
G1 X123.971 Y115.396 E0.04018
G1 X123.604 Y115.029 E0.03090
G1 F6240
G1 X123.971 Y115.396 E-0.28444
G1 F6240
G1 X123.971 Y116.071 E-0.36995
G1 F6240
G1 X123.222 Y115.322 E-0.58061
G1 E-0.06500 F3600.00000
G1 X107.529 Y98.954 F7800.000
G1 E1.30000 F3600.00000
G1 X115.471 Y106.896 E0.66864 F1620.000
G1 X115.471 Y107.571 E0.04018
G1 X107.529 Y99.629 E0.66864
G1 X107.529 Y100.304 E0.04018
G1 X115.471 Y108.246 E0.66864
G1 X115.471 Y108.921 E0.04018
G1 X107.529 Y100.979 E0.66864
G1 X107.529 Y101.654 E0.04018
G1 X115.471 Y109.596 E0.66864
G1 X115.471 Y110.271 E0.04018
G1 X107.529 Y102.329 E0.66864
G1 X107.529 Y103.004 E0.04018
G1 X115.471 Y110.946 E0.66864
G1 X115.471 Y111.621 E0.04018
G1 X107.529 Y103.679 E0.66864
G1 X107.529 Y104.354 E0.04018
G1 X115.471 Y112.296 E0.66864
G1 X115.471 Y112.971 E0.04018
G1 X107.529 Y105.029 E0.66864
G1 X107.529 Y105.704 E0.04018
G1 X115.471 Y113.646 E0.66864
G1 X115.471 Y114.321 E0.04018
G1 X107.529 Y106.379 E0.66864
G1 X107.529 Y107.054 E0.04018
G1 X117.446 Y116.971 E0.83492
G1 X116.771 Y116.971 E0.04018
G1 X107.529 Y107.729 E0.77809
G1 X107.529 Y108.404 E0.04018
G1 X116.096 Y116.971 E0.72126
G1 X115.421 Y116.971 E0.04018
G1 X107.529 Y109.079 E0.66443
G1 X107.529 Y109.754 E0.04018
G1 X114.746 Y116.971 E0.60760
G1 X114.071 Y116.971 E0.04018
G1 X107.529 Y110.429 E0.55077
G1 X107.529 Y111.104 E0.04018
G1 X113.396 Y116.971 E0.49395
G1 X112.721 Y116.971 E0.04018
G1 X107.529 Y111.779 E0.43712
G1 X107.529 Y112.454 E0.04018
G1 X112.046 Y116.971 E0.38029
G1 X111.371 Y116.971 E0.04018
G1 X107.429 Y113.029 E0.33188
G1 X106.754 Y113.029 E0.04018
G1 X110.696 Y116.971 E0.33188
G1 X110.021 Y116.971 E0.04018
G1 X106.079 Y113.029 E0.33188
G1 X105.404 Y113.029 E0.04018
G1 X109.346 Y116.971 E0.33188
G1 X108.671 Y116.971 E0.04018
G1 X104.729 Y113.029 E0.33188
G1 X104.054 Y113.029 E0.04018
G1 X107.996 Y116.971 E0.33188
G1 X107.321 Y116.971 E0.04018
G1 X103.379 Y113.029 E0.33188
G1 X102.704 Y113.029 E0.04018
G1 X106.646 Y116.971 E0.33188
G1 X105.971 Y116.971 E0.04018
G1 X102.029 Y113.029 E0.33188
G1 X101.354 Y113.029 E0.04018
G1 X105.296 Y116.971 E0.33188
G1 X104.621 Y116.971 E0.04018
G1 X100.679 Y113.029 E0.33188
G1 X100.004 Y113.029 E0.04018
G1 X103.946 Y116.971 E0.33188
G1 X103.271 Y116.971 E0.04018
G1 X99.329 Y113.029 E0.33188
G1 X98.654 Y113.029 E0.04018
G1 X102.596 Y116.971 E0.33188
G1 X101.921 Y116.971 E0.04018
G1 X97.979 Y113.029 E0.33188
G1 X97.304 Y113.029 E0.04018
G1 X101.246 Y116.971 E0.33188
G1 X100.571 Y116.971 E0.04018
G1 X96.629 Y113.029 E0.33188
G1 X95.954 Y113.029 E0.04018
G1 X99.896 Y116.971 E0.33188
G1 X99.221 Y116.971 E0.04018
G1 X95.279 Y113.029 E0.33188
G1 X94.604 Y113.029 E0.04018
G1 X98.546 Y116.971 E0.33188
G1 X97.871 Y116.971 E0.04018
G1 X93.929 Y113.029 E0.33188
G1 X93.254 Y113.029 E0.04018
G1 X97.196 Y116.971 E0.33188
G1 X96.521 Y116.971 E0.04018
G1 X92.579 Y113.029 E0.33188
G1 X76.029 Y116.729 F7800.000
G1 X76.271 Y116.971 E0.02035 F1620.000
G1 X76.946 Y116.971 E0.04018
G1 X76.029 Y116.054 E0.07718
G1 X76.029 Y115.379 E0.04018
G1 X77.621 Y116.971 E0.13401
G1 X78.296 Y116.971 E0.04018
G1 X76.354 Y115.029 E0.16350
G1 X77.029 Y115.029 E0.04018
G1 X78.971 Y116.971 E0.16350
G1 X79.646 Y116.971 E0.04018
G1 X77.704 Y115.029 E0.16350
G1 X78.379 Y115.029 E0.04018
G1 X80.321 Y116.971 E0.16350
G1 X80.996 Y116.971 E0.04018
G1 X79.054 Y115.029 E0.16350
G1 X79.729 Y115.029 E0.04018
G1 X81.671 Y116.971 E0.16350
G1 X82.346 Y116.971 E0.04018
G1 X80.404 Y115.029 E0.16350
G1 X81.079 Y115.029 E0.04018
G1 X83.021 Y116.971 E0.16350
G1 X83.696 Y116.971 E0.04018
G1 X81.754 Y115.029 E0.16350
G1 X82.429 Y115.029 E0.04018
G1 X84.371 Y116.971 E0.16350
G1 X85.046 Y116.971 E0.04018
G1 X83.104 Y115.029 E0.16350
G1 X83.779 Y115.029 E0.04018
G1 X85.721 Y116.971 E0.16350
G1 X86.396 Y116.971 E0.04018
G1 X84.454 Y115.029 E0.16350
G1 X84.529 Y114.429 E0.03598
G1 X87.071 Y116.971 E0.21400
G1 X87.746 Y116.971 E0.04018
G1 X84.529 Y113.754 E0.27082
G1 X84.529 Y113.079 E0.04018
G1 X88.421 Y116.971 E0.32765
G1 X89.096 Y116.971 E0.04018
G1 X84.529 Y112.404 E0.38448
G1 X84.529 Y111.729 E0.04018
G1 X89.771 Y116.971 E0.44131
G1 X90.446 Y116.971 E0.04018
G1 X84.529 Y111.054 E0.49814
G1 X84.529 Y110.379 E0.04018
G1 X91.121 Y116.971 E0.55497
G1 X91.796 Y116.971 E0.04018
G1 X84.529 Y109.704 E0.61180
G1 X84.529 Y109.029 E0.04018
G1 X92.471 Y116.971 E0.66863
G1 X93.146 Y116.971 E0.04018
G1 X84.529 Y108.354 E0.72546
G1 X84.529 Y107.679 E0.04018
G1 X93.821 Y116.971 E0.78228
G1 X94.496 Y116.971 E0.04018
G1 X84.529 Y107.004 E0.83911
G1 X84.529 Y106.329 E0.04018
G1 X95.171 Y116.971 E0.89594
G1 X95.846 Y116.971 E0.04018
G1 X84.529 Y105.654 E0.95277
G1 X84.529 Y104.979 E0.04018
G1 X92.471 Y112.921 E0.66864
G1 X92.471 Y112.246 E0.04018
G1 X84.529 Y104.304 E0.66864
G1 X84.529 Y103.629 E0.04018
G1 X92.471 Y111.571 E0.66864
G1 X92.471 Y110.896 E0.04018
G1 X84.529 Y102.954 E0.66864
G1 X84.529 Y102.279 E0.04018
G1 X92.471 Y110.221 E0.66864
G1 X92.471 Y109.546 E0.04018
G1 X84.529 Y101.604 E0.66864
G1 X84.529 Y100.929 E0.04018
G1 X92.471 Y108.871 E0.66864
G1 X92.471 Y108.196 E0.04018
G1 X84.529 Y100.254 E0.66864
G1 X84.529 Y99.579 E0.04018
G1 X92.471 Y107.521 E0.66864
G1 X92.471 Y106.846 E0.04018
G1 X84.529 Y98.904 E0.66864
G1 X84.529 Y98.229 E0.04018
G1 X92.471 Y106.171 E0.66864
G1 X92.471 Y105.496 E0.04018
G1 X84.529 Y97.554 E0.66864
G1 X84.529 Y96.879 E0.04018
G1 X92.471 Y104.821 E0.66864
G1 X92.471 Y104.146 E0.04018
G1 X84.529 Y96.204 E0.66864
G1 X84.529 Y95.529 E0.04018
G1 X92.471 Y103.471 E0.66864
G1 X92.471 Y102.796 E0.04018
G1 X84.529 Y94.854 E0.66864
G1 X84.529 Y94.179 E0.04018
G1 X92.471 Y102.121 E0.66864
G1 X92.471 Y101.446 E0.04018
G1 X84.529 Y93.504 E0.66864
G1 X84.529 Y92.829 E0.04018
G1 X92.471 Y100.771 E0.66864
G1 X92.471 Y100.096 E0.04018
G1 X84.529 Y92.154 E0.66864
G1 X84.529 Y91.479 E0.04018
G1 X92.471 Y99.421 E0.66864
G1 X92.471 Y98.746 E0.04018
G1 X84.529 Y90.804 E0.66864
G1 X84.529 Y90.129 E0.04018
G1 X92.471 Y98.071 E0.66864
G1 X93.046 Y97.971 E0.03474
G1 X84.529 Y89.454 E0.71705
G1 X84.529 Y88.779 E0.04018
G1 X93.721 Y97.971 E0.77388
G1 X94.396 Y97.971 E0.04018
G1 X84.529 Y88.104 E0.83071
G1 X84.529 Y87.429 E0.04018
G1 X95.071 Y97.971 E0.88754
G1 X95.746 Y97.971 E0.04018
G1 X84.529 Y86.754 E0.94436
G1 X84.529 Y86.079 E0.04018
G1 X96.421 Y97.971 E1.00119
G1 X97.096 Y97.971 E0.04018
G1 X84.529 Y85.404 E1.05802
G1 X84.529 Y84.729 E0.04018
G1 X97.771 Y97.971 E1.11485
G1 X98.446 Y97.971 E0.04018
G1 X84.529 Y84.054 E1.17168
G1 X84.529 Y83.379 E0.04018
G1 X99.121 Y97.971 E1.22851
G1 X99.796 Y97.971 E0.04018
G1 X84.854 Y83.029 E1.25798
G1 X85.529 Y83.029 E0.04018
G1 X100.471 Y97.971 E1.25798
G1 X101.146 Y97.971 E0.04018
G1 X86.204 Y83.029 E1.25798
G1 X86.879 Y83.029 E0.04018
G1 X101.821 Y97.971 E1.25798
G1 X102.496 Y97.971 E0.04018
G1 X87.554 Y83.029 E1.25798
G1 X88.229 Y83.029 E0.04018
G1 X103.171 Y97.971 E1.25798
G1 X103.846 Y97.971 E0.04018
G1 X88.904 Y83.029 E1.25798
G1 X89.579 Y83.029 E0.04018
G1 X104.521 Y97.971 E1.25798
G1 X105.196 Y97.971 E0.04018
G1 X90.254 Y83.029 E1.25798
G1 X90.929 Y83.029 E0.04018
G1 X105.871 Y97.971 E1.25798
G1 X106.546 Y97.971 E0.04018
G1 X91.604 Y83.029 E1.25798
G1 X92.279 Y83.029 E0.04018
G1 X107.221 Y97.971 E1.25798
G1 X107.529 Y98.279 F7800.000
G1 X115.471 Y106.221 E0.66864 F1620.000
G1 X115.471 Y105.546 E0.04018
G1 X92.954 Y83.029 E1.89571
G1 X93.629 Y83.029 E0.04018
G1 X115.471 Y104.871 E1.83888
G1 X115.471 Y104.196 E0.04018
G1 X94.304 Y83.029 E1.78205
G1 X94.979 Y83.029 E0.04018
G1 X115.471 Y103.521 E1.72523
G1 X115.471 Y102.846 E0.04018
G1 X95.654 Y83.029 E1.66840
G1 X96.329 Y83.029 E0.04018
G1 X115.471 Y102.171 E1.61157
G1 X115.471 Y101.496 E0.04018
G1 X97.004 Y83.029 E1.55474
G1 X97.679 Y83.029 E0.04018
G1 X115.471 Y100.821 E1.49791
G1 X115.471 Y100.146 E0.04018
G1 X98.354 Y83.029 E1.44108
G1 X99.029 Y83.029 E0.04018
G1 X115.471 Y99.471 E1.38425
G1 X115.471 Y98.796 E0.04018
G1 X99.704 Y83.029 E1.32742
G1 X100.379 Y83.029 E0.04018
G1 X115.471 Y98.121 E1.27059
G1 X115.471 Y97.446 E0.04018
G1 X101.054 Y83.029 E1.21376
G1 X101.729 Y83.029 E0.04018
G1 X115.471 Y96.771 E1.15694
G1 X115.471 Y96.096 E0.04018
G1 X102.404 Y83.029 E1.10011
G1 X103.079 Y83.029 E0.04018
G1 X115.471 Y95.421 E1.04328
G1 X115.471 Y94.746 E0.04018
G1 X103.754 Y83.029 E0.98645
G1 X104.429 Y83.029 E0.04018
G1 X115.471 Y94.071 E0.92962
G1 X115.471 Y93.396 E0.04018
G1 X105.104 Y83.029 E0.87279
G1 X105.779 Y83.029 E0.04018
G1 X115.471 Y92.721 E0.81596
G1 X115.471 Y92.046 E0.04018
G1 X106.454 Y83.029 E0.75913
G1 X107.129 Y83.029 E0.04018
G1 X115.471 Y91.371 E0.70230
G1 X115.471 Y90.696 E0.04018
G1 X107.804 Y83.029 E0.64547
G1 X108.479 Y83.029 E0.04018
G1 X115.471 Y90.021 E0.58865
G1 X115.471 Y89.346 E0.04018
G1 X109.154 Y83.029 E0.53182
G1 X109.829 Y83.029 E0.04018
G1 X115.471 Y88.671 E0.47499
G1 X115.471 Y87.996 E0.04018
G1 X110.504 Y83.029 E0.41816
G1 X111.179 Y83.029 E0.04018
G1 X115.471 Y87.321 E0.36133
G1 X115.471 Y86.646 E0.04018
G1 X111.854 Y83.029 E0.30450
G1 X112.529 Y83.029 E0.04018
G1 X115.471 Y85.971 E0.24767
G1 X115.471 Y85.296 E0.04018
G1 X113.204 Y83.029 E0.19084
G1 X113.879 Y83.029 E0.04018
G1 X115.471 Y84.621 E0.13401
G1 X115.471 Y83.946 E0.04018
G1 X114.554 Y83.029 E0.07719
G1 X115.229 Y83.029 E0.04018
G1 X115.471 Y83.271 E0.02036
M106 S255
M140 S50 ; wait for bed temperature to be reached
G1 F6240
G1 X115.229 Y83.029 E-0.18741
G1 F6240
G1 X114.554 Y83.029 E-0.36996
G1 F6240
G1 X115.428 Y83.903 E-0.67763
G1 E-0.06500 F3600.00000
G1 Z0.550 F7800.000
G1 X107.125 Y112.625 F7800.000
G1 E1.30000 F3600.00000
G1 X92.875 Y112.624 E0.74444 F2700.000
G1 X92.875 Y98.375 E0.74444
G1 X107.124 Y98.375 E0.74444
G1 X107.125 Y112.565 E0.74130
G1 X106.700 Y112.200 F7800.000
G1 X93.300 Y112.200 E0.48238 F2430.000
G1 X93.300 Y98.800 E0.48238
G1 X106.700 Y98.800 E0.48238
G1 X106.700 Y112.140 E0.48022
G1 X106.700 Y112.600 F7800.000
G1 X115.876 Y114.625 F7800.000
G1 X124.375 Y114.625 E0.44408 F2700.000
G1 X124.375 Y117.375 E0.14373
G1 X75.625 Y117.375 E2.54699
G1 X75.625 Y114.625 E0.14373
G1 X84.125 Y114.625 E0.44408
G1 X84.125 Y82.624 E1.67184
G1 X115.875 Y82.624 E1.65883
G1 X115.876 Y114.565 E1.66870
G1 X116.300 Y114.200 F7800.000
G1 X124.800 Y114.200 E0.30599 F2430.000
G1 X124.800 Y117.800 E0.12960
G1 X75.200 Y117.800 E1.78554
G1 X75.200 Y114.200 E0.12960
G1 X83.700 Y114.200 E0.30599
G1 X83.700 Y82.200 E1.15196
G1 X116.300 Y82.200 E1.17356
G1 X116.300 Y114.140 E1.14980
G1 X116.300 Y114.600 F7800.000
G1 X116.009 Y114.925 F7800.000
G1 X113.859 Y117.075 E0.15900 F2700.000
G1 X114.571 Y117.075 E0.03721
G1 X116.721 Y114.925 E0.15900
G1 X117.432 Y114.925 E0.03721
G1 X115.283 Y117.075 E0.15900
G1 X115.994 Y117.075 E0.03721
G1 X118.144 Y114.925 E0.15900
G1 X118.856 Y114.925 E0.03721
G1 X116.706 Y117.075 E0.15900
G1 X117.417 Y117.075 E0.03721
G1 X119.567 Y114.925 E0.15900
G1 X120.279 Y114.925 E0.03721
G1 X118.129 Y117.075 E0.15900
G1 X118.841 Y117.075 E0.03721
G1 X120.990 Y114.925 E0.15900
G1 X121.702 Y114.925 E0.03721
G1 X119.552 Y117.075 E0.15900
G1 X120.264 Y117.075 E0.03721
G1 X122.413 Y114.925 E0.15900
G1 X123.125 Y114.925 E0.03721
G1 X120.975 Y117.075 E0.15900
G1 X121.687 Y117.075 E0.03721
G1 X123.837 Y114.925 E0.15900
G1 X124.075 Y115.398 E0.02771
G1 X122.398 Y117.075 E0.12399
G1 X123.110 Y117.075 E0.03721
G1 X124.075 Y116.110 E0.07136
G1 X124.075 Y116.822 E0.03721
G1 X123.822 Y117.075 E0.01873
G1 X115.575 Y114.648 F7800.000
G1 X113.148 Y117.075 E0.17950 F2700.000
G1 X112.436 Y117.075 E0.03721
G1 X115.575 Y113.936 E0.23213
G1 X115.575 Y113.225 E0.03721
G1 X111.725 Y117.075 E0.28476
G1 X111.013 Y117.075 E0.03721
G1 X115.575 Y112.513 E0.33739
G1 X115.575 Y111.802 E0.03721
G1 X110.302 Y117.075 E0.39002
G1 X109.590 Y117.075 E0.03721
G1 X115.575 Y111.090 E0.44265
G1 X115.575 Y110.378 E0.03721
G1 X108.878 Y117.075 E0.49528
G1 X108.167 Y117.075 E0.03721
G1 X115.575 Y109.667 E0.54791
