; generated by Slic3r 1.3.1-dev (Build 2d100c4) on 2020-05-15 at 06:23:40

; external perimeters extrusion width = 0.44mm (3.91mm^3/s)
; perimeters extrusion width = 0.56mm (5.65mm^3/s)
; infill extrusion width = 0.50mm (5.02mm^3/s)
; solid infill extrusion width = 0.56mm (5.65mm^3/s)
; top infill extrusion width = 0.56mm (5.65mm^3/s)

M107
M190 S60 ; set bed temperature and wait for it to be reached
M104 S215 ; set temperature
G28 ; home all axes
G92 E0.0 ; reset extruder
; Filament gcode

M109 S215 ; set temperature and wait for it to be reached
G21 ; set units to millimeters
G90 ; use absolute coordinates
M83 ; use relative distances for extrusion
G1 E-1.30000 F3600.00000
G1 Z0.300 F7800.000
G1 X65.875 Y64.139 F7800.000
G1 E1.30000 F3600.00000
M201 X500 Y500
M204 P500 T500
G1 F2160.000
G1 X68.252 Y62.388 E0.17519
G1 X71.012 Y61.335 E0.17519
G1 X73.500 Y61.049 E0.14859
G1 X106.500 Y61.049 E1.95762
G1 X109.426 Y61.447 E0.17519
G1 X112.140 Y62.613 E0.17519
G1 X114.443 Y64.461 E0.17519
G1 X116.169 Y66.857 E0.17519
G1 X117.084 Y69.189 E0.14859
G1 X125.584 Y101.189 E1.96413
G1 X125.951 Y104.000 E0.16819
G1 X125.951 Y108.000 E0.23729
G1 X125.553 Y110.926 E0.17519
G1 X124.387 Y113.640 E0.17519
G1 X122.539 Y115.943 E0.17519
G1 X120.143 Y117.669 E0.17519
G1 X117.372 Y118.691 E0.17519
G1 X115.000 Y118.951 E0.14158
G1 X65.000 Y118.951 E2.96609
G1 X62.074 Y118.553 E0.17519
G1 X59.360 Y117.387 E0.17519
G1 X57.057 Y115.539 E0.17519
G1 X55.331 Y113.143 E0.17519
G1 X54.309 Y110.372 E0.17519
G1 X54.049 Y108.000 E0.14158
G1 X54.049 Y104.000 E0.23729
G1 X54.416 Y101.189 E0.16819
G1 X62.916 Y69.189 E1.96413
G1 X64.052 Y66.463 E0.17519
G1 X65.838 Y64.187 E0.17163
G1 X66.298 Y64.393 F7800.000
G1 F2160.000
G1 X68.649 Y62.715 E0.17132
G1 X71.369 Y61.744 E0.17132
G1 X73.500 Y61.524 E0.12711
G1 X106.500 Y61.524 E1.95762
G1 X109.360 Y61.922 E0.17132
G1 X112.003 Y63.086 E0.17132
G1 X114.228 Y64.928 E0.17132
G1 X115.866 Y67.307 E0.17132
G1 X116.625 Y69.311 E0.12711
G1 X125.125 Y101.311 E1.96413
G1 X125.476 Y104.000 E0.16089
G1 X125.476 Y108.000 E0.23729
G1 X125.078 Y110.860 E0.17132
G1 X123.914 Y113.503 E0.17132
G1 X122.072 Y115.728 E0.17132
G1 X119.693 Y117.366 E0.17132
G1 X116.957 Y118.291 E0.17132
G1 X115.000 Y118.476 E0.11663
G1 X65.000 Y118.476 E2.96609
G1 X62.140 Y118.078 E0.17132
G1 X59.497 Y116.914 E0.17132
G1 X57.272 Y115.072 E0.17132
G1 X55.634 Y112.693 E0.17132
G1 X54.709 Y109.957 E0.17132
G1 X54.524 Y108.000 E0.11663
G1 X54.524 Y104.000 E0.23729
G1 X54.875 Y101.311 E0.16089
G1 X63.375 Y69.311 E1.96413
G1 X64.495 Y66.648 E0.17132
G1 X66.261 Y64.440 E0.16776
G1 F6240.000
G1 X68.088 Y63.121 E-1.23500
G1 E-0.06500 F3600.00000
G1 X97.246 Y102.746 F7800.000
G1 E1.30000 F3600.00000
G1 F1620.000
G1 X82.754 Y102.746 E0.85965
G1 X82.754 Y88.254 E0.85965
G1 X97.246 Y88.254 E0.85965
G1 X97.246 Y102.686 E0.85609
G1 X96.770 Y102.270 F7800.000
G1 F1458.000
G1 X83.230 Y102.270 E0.80322
G1 X83.230 Y88.730 E0.80322
G1 X96.770 Y88.730 E0.80322
G1 X96.770 Y102.210 E0.79966
G1 X96.874 Y102.656 F7800.000
G1 F6240.000
G1 X94.517 Y102.220 E-1.23500
G1 E-0.06500 F3600.00000
G1 X105.754 Y104.746 F7800.000
G1 E1.30000 F3600.00000
G1 F1620.000
G1 X114.254 Y104.746 E0.50424
G1 X114.254 Y107.254 E0.14882
G1 X65.746 Y107.254 E2.87763
G1 X65.746 Y104.746 E0.14882
G1 X74.246 Y104.746 E0.50424
G1 X74.246 Y72.746 E1.89830
G1 X105.754 Y72.746 E1.86916
G1 X105.754 Y104.686 E1.89474
G1 X106.230 Y104.270 F7800.000
G1 F1458.000
G1 X114.730 Y104.270 E0.50424
G1 X114.730 Y107.730 E0.20525
G1 X65.270 Y107.730 E2.93406
G1 X65.270 Y104.270 E0.20525
G1 X73.770 Y104.270 E0.50424
G1 X73.770 Y72.270 E1.89830
G1 X106.230 Y72.270 E1.92559
G1 X106.230 Y104.210 E1.89474
G1 X106.334 Y104.656 F7800.000
G1 F6240.000
G1 X108.483 Y104.226 E-1.23500
G1 E-0.06500 F3600.00000
G1 X113.728 Y106.829 F7800.000
G1 E1.30000 F3600.00000
G1 F1620.000
G1 X113.829 Y106.728 E0.00855
G1 X113.829 Y106.050 E0.04062
G1 X113.050 Y106.829 E0.06600
G1 X112.371 Y106.829 E0.04062
G1 X113.829 Y105.371 E0.12344
G1 X113.829 Y105.171 E0.01198
G1 X113.351 Y105.171 E0.02864
G1 X111.692 Y106.829 E0.14038
G1 X111.014 Y106.829 E0.04062
G1 X112.672 Y105.171 E0.14038
G1 X111.993 Y105.171 E0.04062
G1 X110.335 Y106.829 E0.14038
G1 X109.656 Y106.829 E0.04062
G1 X111.315 Y105.171 E0.14038
G1 X110.636 Y105.171 E0.04062
G1 X108.978 Y106.829 E0.14038
G1 X108.299 Y106.829 E0.04062
G1 X109.958 Y105.171 E0.14038
G1 X109.279 Y105.171 E0.04062
G1 X107.620 Y106.829 E0.14038
G1 X106.942 Y106.829 E0.04062
G1 X108.600 Y105.171 E0.14038
G1 X107.922 Y105.171 E0.04062
G1 X106.263 Y106.829 E0.14038
G1 X105.584 Y106.829 E0.04062
G1 X107.243 Y105.171 E0.14038
G1 X106.564 Y105.171 E0.04062
G1 X104.906 Y106.829 E0.14038
G1 X104.227 Y106.829 E0.04062
G1 X105.886 Y105.171 E0.14038
G1 X105.329 Y105.171 E0.03330
G1 X105.329 Y105.049 E0.00732
G1 X103.549 Y106.829 E0.15072
G1 X102.870 Y106.829 E0.04062
G1 X105.329 Y104.370 E0.20817
G1 X105.329 Y103.691 E0.04062
G1 X102.191 Y106.829 E0.26561
G1 X101.513 Y106.829 E0.04062
G1 X105.329 Y103.013 E0.32305
G1 X105.329 Y102.334 E0.04062
G1 X100.834 Y106.829 E0.38050
G1 X100.155 Y106.829 E0.04062
G1 X105.329 Y101.655 E0.43794
G1 X105.329 Y100.977 E0.04062
G1 X99.477 Y106.829 E0.49538
G1 X98.798 Y106.829 E0.04062
G1 X105.329 Y100.298 E0.55283
G1 X105.329 Y99.619 E0.04062
G1 X98.119 Y106.829 E0.61027
G1 X97.441 Y106.829 E0.04062
G1 X105.329 Y98.941 E0.66771
G1 X105.329 Y98.262 E0.04062
G1 X96.762 Y106.829 E0.72515
G1 X96.083 Y106.829 E0.04062
G1 X105.329 Y97.583 E0.78260
G1 X105.329 Y96.905 E0.04062
G1 X95.405 Y106.829 E0.84004
G1 X94.726 Y106.829 E0.04062
G1 X105.329 Y96.226 E0.89748
G1 X105.329 Y95.548 E0.04062
G1 X97.671 Y103.206 E0.64824
G1 X97.671 Y102.527 E0.04062
G1 X105.329 Y94.869 E0.64824
G1 X105.329 Y94.190 E0.04062
G1 X97.671 Y101.849 E0.64824
G1 X97.671 Y101.170 E0.04062
G1 X105.329 Y93.512 E0.64824
G1 X105.329 Y92.833 E0.04062
G1 X97.671 Y100.491 E0.64824
G1 X97.671 Y99.813 E0.04062
G1 X105.329 Y92.154 E0.64824
G1 X105.329 Y91.476 E0.04062
G1 X97.671 Y99.134 E0.64824
G1 X97.671 Y98.456 E0.04062
G1 X105.329 Y90.797 E0.64824
G1 X105.329 Y90.118 E0.04062
G1 X97.671 Y97.777 E0.64824
G1 X97.671 Y97.098 E0.04062
G1 X105.329 Y89.440 E0.64824
G1 X105.329 Y88.761 E0.04062
G1 X97.671 Y96.420 E0.64824
G1 X97.671 Y95.741 E0.04062
G1 X105.329 Y88.082 E0.64824
G1 X105.329 Y87.404 E0.04062
G1 X97.671 Y95.062 E0.64824
G1 X97.671 Y94.384 E0.04062
G1 X105.329 Y86.725 E0.64824
G1 X105.329 Y86.047 E0.04062
G1 X97.671 Y93.705 E0.64824
G1 X97.671 Y93.026 E0.04062
G1 X105.329 Y85.368 E0.64824
G1 X105.329 Y84.689 E0.04062
G1 X97.671 Y92.348 E0.64824
G1 X97.671 Y91.669 E0.04062
G1 X105.329 Y84.011 E0.64824
G1 X105.329 Y83.332 E0.04062
G1 X97.671 Y90.990 E0.64824
G1 X97.671 Y90.312 E0.04062
G1 X105.329 Y82.653 E0.64824
G1 X105.329 Y81.975 E0.04062
G1 X97.671 Y89.633 E0.64824
G1 X97.671 Y88.955 E0.04062
G1 X105.329 Y81.296 E0.64824
G1 X105.329 Y80.617 E0.04062
G1 X97.671 Y88.276 E0.64824
G1 X97.671 Y87.829 E0.02673
G1 X97.439 Y87.829 E0.01389
G1 X105.329 Y79.939 E0.66788
G1 X105.329 Y79.260 E0.04062
G1 X96.760 Y87.829 E0.72532
G1 X96.081 Y87.829 E0.04062
G1 X105.329 Y78.581 E0.78277
G1 X105.329 Y77.903 E0.04062
G1 X95.403 Y87.829 E0.84021
G1 X94.724 Y87.829 E0.04062
G1 X105.329 Y77.224 E0.89765
G1 X105.329 Y76.546 E0.04062
G1 X94.046 Y87.829 E0.95510
G1 X93.367 Y87.829 E0.04062
G1 X105.329 Y75.867 E1.01254
G1 X105.329 Y75.188 E0.04062
G1 X92.688 Y87.829 E1.06998
G1 X92.010 Y87.829 E0.04062
G1 X105.329 Y74.510 E1.12743
G1 X105.329 Y73.831 E0.04062
G1 X91.331 Y87.829 E1.18487
G1 X90.652 Y87.829 E0.04062
G1 X105.311 Y73.171 E1.24075
G1 X104.632 Y73.171 E0.04062
G1 X89.974 Y87.829 E1.24075
G1 X89.295 Y87.829 E0.04062
G1 X103.954 Y73.171 E1.24075
G1 X103.275 Y73.171 E0.04062
G1 X88.616 Y87.829 E1.24075
G1 X87.938 Y87.829 E0.04062
G1 X102.596 Y73.171 E1.24075
G1 X101.918 Y73.171 E0.04062
G1 X87.259 Y87.829 E1.24075
G1 X86.580 Y87.829 E0.04062
G1 X101.239 Y73.171 E1.24075
G1 X100.560 Y73.171 E0.04062
G1 X85.902 Y87.829 E1.24075
G1 X85.223 Y87.829 E0.04062
G1 X99.882 Y73.171 E1.24075
G1 X99.203 Y73.171 E0.04062
G1 X84.545 Y87.829 E1.24075
G1 X83.866 Y87.829 E0.04062
G1 X98.524 Y73.171 E1.24075
G1 X97.846 Y73.171 E0.04062
G1 X83.187 Y87.829 E1.24075
G1 X82.509 Y87.829 E0.04062
G1 X97.167 Y73.171 E1.24075
G1 X96.488 Y73.171 E0.04062
G1 X74.671 Y94.988 E1.84674
G1 X74.671 Y94.310 E0.04062
G1 X95.810 Y73.171 E1.78929
G1 X95.131 Y73.171 E0.04062
G1 X74.671 Y93.631 E1.73185
G1 X74.671 Y92.953 E0.04062
G1 X94.453 Y73.171 E1.67441
G1 X93.774 Y73.171 E0.04062
G1 X74.671 Y92.274 E1.61696
G1 X74.671 Y91.595 E0.04062
G1 X93.095 Y73.171 E1.55952
G1 X92.417 Y73.171 E0.04062
G1 X74.671 Y90.917 E1.50208
G1 X74.671 Y90.238 E0.04062
G1 X91.738 Y73.171 E1.44463
G1 X91.059 Y73.171 E0.04062
G1 X74.671 Y89.559 E1.38719
G1 X74.671 Y88.881 E0.04062
G1 X90.381 Y73.171 E1.32975
G1 X89.702 Y73.171 E0.04062
G1 X74.671 Y88.202 E1.27231
G1 X74.671 Y87.523 E0.04062
G1 X89.023 Y73.171 E1.21486
G1 X88.345 Y73.171 E0.04062
G1 X74.671 Y86.845 E1.15742
G1 X74.671 Y86.166 E0.04062
G1 X87.666 Y73.171 E1.09998
G1 X86.987 Y73.171 E0.04062
G1 X74.671 Y85.487 E1.04253
G1 X74.671 Y84.809 E0.04062
G1 X86.309 Y73.171 E0.98509
G1 X85.630 Y73.171 E0.04062
G1 X74.671 Y84.130 E0.92765
G1 X74.671 Y83.452 E0.04062
G1 X84.952 Y73.171 E0.87020
G1 X84.273 Y73.171 E0.04062
G1 X74.671 Y82.773 E0.81276
G1 X74.671 Y82.094 E0.04062
G1 X83.594 Y73.171 E0.75532
G1 X82.916 Y73.171 E0.04062
G1 X74.671 Y81.416 E0.69787
G1 X74.671 Y80.737 E0.04062
G1 X82.237 Y73.171 E0.64043
G1 X81.558 Y73.171 E0.04062
G1 X74.671 Y80.058 E0.58299
G1 X74.671 Y79.380 E0.04062
G1 X80.880 Y73.171 E0.52554
G1 X80.201 Y73.171 E0.04062
G1 X74.671 Y78.701 E0.46810
G1 X74.671 Y78.022 E0.04062
G1 X79.522 Y73.171 E0.41066
G1 X78.844 Y73.171 E0.04062
G1 X74.671 Y77.344 E0.35322
G1 X74.671 Y76.665 E0.04062
G1 X78.165 Y73.171 E0.29577
G1 X77.486 Y73.171 E0.04062
G1 X74.671 Y75.986 E0.23833
G1 X74.671 Y75.308 E0.04062
G1 X76.808 Y73.171 E0.18089
G1 X76.129 Y73.171 E0.04062
G1 X74.671 Y74.629 E0.12344
G1 X74.671 Y73.951 E0.04062
G1 X75.451 Y73.171 E0.06600
G1 X74.772 Y73.171 E0.04062
G1 X74.671 Y73.272 E0.00854
G1 F6240.000
G1 X74.772 Y73.171 E-0.07820
G1 F6240.000
G1 X75.451 Y73.171 E-0.37195
G1 F6240.000
G1 X74.671 Y73.951 E-0.60437
G1 F6240.000
G1 X74.671 Y74.280 E-0.18048
G1 E-0.06500 F3600.00000
G1 X74.671 Y94.988 F7800.000
G1 E1.30000 F3600.00000
G1 F1620.000
G1 X74.671 Y95.667 E0.04062
G1 X82.329 Y88.009 E0.64824
G1 X82.329 Y88.687 E0.04062
G1 X74.671 Y96.346 E0.64824
G1 X74.671 Y97.024 E0.04062
G1 X82.329 Y89.366 E0.64824
G1 X82.329 Y90.045 E0.04062
G1 X74.671 Y97.703 E0.64824
G1 X74.671 Y98.382 E0.04062
G1 X82.329 Y90.723 E0.64824
G1 X82.329 Y91.402 E0.04062
G1 X74.671 Y99.060 E0.64824
G1 X74.671 Y99.739 E0.04062
G1 X82.329 Y92.080 E0.64824
G1 X82.329 Y92.759 E0.04062
G1 X74.671 Y100.418 E0.64824
G1 X74.671 Y101.096 E0.04062
G1 X82.329 Y93.438 E0.64824
G1 X82.329 Y94.116 E0.04062
G1 X74.671 Y101.775 E0.64824
G1 X74.671 Y102.454 E0.04062
G1 X82.329 Y94.795 E0.64824
G1 X82.329 Y95.474 E0.04062
G1 X74.671 Y103.132 E0.64824
G1 X74.671 Y103.811 E0.04062
G1 X82.329 Y96.152 E0.64824
G1 X82.329 Y96.831 E0.04062
G1 X74.671 Y104.489 E0.64824
G1 X74.671 Y105.168 E0.04062
G1 X82.329 Y97.510 E0.64824
G1 X82.329 Y98.188 E0.04062
G1 X73.688 Y106.829 E0.73141
G1 X74.367 Y106.829 E0.04062
G1 X82.329 Y98.867 E0.67396
G1 X82.329 Y99.546 E0.04062
G1 X75.046 Y106.829 E0.61652
G1 X75.724 Y106.829 E0.04062
G1 X82.329 Y100.224 E0.55908
G1 X82.329 Y100.903 E0.04062
G1 X76.403 Y106.829 E0.50163
G1 X77.081 Y106.829 E0.04062
G1 X82.329 Y101.581 E0.44419
G1 X82.329 Y102.260 E0.04062
G1 X77.760 Y106.829 E0.38675
G1 X78.439 Y106.829 E0.04062
G1 X82.329 Y102.939 E0.32931
G1 X82.329 Y103.171 E0.01389
G1 X82.776 Y103.171 E0.02673
G1 X79.117 Y106.829 E0.30967
G1 X79.796 Y106.829 E0.04062
G1 X83.455 Y103.171 E0.30967
G1 X84.133 Y103.171 E0.04062
G1 X80.475 Y106.829 E0.30967
G1 X81.153 Y106.829 E0.04062
G1 X84.812 Y103.171 E0.30967
G1 X85.490 Y103.171 E0.04062
G1 X81.832 Y106.829 E0.30967
G1 X82.511 Y106.829 E0.04062
G1 X86.169 Y103.171 E0.30967
G1 X86.848 Y103.171 E0.04062
G1 X83.189 Y106.829 E0.30967
G1 X83.868 Y106.829 E0.04062
G1 X87.526 Y103.171 E0.30967
G1 X88.205 Y103.171 E0.04062
G1 X84.547 Y106.829 E0.30967
G1 X85.225 Y106.829 E0.04062
G1 X88.884 Y103.171 E0.30967
G1 X89.562 Y103.171 E0.04062
G1 X85.904 Y106.829 E0.30967
G1 X86.582 Y106.829 E0.04062
G1 X90.241 Y103.171 E0.30967
G1 X90.920 Y103.171 E0.04062
G1 X87.261 Y106.829 E0.30967
G1 X87.940 Y106.829 E0.04062
G1 X91.598 Y103.171 E0.30967
G1 X92.277 Y103.171 E0.04062
G1 X88.618 Y106.829 E0.30967
G1 X89.297 Y106.829 E0.04062
G1 X92.956 Y103.171 E0.30967
G1 X93.634 Y103.171 E0.04062
G1 X89.976 Y106.829 E0.30967
G1 X90.654 Y106.829 E0.04062
G1 X94.313 Y103.171 E0.30967
G1 X94.991 Y103.171 E0.04062
G1 X91.333 Y106.829 E0.30967
G1 X92.012 Y106.829 E0.04062
G1 X95.670 Y103.171 E0.30967
G1 X96.349 Y103.171 E0.04062
G1 X92.690 Y106.829 E0.30967
G1 X93.369 Y106.829 E0.04062
G1 X97.027 Y103.171 E0.30967
G1 X97.706 Y103.171 E0.04062
G1 X94.048 Y106.829 E0.30967
G1 F6240.000
G1 X95.641 Y105.236 E-1.23500
G1 E-0.06500 F3600.00000
G1 X73.010 Y106.829 F7800.000
G1 E1.30000 F3600.00000
G1 F1620.000
G1 X74.668 Y105.171 E0.14038
G1 X73.989 Y105.171 E0.04062
G1 X72.331 Y106.829 E0.14038
G1 X71.652 Y106.829 E0.04062
G1 X73.311 Y105.171 E0.14038
G1 X72.632 Y105.171 E0.04062
G1 X70.974 Y106.829 E0.14038
G1 X70.295 Y106.829 E0.04062
G1 X71.954 Y105.171 E0.14038
G1 X71.275 Y105.171 E0.04062
G1 X69.616 Y106.829 E0.14038
G1 X68.938 Y106.829 E0.04062
G1 X70.596 Y105.171 E0.14038
G1 X69.918 Y105.171 E0.04062
G1 X68.259 Y106.829 E0.14038
G1 X67.580 Y106.829 E0.04062
G1 X69.239 Y105.171 E0.14038
G1 X68.560 Y105.171 E0.04062
G1 X66.902 Y106.829 E0.14038
G1 X66.223 Y106.829 E0.04062
G1 X67.882 Y105.171 E0.14038
G1 X67.203 Y105.171 E0.04062
G1 X66.171 Y106.203 E0.08737
G1 X66.171 Y105.524 E0.04062
G1 X66.524 Y105.171 E0.02993
M106 S255
M140 S50 ; set bed temperature
G1 F6240.000
G1 X66.171 Y105.524 E-0.27406
G1 F6240.000
G1 X66.171 Y106.203 E-0.37195
G1 F6240.000
G1 X66.931 Y105.443 E-0.58899
G1 E-0.06500 F3600.00000
G1 Z0.550 F7800.000
G1 X97.165 Y102.665 F7800.000
G1 E1.30000 F3600.00000
G1 F2700.000
G1 X82.835 Y102.665 E0.74862
G1 X82.835 Y88.335 E0.74862
G1 X97.165 Y88.335 E0.74862
G1 X97.165 Y102.605 E0.74548
G1 X96.720 Y102.220 F7800.000
G1 F2430.000
G1 X83.280 Y102.220 E0.53970
G1 X83.280 Y88.780 E0.53970
G1 X96.720 Y88.780 E0.53970
G1 X96.720 Y102.160 E0.53729
G1 X96.824 Y102.606 F7800.000
G1 X105.835 Y104.665 F7800.000
G1 F2700.000
G1 X114.335 Y104.665 E0.44408
G1 X114.335 Y107.335 E0.13955
G1 X65.665 Y107.335 E2.54281
G1 X65.665 Y104.665 E0.13955
G1 X74.165 Y104.665 E0.44408
G1 X74.165 Y72.665 E1.67184
G1 X105.835 Y72.665 E1.65465
G1 X105.835 Y104.605 E1.66870
G1 X106.280 Y104.220 F7800.000
G1 F2430.000
G1 X114.780 Y104.220 E0.34133
G1 X114.780 Y107.780 E0.14296
G1 X65.220 Y107.780 E1.99015
G1 X65.220 Y104.220 E0.14296
G1 X73.720 Y104.220 E0.34133
G1 X73.720 Y72.220 E1.28500
G1 X106.280 Y72.220 E1.30749
G1 X106.280 Y104.160 E1.28259
G1 X106.385 Y104.606 F7800.000
G1 X106.920 Y106.886 F7800.000
G1 F2700.000
G1 X107.634 Y106.886 E0.03747
G1 X105.862 Y105.114 E0.13154
G1 X106.576 Y105.114 E0.03747
G1 X108.348 Y106.886 E0.13154
G1 X109.062 Y106.886 E0.03747
G1 X107.290 Y105.114 E0.13154
G1 X108.004 Y105.114 E0.03747
G1 X109.777 Y106.886 E0.13154
G1 X110.491 Y106.886 E0.03747
G1 X108.718 Y105.114 E0.13154
G1 X109.432 Y105.114 E0.03747
G1 X111.205 Y106.886 E0.13154
G1 X111.919 Y106.886 E0.03747
G1 X110.146 Y105.114 E0.13154
G1 X110.860 Y105.114 E0.03747
G1 X112.633 Y106.886 E0.13154
G1 X113.347 Y106.886 E0.03747
G1 X111.574 Y105.114 E0.13154
G1 X112.288 Y105.114 E0.03747
G1 X113.886 Y106.712 E0.11858
G1 X113.886 Y105.998 E0.03747
G1 X113.002 Y105.114 E0.06559
G1 X113.716 Y105.114 E0.03747
G1 X113.886 Y105.284 E0.01260
G1 F6240.000
G1 X113.716 Y105.114 E-0.13160
G1 F6240.000
G1 X113.002 Y105.114 E-0.39134
G1 F6240.000
G1 X113.886 Y105.998 E-0.68505
G1 F6240.000
G1 X113.886 Y106.047 E-0.02700
