; generated by Slic3r 1.3.1-dev (Build 2d100c4) on 2020-05-07 at 12:47:13

; external perimeters extrusion width = 0.44mm (3.91mm^3/s)
; perimeters extrusion width = 0.56mm (5.65mm^3/s)
; infill extrusion width = 0.50mm (5.02mm^3/s)
; solid infill extrusion width = 0.56mm (5.65mm^3/s)
; top infill extrusion width = 0.56mm (5.65mm^3/s)

M107
M190 S60 ; set bed temperature and wait for it to be reached
M104 S215 ; set temperature
G28 ; home all axes
G92 E0.0 ; reset extruder
; Filament gcode

M109 S215 ; set temperature and wait for it to be reached
G21 ; set units to millimeters
G90 ; use absolute coordinates
M83 ; use relative distances for extrusion
G1 E-1.30000 F3600.00000
G1 Z0.300 F7800.000
G1 X64.534 Y77.616 F7800.000
G1 E1.30000 F3600.00000
M201 X500 Y500
M204 P500 T500
G1 F2160.000
G1 X79.448 Y66.866 E1.09059
G1 X82.054 Y65.478 E0.17519
G1 X85.851 Y64.799 E0.22882
G1 X94.149 Y64.799 E0.49220
G1 X97.075 Y65.197 E0.17519
G1 X100.552 Y66.866 E0.22882
G1 X115.466 Y77.616 E1.09059
G1 X117.607 Y79.650 E0.17519
G1 X119.126 Y82.182 E0.17519
G1 X120.013 Y86.500 E0.26148
G1 X120.013 Y93.500 E0.41525
G1 X119.615 Y96.426 E0.17519
G1 X118.450 Y99.140 E0.17519
G1 X115.466 Y102.384 E0.26148
G1 X100.552 Y113.134 E1.09059
G1 X97.946 Y114.522 E0.17519
G1 X94.149 Y115.201 E0.22882
G1 X85.851 Y115.201 E0.49220
G1 X82.925 Y114.803 E0.17519
G1 X79.448 Y113.134 E0.22882
G1 X64.534 Y102.384 E1.09059
G1 X62.393 Y100.350 E0.17519
G1 X60.874 Y97.818 E0.17519
G1 X59.987 Y93.500 E0.26148
G1 X59.987 Y86.500 E0.41525
G1 X60.385 Y83.574 E0.17519
G1 X61.550 Y80.860 E0.17519
G1 X64.494 Y77.660 E0.25792
G1 X64.812 Y78.002 F7800.000
G1 F2160.000
G1 X79.726 Y67.252 E1.09059
G1 X82.279 Y65.902 E0.17132
G1 X85.851 Y65.274 E0.21516
G1 X94.149 Y65.274 E0.49220
G1 X97.009 Y65.672 E0.17132
G1 X100.274 Y67.252 E0.21516
G1 X115.188 Y78.002 E1.09059
G1 X117.275 Y79.998 E0.17132
G1 X118.739 Y82.487 E0.17132
G1 X119.538 Y86.500 E0.24272
G1 X119.538 Y93.500 E0.41525
G1 X119.140 Y96.360 E0.17132
G1 X117.976 Y99.003 E0.17132
G1 X115.188 Y101.998 E0.24272
G1 X100.274 Y112.748 E1.09059
G1 X97.721 Y114.098 E0.17132
G1 X94.149 Y114.726 E0.21516
G1 X85.851 Y114.726 E0.49220
G1 X82.991 Y114.328 E0.17132
G1 X79.726 Y112.748 E0.21516
G1 X64.812 Y101.998 E1.09059
G1 X62.725 Y100.002 E0.17132
G1 X61.261 Y97.513 E0.17132
G1 X60.462 Y93.500 E0.24272
G1 X60.462 Y86.500 E0.41525
G1 X60.860 Y83.640 E0.17132
G1 X62.024 Y80.997 E0.17132
G1 X64.771 Y78.046 E0.23916
G1 F6240.000
G1 X66.599 Y76.727 E-1.23500
G1 E-0.06500 F3600.00000
G1 X77.846 Y91.846 F7800.000
G1 E1.30000 F3600.00000
G1 F1080.000
G1 X76.999 Y92.412 E0.06041
G1 X76.000 Y92.610 E0.06042
G1 X75.001 Y92.412 E0.06042
G1 X74.154 Y91.846 E0.06041
G1 X73.588 Y90.999 E0.06042
G1 X73.390 Y90.000 E0.06042
G1 X73.588 Y89.001 E0.06042
G1 X74.154 Y88.154 E0.06042
G1 X75.001 Y87.588 E0.06041
G1 X76.000 Y87.390 E0.06042
G1 X76.999 Y87.588 E0.06042
G1 X77.846 Y88.154 E0.06041
G1 X78.412 Y89.001 E0.06042
G1 X78.610 Y90.000 E0.06042
G1 X78.412 Y90.999 E0.06042
G1 X77.879 Y91.796 E0.05686
G1 X77.503 Y91.503 F7800.000
G1 F1080.000
G1 X76.813 Y91.964 E0.04919
G1 X76.000 Y92.125 E0.04919
G1 X75.187 Y91.964 E0.04920
G1 X74.497 Y91.503 E0.04919
G1 X74.036 Y90.813 E0.04919
G1 X73.875 Y90.000 E0.04919
G1 X74.036 Y89.187 E0.04919
G1 X74.497 Y88.497 E0.04919
G1 X75.187 Y88.036 E0.04919
G1 X76.000 Y87.875 E0.04919
G1 X76.813 Y88.036 E0.04919
G1 X77.503 Y88.497 E0.04919
G1 X77.964 Y89.187 E0.04919
G1 X78.125 Y90.000 E0.04919
G1 X77.964 Y90.813 E0.04919
G1 X77.536 Y91.453 E0.04564
G1 X77.503 Y91.503 F7800.000
G1 F6240.000
G1 X77.503 Y91.503 E-0.03288
G1 F6240.000
G1 X76.813 Y91.964 E-0.45445
G1 F6240.000
G1 X76.000 Y92.125 E-0.45451
G1 F6240.000
G1 X75.475 Y92.021 E-0.29315
G1 E-0.06500 F3600.00000
G1 X83.605 Y92.496 F7800.000
G1 E1.30000 F3600.00000
G1 F1080.000
G1 X83.605 Y87.104 E0.31982
G1 X85.188 Y87.104 E0.09389
G1 X86.506 Y87.240 E0.07857
G1 X88.281 Y87.352 E0.10556
G1 X90.000 Y87.388 E0.10197
G1 X91.719 Y87.352 E0.10197
G1 X93.494 Y87.240 E0.10556
G1 X94.812 Y87.104 E0.07857
G1 X96.395 Y87.104 E0.09389
G1 X96.395 Y92.496 E0.31982
G1 X83.665 Y92.496 E0.75514
G1 X84.081 Y92.020 F7800.000
G1 F1080.000
G1 X84.081 Y87.580 E0.26339
G1 X85.163 Y87.580 E0.06423
G1 X86.466 Y87.714 E0.07769
G1 X88.262 Y87.827 E0.10671
G1 X90.000 Y87.863 E0.10315
G1 X91.738 Y87.827 E0.10315
G1 X93.534 Y87.714 E0.10671
G1 X94.837 Y87.580 E0.07769
G1 X95.919 Y87.580 E0.06423
G1 X95.919 Y92.020 E0.26339
G1 X84.141 Y92.020 E0.69872
G1 X83.684 Y92.068 F7800.000
G1 F6240.000
G1 X84.110 Y89.767 E-1.23500
G1 E-0.06500 F3600.00000
G1 X101.390 Y90.000 F7800.000
G1 E1.30000 F3600.00000
G1 F1080.000
G1 X101.588 Y89.001 E0.06042
G1 X102.154 Y88.154 E0.06042
G1 X103.001 Y87.588 E0.06041
G1 X104.000 Y87.390 E0.06042
G1 X104.999 Y87.588 E0.06042
G1 X105.846 Y88.154 E0.06041
G1 X106.412 Y89.001 E0.06042
G1 X106.610 Y90.000 E0.06042
G1 X106.412 Y90.999 E0.06042
G1 X105.846 Y91.846 E0.06042
G1 X104.999 Y92.412 E0.06041
G1 X104.000 Y92.610 E0.06042
G1 X103.001 Y92.412 E0.06042
G1 X102.154 Y91.846 E0.06041
G1 X101.588 Y90.999 E0.06042
G1 X101.401 Y90.059 E0.05686
G1 X101.875 Y90.000 F7800.000
G1 F1080.000
G1 X102.036 Y89.187 E0.04919
G1 X102.497 Y88.497 E0.04919
G1 X103.187 Y88.036 E0.04919
G1 X104.000 Y87.875 E0.04919
G1 X104.813 Y88.036 E0.04919
G1 X105.503 Y88.497 E0.04919
G1 X105.964 Y89.187 E0.04919
G1 X106.125 Y90.000 E0.04919
G1 X105.964 Y90.813 E0.04919
G1 X105.503 Y91.503 E0.04919
G1 X104.813 Y91.964 E0.04919
G1 X104.000 Y92.125 E0.04920
G1 X103.187 Y91.964 E0.04919
G1 X102.497 Y91.503 E0.04919
G1 X102.036 Y90.813 E0.04919
G1 X101.886 Y90.059 E0.04563
G1 X101.875 Y90.000 F7800.000
G1 F6240.000
G1 X101.875 Y90.000 E-0.03288
G1 F6240.000
G1 X102.036 Y89.187 E-0.45449
G1 F6240.000
G1 X102.497 Y88.497 E-0.45451
G1 F6240.000
G1 X102.942 Y88.200 E-0.29311
G1 E-0.06500 F3600.00000
G1 X99.254 Y96.254 F7800.000
G1 E1.30000 F3600.00000
G1 F1620.000
G1 X99.254 Y98.090 E0.10887
G1 X93.840 Y103.504 E0.45426
G1 X86.160 Y103.504 E0.45556
G1 X80.746 Y98.090 E0.45426
G1 X80.746 Y96.254 E0.10887
G1 X77.200 Y96.254 E0.21035
G1 X71.683 Y93.070 E0.37787
G1 X71.683 Y86.930 E0.36418
G1 X77.200 Y83.746 E0.37787
G1 X80.746 Y83.746 E0.21035
G1 X80.746 Y81.910 E0.10887
G1 X86.160 Y76.496 E0.45426
G1 X93.840 Y76.496 E0.45556
G1 X99.254 Y81.910 E0.45426
G1 X99.254 Y83.746 E0.10887
G1 X102.800 Y83.746 E0.21035
G1 X108.317 Y86.930 E0.37787
G1 X108.317 Y93.070 E0.36418
G1 X102.800 Y96.254 E0.37787
G1 X99.314 Y96.254 E0.20679
G1 X99.730 Y96.730 F7800.000
G1 F1458.000
G1 X99.730 Y98.287 E0.09235
G1 X94.037 Y103.980 E0.47763
G1 X85.963 Y103.980 E0.47893
G1 X80.270 Y98.287 E0.47763
G1 X80.270 Y96.730 E0.09235
G1 X77.072 Y96.730 E0.18969
G1 X71.208 Y93.344 E0.40172
G1 X71.208 Y86.656 E0.39676
G1 X77.072 Y83.270 E0.40172
G1 X80.270 Y83.270 E0.18969
G1 X80.270 Y81.713 E0.09235
G1 X85.963 Y76.020 E0.47763
G1 X94.037 Y76.020 E0.47893
G1 X99.730 Y81.713 E0.47763
G1 X99.730 Y83.270 E0.09235
G1 X102.928 Y83.270 E0.18969
G1 X108.792 Y86.656 E0.40172
G1 X108.792 Y93.344 E0.39676
G1 X102.928 Y96.730 E0.40172
G1 X99.790 Y96.730 E0.18613
G1 X99.333 Y96.778 F7800.000
G1 X98.829 Y96.394 F7800.000
G1 F1620.000
G1 X92.144 Y103.079 E0.56416
G1 X92.820 Y103.079 E0.04037
G1 X98.829 Y97.070 E0.50706
G1 X98.829 Y97.747 E0.04037
G1 X93.497 Y103.079 E0.44997
G1 F6240.000
G1 X95.090 Y101.486 E-1.23500
G1 E-0.06500 F3600.00000
G1 X96.820 Y92.990 F7800.000
G1 E1.30000 F3600.00000
G1 F1620.000
G1 X101.484 Y88.326 E0.39358
G1 F6240.000
G1 X99.891 Y89.920 E-1.23500
G1 E-0.06500 F3600.00000
G1 X106.838 Y91.092 F7800.000
G1 E1.30000 F3600.00000
G1 F1620.000
G1 X107.891 Y90.038 E0.08893
G1 X107.891 Y89.361 E0.04037
G1 X107.006 Y90.247 E0.07476
G1 X107.045 Y90.050 E0.01198
G1 X106.959 Y89.618 E0.02633
G1 X107.891 Y88.685 E0.07872
G1 X107.891 Y88.008 E0.04037
G1 X106.846 Y89.053 E0.08819
G1 X106.809 Y88.866 E0.01140
G1 X106.628 Y88.595 E0.01944
G1 X107.891 Y87.332 E0.10661
G1 X107.891 Y87.155 E0.01057
G1 X107.575 Y86.972 E0.02182
G1 X106.357 Y88.189 E0.10276
G1 X106.138 Y87.862 E0.02351
G1 X106.060 Y87.810 E0.00559
G1 X107.146 Y86.724 E0.09161
G1 X106.717 Y86.476 E0.02955
G1 X105.655 Y87.539 E0.08964
G1 X105.249 Y87.268 E0.02911
G1 X106.288 Y86.229 E0.08767
G1 X105.859 Y85.981 E0.02955
G1 X104.730 Y87.110 E0.09530
G1 X104.165 Y86.998 E0.03433
G1 X105.430 Y85.734 E0.10672
G1 X105.001 Y85.486 E0.02955
G1 X103.428 Y87.059 E0.13275
G1 X102.765 Y87.191 E0.04033
G1 X102.326 Y87.484 E0.03147
G1 X104.572 Y85.238 E0.18951
G1 X104.143 Y84.991 E0.02955
G1 X96.820 Y92.314 E0.61799
G1 X96.820 Y91.637 E0.04037
G1 X103.714 Y84.743 E0.58179
G1 X103.285 Y84.495 E0.02955
G1 X96.820 Y90.961 E0.54560
G1 X96.820 Y90.284 E0.04037
G1 X102.856 Y84.248 E0.50940
G1 X102.723 Y84.171 E0.00918
G1 X102.257 Y84.171 E0.02783
G1 X96.820 Y89.608 E0.45880
G1 X96.820 Y88.931 E0.04037
G1 X101.580 Y84.171 E0.40170
G1 X100.904 Y84.171 E0.04037
G1 X96.820 Y88.254 E0.34461
G1 X96.820 Y87.578 E0.04037
G1 X100.227 Y84.171 E0.28751
G1 X99.550 Y84.171 E0.04037
G1 X96.820 Y86.901 E0.23042
G1 X96.820 Y86.679 E0.01325
G1 X96.365 Y86.679 E0.02712
G1 X98.874 Y84.171 E0.21168
G1 X98.829 Y84.171 E0.00266
G1 X98.829 Y83.539 E0.03771
G1 X95.689 Y86.679 E0.26501
G1 X95.012 Y86.679 E0.04037
G1 X98.829 Y82.862 E0.32211
G1 X98.829 Y82.186 E0.04037
G1 X94.289 Y86.725 E0.38310
G1 X93.535 Y86.803 E0.04526
G1 X98.555 Y81.783 E0.42365
G1 X98.217 Y81.445 E0.02855
G1 X92.808 Y86.854 E0.45649
G1 X92.086 Y86.899 E0.04315
G1 X97.879 Y81.106 E0.48885
G1 X97.540 Y80.768 E0.02855
G1 X91.376 Y86.932 E0.52019
G1 X90.685 Y86.947 E0.04125
G1 X97.202 Y80.430 E0.54996
G1 X96.864 Y80.092 E0.02855
G1 X89.994 Y86.961 E0.57973
G1 X89.330 Y86.949 E0.03966
G1 X96.526 Y79.753 E0.60726
G1 X96.187 Y79.415 E0.02855
G1 X88.667 Y86.935 E0.63463
G1 X88.014 Y86.912 E0.03899
G1 X95.849 Y79.077 E0.66119
G1 X95.511 Y78.738 E0.02855
G1 X87.377 Y86.872 E0.68637
G1 X86.740 Y86.832 E0.03807
G1 X95.172 Y78.400 E0.71156
G1 X94.834 Y78.062 E0.02855
G1 X86.118 Y86.778 E0.73553
G1 X85.505 Y86.715 E0.03679
G1 X94.496 Y77.723 E0.75874
G1 X94.158 Y77.385 E0.02855
G1 X84.863 Y86.679 E0.78430
G1 X84.187 Y86.679 E0.04037
G1 X93.819 Y77.047 E0.81285
G1 X93.693 Y76.921 E0.01064
G1 X93.269 Y76.921 E0.02532
G1 X83.510 Y86.679 E0.82349
G1 X83.079 Y86.679 E0.02573
G1 X83.079 Y87.110 E0.02573
G1 F6240.000
G1 X83.079 Y86.679 E-0.23632
G1 F6240.000
G1 X83.510 Y86.679 E-0.23632
G1 F6240.000
G1 X84.494 Y85.696 E-0.76236
G1 E-0.06500 F3600.00000
G1 X77.405 Y87.372 F7800.000
G1 E1.30000 F3600.00000
G1 F1620.000
G1 X80.606 Y84.171 E0.27014
G1 X79.930 Y84.171 E0.04037
G1 X76.947 Y87.154 E0.25171
G1 X76.382 Y87.041 E0.03433
G1 X79.253 Y84.171 E0.24224
G1 X78.576 Y84.171 E0.04037
G1 X75.753 Y86.994 E0.23828
G1 X74.908 Y87.162 E0.05138
G1 X77.900 Y84.171 E0.25246
G1 X77.378 Y84.171 E0.03116
G1 X77.012 Y84.382 E0.02518
G1 X72.109 Y89.285 E0.41381
G1 X72.109 Y88.609 E0.04037
G1 X75.411 Y85.306 E0.27872
G1 X73.811 Y86.230 E0.11030
G1 X72.109 Y87.932 E0.14363
G1 X72.109 Y87.256 E0.04037
G1 X72.210 Y87.154 E0.00854
G1 X73.162 Y88.908 F7800.000
G1 F1620.000
G1 X72.109 Y89.962 E0.08893
G1 X72.109 Y90.639 E0.04037
G1 X72.994 Y89.753 E0.07476
G1 X72.955 Y89.950 E0.01198
G1 X73.041 Y90.382 E0.02633
G1 X72.109 Y91.315 E0.07872
G1 X72.109 Y91.992 E0.04037
G1 X73.154 Y90.947 E0.08819
G1 X73.191 Y91.134 E0.01140
G1 X73.372 Y91.405 E0.01944
G1 X72.109 Y92.668 E0.10661
G1 X72.109 Y92.845 E0.01056
G1 X72.425 Y93.028 E0.02182
G1 X73.643 Y91.811 E0.10276
G1 X73.862 Y92.138 E0.02351
G1 X73.940 Y92.190 E0.00559
G1 X72.854 Y93.276 E0.09161
G1 X73.283 Y93.524 E0.02955
G1 X74.345 Y92.461 E0.08964
G1 X74.751 Y92.732 E0.02911
G1 X73.712 Y93.771 E0.08767
G1 X74.141 Y94.019 E0.02955
G1 X75.270 Y92.890 E0.09530
G1 X75.835 Y93.002 E0.03433
G1 X74.570 Y94.266 E0.10672
G1 X74.999 Y94.514 E0.02955
G1 X76.572 Y92.941 E0.13275
G1 X77.235 Y92.809 E0.04033
G1 X77.674 Y92.516 E0.03148
G1 X75.428 Y94.762 E0.18951
G1 F6240.000
G1 X77.021 Y93.168 E-1.23500
G1 E-0.06500 F3600.00000
G1 X86.402 Y77.022 F7800.000
G1 E1.30000 F3600.00000
G1 F1620.000
G1 X86.307 Y77.022 E0.00568
G1 X81.171 Y82.158 E0.43342
G1 X81.171 Y82.253 E0.00568
G1 X86.503 Y76.921 E0.44997
G1 X87.180 Y76.921 E0.04037
G1 X81.171 Y82.930 E0.50706
G1 X81.171 Y83.606 E0.04037
G1 X87.856 Y76.921 E0.56416
G1 X88.533 Y76.921 E0.04037
G1 X77.811 Y87.643 E0.90481
G1 X78.138 Y87.862 E0.02351
G1 X78.190 Y87.940 E0.00560
G1 X89.209 Y76.921 E0.92987
G1 X89.886 Y76.921 E0.04037
G1 X78.461 Y88.345 E0.96409
G1 X78.732 Y88.751 E0.02911
G1 X90.562 Y76.921 E0.99832
G1 X91.239 Y76.921 E0.04037
G1 X78.890 Y89.270 E1.04214
G1 X79.002 Y89.835 E0.03433
G1 X91.916 Y76.921 E1.08976
G1 X92.592 Y76.921 E0.04037
G1 X78.941 Y90.572 E1.15199
G1 X78.809 Y91.235 E0.04033
G1 X78.516 Y91.674 E0.03148
G1 X83.180 Y87.010 E0.39359
G1 X83.180 Y87.686 E0.04037
G1 X75.857 Y95.009 E0.61799
G1 X76.286 Y95.257 E0.02955
G1 X83.180 Y88.363 E0.58179
G1 X83.180 Y89.039 E0.04037
G1 X76.715 Y95.505 E0.54560
G1 X77.144 Y95.752 E0.02955
G1 X83.180 Y89.716 E0.50940
G1 X83.180 Y90.392 E0.04037
G1 X77.743 Y95.829 E0.45880
G1 X78.420 Y95.829 E0.04037
G1 X83.180 Y91.069 E0.40170
G1 X83.180 Y91.746 E0.04037
G1 X79.096 Y95.829 E0.34461
G1 X79.773 Y95.829 E0.04037
G1 X83.180 Y92.422 E0.28751
G1 X83.180 Y92.921 E0.02975
G1 X83.358 Y92.921 E0.01062
G1 X80.450 Y95.829 E0.24544
G1 X81.126 Y95.829 E0.04037
G1 X84.035 Y92.921 E0.24544
G1 X84.711 Y92.921 E0.04037
G1 X81.171 Y96.461 E0.29877
G1 X81.171 Y97.138 E0.04037
G1 X85.388 Y92.921 E0.35586
G1 X86.064 Y92.921 E0.04037
G1 X81.171 Y97.814 E0.41296
G1 X81.171 Y97.943 E0.00768
G1 X81.445 Y98.217 E0.02311
G1 X86.741 Y92.921 E0.44694
G1 X87.418 Y92.921 E0.04037
G1 X81.783 Y98.555 E0.47548
G1 X82.121 Y98.894 E0.02855
G1 X88.094 Y92.921 E0.50403
G1 X88.771 Y92.921 E0.04037
G1 X82.460 Y99.232 E0.53258
G1 X82.798 Y99.570 E0.02855
G1 X89.447 Y92.921 E0.56113
G1 X90.124 Y92.921 E0.04037
G1 X83.136 Y99.908 E0.58967
G1 X83.474 Y100.247 E0.02855
G1 X90.800 Y92.921 E0.61822
G1 X91.477 Y92.921 E0.04037
G1 X83.813 Y100.585 E0.64677
G1 X84.151 Y100.923 E0.02855
G1 X92.154 Y92.921 E0.67532
G1 X92.830 Y92.921 E0.04037
G1 X84.489 Y101.262 E0.70386
G1 X84.828 Y101.600 E0.02855
G1 X93.507 Y92.921 E0.73241
G1 X94.183 Y92.921 E0.04037
G1 X85.166 Y101.938 E0.76096
G1 X85.504 Y102.277 E0.02855
G1 X94.860 Y92.921 E0.78951
G1 X95.537 Y92.921 E0.04037
G1 X85.842 Y102.615 E0.81805
G1 X86.181 Y102.953 E0.02855
G1 X96.213 Y92.921 E0.84660
G1 X96.890 Y92.921 E0.04037
G1 X86.731 Y103.079 E0.85724
G1 X87.408 Y103.079 E0.04037
G1 X101.059 Y89.428 E1.15199
G1 X100.955 Y89.950 E0.03173
G1 X100.998 Y90.165 E0.01313
G1 X88.084 Y103.079 E1.08976
G1 X88.761 Y103.079 E0.04037
G1 X101.110 Y90.730 E1.04214
G1 X101.191 Y91.134 E0.02460
G1 X101.268 Y91.249 E0.00825
G1 X89.438 Y103.079 E0.99832
G1 X90.114 Y103.079 E0.04037
G1 X101.539 Y91.655 E0.96409
G1 X101.810 Y92.060 E0.02911
G1 X90.791 Y103.079 E0.92987
G1 X91.467 Y103.079 E0.04037
G1 X102.189 Y92.357 E0.90481
G1 X102.595 Y92.628 E0.02911
G1 X99.394 Y95.829 E0.27014
G1 X100.070 Y95.829 E0.04037
G1 X103.053 Y92.846 E0.25172
G1 X103.618 Y92.959 E0.03433
G1 X100.747 Y95.829 E0.24224
G1 X101.424 Y95.829 E0.04037
G1 X104.247 Y93.006 E0.23828
G1 X105.092 Y92.838 E0.05138
G1 X102.100 Y95.829 E0.25246
G1 X102.622 Y95.829 E0.03116
G1 X102.988 Y95.618 E0.02518
G1 X107.891 Y90.715 E0.41380
G1 X107.891 Y91.391 E0.04037
G1 X104.589 Y94.694 E0.27872
G1 X106.189 Y93.770 E0.11030
G1 X107.891 Y92.068 E0.14363
G1 X107.891 Y92.744 E0.04037
G1 X107.790 Y92.846 E0.00854
M106 S255
M140 S50 ; set bed temperature
G1 F6240.000
G1 X107.891 Y92.744 E-0.07846
G1 F6240.000
G1 X107.891 Y92.068 E-0.37082
G1 F6240.000
G1 X106.878 Y93.081 E-0.78572
G1 E-0.06500 F3600.00000
G1 Z0.550 F7800.000
G1 X78.335 Y90.967 F7800.000
G1 E1.30000 F3600.00000
G1 F1800.000
G1 X77.787 Y91.787 E0.05152
G1 X76.967 Y92.335 E0.05152
G1 X76.000 Y92.528 E0.05153
G1 X75.033 Y92.335 E0.05153
G1 X74.213 Y91.787 E0.05152
G1 X73.665 Y90.967 E0.05152
G1 X73.472 Y90.000 E0.05152
G1 X73.665 Y89.033 E0.05152
G1 X74.213 Y88.213 E0.05152
G1 X75.033 Y87.665 E0.05152
