; generated by Slic3r 1.2.9 on 2020-05-14 at 22:32:04

; external perimeters extrusion width = 0.40mm
; perimeters extrusion width = 0.56mm
; infill extrusion width = 0.56mm
; solid infill extrusion width = 0.56mm
; top infill extrusion width = 0.56mm

M107
M190 S60 ; set bed temperature
M104 S215 ; set temperature
G28 ; home all axes
G92 E0.0 ; reset extruder
M109 S215 ; wait for temperature to be reached
G21 ; set units to millimeters
G90 ; use absolute coordinates
M83 ; use relative distances for extrusion
G1 E-1.30000 F3600.00000
G1 Z0.300 F7800.000
G1 X74.534 Y87.616 F7800.000
G1 E1.30000 F3600.00000
M204 S500
G1 X89.448 Y76.866 E1.09059 F2160.000
G1 X92.054 Y75.478 E0.17519
G1 X95.851 Y74.799 E0.22882
G1 X104.149 Y74.799 E0.49220
G1 X107.075 Y75.197 E0.17519
G1 X110.552 Y76.866 E0.22882 F2160.000
G1 X125.466 Y87.616 E1.09059
G1 X127.607 Y89.650 E0.17519
G1 X129.126 Y92.182 E0.17519
G1 X130.013 Y96.500 E0.26148
G1 X130.013 Y103.500 E0.41525
G1 X129.615 Y106.426 E0.17519
G1 X128.450 Y109.140 E0.17519
G1 X125.466 Y112.384 E0.26148
G1 X110.552 Y123.134 E1.09059
G1 X107.946 Y124.522 E0.17519
G1 X104.149 Y125.201 E0.22882
G1 X95.851 Y125.201 E0.49220
G1 X92.925 Y124.803 E0.17519
G1 X89.448 Y123.134 E0.22882
G1 X74.534 Y112.384 E1.09059
G1 X72.393 Y110.350 E0.17519
G1 X70.874 Y107.818 E0.17519
G1 X69.987 Y103.500 E0.26148
G1 X69.987 Y96.500 E0.41525
G1 X70.385 Y93.574 E0.17519
G1 X71.550 Y90.860 E0.17519
G1 X74.494 Y87.660 E0.25792
G1 X74.812 Y88.002 F7800.000
G1 X89.726 Y77.252 E1.09059 F2160.000
G1 X92.279 Y75.902 E0.17132
G1 X95.851 Y75.274 E0.21516
G1 X104.149 Y75.274 E0.49220
G1 X107.009 Y75.672 E0.17132
G1 X110.274 Y77.252 E0.21516 F2160.000
G1 X125.188 Y88.002 E1.09059
G1 X127.275 Y89.998 E0.17132
G1 X128.739 Y92.487 E0.17132
G1 X129.538 Y96.500 E0.24272
G1 X129.538 Y103.500 E0.41525
G1 X129.140 Y106.360 E0.17132
G1 X127.976 Y109.003 E0.17132
G1 X125.188 Y111.998 E0.24272
G1 X110.274 Y122.748 E1.09059
G1 X107.721 Y124.098 E0.17132
G1 X104.149 Y124.726 E0.21516
G1 X95.851 Y124.726 E0.49220
G1 X92.991 Y124.328 E0.17132
G1 X89.726 Y122.748 E0.21516
G1 X74.812 Y111.998 E1.09059
G1 X72.725 Y110.002 E0.17132
G1 X71.261 Y107.513 E0.17132
G1 X70.462 Y103.500 E0.24272
G1 X70.462 Y96.500 E0.41525
G1 X70.860 Y93.640 E0.17132
G1 X72.024 Y90.997 E0.17132
G1 X74.771 Y88.046 E0.23916
G1 F6240
G1 X76.599 Y86.727 E-1.23500
G1 E-0.06500 F3600.00000
G1 X114.999 Y102.412 F7800.000
G1 E1.30000 F3600.00000
G1 X114.000 Y102.610 E0.06042 F1080.000
G1 X113.001 Y102.412 E0.06042
G1 X112.154 Y101.846 E0.06041
G1 X111.588 Y100.999 E0.06042
G1 X111.390 Y100.000 E0.06042
G1 X111.588 Y99.001 E0.06042
G1 X112.154 Y98.154 E0.06042
G1 X113.001 Y97.588 E0.06041
G1 X113.819 Y97.426 E0.04948
G1 X114.000 Y97.390 E0.01094 F1080.000
G1 X114.999 Y97.588 E0.06042
G1 X115.846 Y98.154 E0.06041
G1 X116.412 Y99.001 E0.06042
G1 X116.610 Y100.000 E0.06042
G1 X116.412 Y100.999 E0.06042
G1 X115.846 Y101.846 E0.06042
G1 X115.049 Y102.378 E0.05685
G1 X114.813 Y101.964 F7800.000
G1 X114.000 Y102.125 E0.04920 F1080.000
G1 X113.187 Y101.964 E0.04919
G1 X112.497 Y101.503 E0.04919
G1 X112.036 Y100.813 E0.04919
G1 X111.875 Y100.000 E0.04919
G1 X112.036 Y99.187 E0.04919
G1 X112.497 Y98.497 E0.04919
G1 X113.187 Y98.036 E0.04919
G1 X113.912 Y97.892 E0.04387
G1 X114.000 Y97.875 E0.00533 F1080.000
G1 X114.813 Y98.036 E0.04919
G1 X115.503 Y98.497 E0.04919
G1 X115.964 Y99.187 E0.04919
G1 X116.125 Y100.000 E0.04919
G1 X115.964 Y100.813 E0.04919
G1 X115.503 Y101.503 E0.04919
G1 X114.863 Y101.930 E0.04563
G1 X114.735 Y102.356 F7800.000
G1 X106.395 Y102.496 F7800.000
G1 X93.605 Y102.496 E0.75870 F1080.000
G1 X93.605 Y97.104 E0.31982
G1 X95.188 Y97.104 E0.09389
G1 X96.506 Y97.240 E0.07857
G1 X98.281 Y97.352 E0.10556
G1 X100.000 Y97.388 E0.10197
G1 X101.719 Y97.352 E0.10197
G1 X103.494 Y97.240 E0.10556
G1 X104.812 Y97.104 E0.07857
G1 X106.395 Y97.104 E0.09389
G1 X106.395 Y102.436 E0.31626
G1 X105.919 Y102.020 F7800.000
G1 X94.081 Y102.020 E0.70227 F1080.000
G1 X94.081 Y97.580 E0.26339
G1 X95.163 Y97.580 E0.06423
G1 X96.466 Y97.714 E0.07769
G1 X98.262 Y97.827 E0.10671
G1 X100.000 Y97.863 E0.10315
G1 X101.738 Y97.827 E0.10315
G1 X103.534 Y97.714 E0.10671
G1 X104.837 Y97.580 E0.07769
G1 X105.919 Y97.580 E0.06423
G1 X105.919 Y101.960 E0.25983
G1 X105.919 Y102.420 F7800.000
G1 F6240
G1 X103.666 Y101.971 E-1.23500
G1 E-0.06500 F3600.00000
G1 X88.610 Y100.000 F7800.000
G1 E1.30000 F3600.00000
G1 X88.412 Y100.999 E0.06042 F1080.000
G1 X87.846 Y101.846 E0.06042
G1 X86.999 Y102.412 E0.06041
G1 X86.000 Y102.610 E0.06042
G1 X85.001 Y102.412 E0.06042
G1 X84.154 Y101.846 E0.06041
G1 X83.588 Y100.999 E0.06042
G1 X83.390 Y100.000 E0.06042
G1 X83.588 Y99.001 E0.06042
G1 X84.154 Y98.154 E0.06042
G1 X85.001 Y97.588 E0.06041
G1 X85.819 Y97.426 E0.04948
G1 X86.000 Y97.390 E0.01094 F1080.000
G1 X86.999 Y97.588 E0.06042
G1 X87.846 Y98.154 E0.06041
G1 X88.412 Y99.001 E0.06042
G1 X88.599 Y99.941 E0.05686
G1 X88.125 Y100.000 F7800.000
G1 X87.964 Y100.813 E0.04919 F1080.000
G1 X87.503 Y101.503 E0.04919
G1 X86.813 Y101.964 E0.04919
G1 X86.000 Y102.125 E0.04919
G1 X85.187 Y101.964 E0.04919
G1 X84.497 Y101.503 E0.04919
G1 X84.036 Y100.813 E0.04919
G1 X83.875 Y100.000 E0.04919
G1 X84.036 Y99.187 E0.04919
G1 X84.497 Y98.497 E0.04919
G1 X85.187 Y98.036 E0.04919
G1 X85.912 Y97.892 E0.04387
G1 X86.000 Y97.875 E0.00533 F1080.000
G1 X86.813 Y98.036 E0.04919
G1 X87.503 Y98.497 E0.04919
G1 X87.964 Y99.187 E0.04919
G1 X88.114 Y99.941 E0.04563
G1 X88.458 Y100.222 F7800.000
G1 X90.746 Y93.746 F7800.000
G1 X90.746 Y91.910 E0.10887 F1620.000
G1 X96.160 Y86.496 E0.45426
G1 X103.840 Y86.496 E0.45556
G1 X109.254 Y91.910 E0.45426
G1 X109.254 Y93.746 E0.10887
G1 X112.800 Y93.746 E0.21035
G1 X118.317 Y96.930 E0.37787
G1 X118.317 Y103.070 E0.36418
G1 X112.800 Y106.254 E0.37787
G1 X109.254 Y106.254 E0.21035
G1 X109.254 Y108.090 E0.10887
G1 X103.840 Y113.504 E0.45426
G1 X96.160 Y113.504 E0.45556
G1 X90.746 Y108.090 E0.45426
G1 X90.746 Y106.254 E0.10887
G1 X87.200 Y106.254 E0.21035
G1 X81.683 Y103.070 E0.37787
G1 X81.683 Y96.930 E0.36418
G1 X87.200 Y93.746 E0.37787
G1 X90.686 Y93.746 E0.20679
G1 X90.270 Y93.270 F7800.000
G1 X90.270 Y91.713 E0.09235 F1458.000
G1 X95.963 Y86.020 E0.47763
G1 X104.037 Y86.020 E0.47893
G1 X109.730 Y91.713 E0.47763
G1 X109.730 Y93.270 E0.09235
G1 X112.928 Y93.270 E0.18969
G1 X118.792 Y96.656 E0.40172
G1 X118.792 Y103.344 E0.39676
G1 X112.928 Y106.730 E0.40172
G1 X109.730 Y106.730 E0.18969
G1 X109.730 Y108.287 E0.09235
G1 X104.037 Y113.980 E0.47763
G1 X95.963 Y113.980 E0.47893
G1 X90.270 Y108.287 E0.47763
G1 X90.270 Y106.730 E0.09235
G1 X87.072 Y106.730 E0.18969
G1 X81.208 Y103.344 E0.40172
G1 X81.208 Y96.656 E0.39676
G1 X87.072 Y93.270 E0.40172
G1 X90.210 Y93.270 E0.18613
G1 X90.670 Y93.270 F7800.000
G1 X93.322 Y97.063 F7800.000
G1 X90.287 Y94.029 E0.25746 F1620.000
G1 X89.607 Y94.029 E0.04081
G1 X93.322 Y97.744 E0.31518
G1 X93.322 Y98.424 E0.04081
G1 X88.927 Y94.029 E0.37290
G1 X88.247 Y94.029 E0.04081
G1 X93.322 Y99.104 E0.43062
G1 X93.322 Y99.784 E0.04081
G1 X87.566 Y94.029 E0.48834
G1 X87.002 Y94.145 E0.03458
G1 X93.322 Y100.465 E0.53625
G1 X93.322 Y101.145 E0.04081
G1 X86.570 Y94.394 E0.57285
G1 X86.139 Y94.643 E0.02988
G1 X93.322 Y101.825 E0.60944
G1 X93.322 Y102.506 E0.04081
G1 X85.708 Y94.892 E0.64603
G1 X85.277 Y95.141 E0.02988
G1 X103.357 Y113.221 E1.53409
G1 X103.909 Y113.093 E0.03402
G1 X93.595 Y102.779 E0.87513
G1 X94.275 Y102.779 E0.04081
G1 X104.249 Y112.753 E0.84627
G1 X104.590 Y112.413 E0.02886
G1 X94.956 Y102.779 E0.81741
G1 X95.636 Y102.779 E0.04081
G1 X104.930 Y112.073 E0.78855
G1 X105.270 Y111.733 E0.02886
G1 X96.316 Y102.779 E0.75969
G1 X96.997 Y102.779 E0.04081
G1 X105.610 Y111.392 E0.73083
G1 X105.950 Y111.052 E0.02886
G1 X97.677 Y102.779 E0.70197
G1 X98.357 Y102.779 E0.04081
G1 X106.290 Y110.712 E0.67311
G1 X106.630 Y110.372 E0.02886
G1 X99.037 Y102.779 E0.64425
G1 X99.718 Y102.779 E0.04081
G1 X106.971 Y110.032 E0.61539
G1 X107.311 Y109.692 E0.02886
G1 X100.398 Y102.779 E0.58653
G1 X101.078 Y102.779 E0.04081
G1 X107.651 Y109.352 E0.55767
G1 X107.991 Y109.011 E0.02886
G1 X101.759 Y102.779 E0.52881
G1 X102.439 Y102.779 E0.04081
G1 X108.331 Y108.671 E0.49995
G1 X108.671 Y108.331 E0.02886
G1 X103.119 Y102.779 E0.47109
G1 X103.799 Y102.779 E0.04081
G1 X108.971 Y107.951 E0.43880
G1 X108.971 Y107.270 E0.04081
G1 X104.480 Y102.779 E0.38108
G1 X105.160 Y102.779 E0.04081
G1 X108.971 Y106.590 E0.32336
G1 X109.032 Y105.971 E0.03732
G1 X105.840 Y102.779 E0.27084
G1 X106.520 Y102.779 E0.04081
G1 X109.713 Y105.971 E0.27084
G1 X110.393 Y105.971 E0.04081
G1 X106.678 Y102.256 E0.31518
G1 X106.678 Y101.576 E0.04081
G1 X111.073 Y105.971 E0.37290
G1 X111.753 Y105.971 E0.04081
G1 X106.678 Y100.896 E0.43062
G1 X106.678 Y100.216 E0.04081
G1 X112.434 Y105.971 E0.48834
G1 X112.998 Y105.855 E0.03458
G1 X106.678 Y99.535 E0.53625
G1 X106.678 Y98.855 E0.04081
G1 X113.430 Y105.606 E0.57285
G1 X113.861 Y105.357 E0.02988
G1 X106.678 Y98.175 E0.60944
G1 X106.678 Y97.494 E0.04081
G1 X114.292 Y105.108 E0.64603
G1 X114.723 Y104.859 E0.02988
G1 X112.106 Y102.242 E0.22206
G1 X111.758 Y101.894 F7800.000
G1 X96.643 Y86.779 E1.28246 F1620.000
G1 X96.091 Y86.907 E0.03402
G1 X106.005 Y96.821 E0.84119
G1 X105.324 Y96.821 E0.04081
G1 X95.751 Y87.247 E0.81233
G1 X95.410 Y87.587 E0.02886
G1 X104.667 Y96.844 E0.78545
G1 X104.051 Y96.908 E0.03719
G1 X95.070 Y87.927 E0.76199
G1 X94.730 Y88.267 E0.02886
G1 X103.429 Y96.967 E0.73811
G1 X102.789 Y97.007 E0.03849
G1 X94.390 Y88.608 E0.71265
G1 X94.050 Y88.948 E0.02886
G1 X102.149 Y97.047 E0.68719
G1 X101.497 Y97.075 E0.03917
G1 X93.710 Y89.288 E0.66071
G1 X93.370 Y89.628 E0.02886
G1 X100.830 Y97.089 E0.63303
G1 X100.164 Y97.103 E0.03998
G1 X93.029 Y89.968 E0.60536
G1 X92.689 Y90.308 E0.02886
G1 X99.472 Y97.091 E0.57549
G1 X98.777 Y97.076 E0.04170
G1 X92.349 Y90.648 E0.54539
G1 X92.009 Y90.989 E0.02886
G1 X98.068 Y97.048 E0.51411
G1 X97.342 Y97.002 E0.04362
G1 X91.669 Y91.329 E0.48139
G1 X91.329 Y91.669 E0.02886
G1 X96.616 Y96.956 E0.44860
G1 X95.857 Y96.878 E0.04575
G1 X91.029 Y92.049 E0.40966
G1 X91.029 Y92.730 E0.04081
G1 X95.120 Y96.821 E0.34714
G1 X94.440 Y96.821 E0.04081
G1 X91.029 Y93.410 E0.28942
G1 X90.968 Y94.029 E0.03732
G1 X93.760 Y96.821 E0.23690
G1 X86.667 Y97.212 F7800.000
G1 X84.845 Y95.390 E0.15459 F1620.000
G1 X84.414 Y95.639 E0.02988
G1 X85.912 Y97.136 E0.12710
G1 X85.344 Y97.249 E0.03471
G1 X83.983 Y95.888 E0.11554
G1 X83.551 Y96.137 E0.02988
G1 X84.826 Y97.411 E0.10817
G1 X84.418 Y97.684 E0.02943
G1 X83.120 Y96.386 E0.11016
G1 X82.689 Y96.635 E0.02988
G1 X84.011 Y97.956 E0.11216
G1 X83.727 Y98.353 E0.02926
G1 X82.258 Y96.884 E0.12471
G1 X81.967 Y97.273 E0.02916
G1 X83.455 Y98.761 E0.12627
G1 X83.267 Y99.254 E0.03163
G1 X81.967 Y97.953 E0.11035
G1 X81.967 Y98.634 E0.04081
G1 X83.154 Y99.821 E0.10077
G1 X83.185 Y100.532 E0.04266
G1 X81.967 Y99.314 E0.10333
G1 X81.967 Y99.994 E0.04081
G1 X83.539 Y101.566 E0.13339
G1 X84.434 Y102.461 F7800.000
G1 X87.944 Y105.971 E0.29781 F1620.000
G1 X87.072 Y105.779 E0.05356
G1 X81.967 Y100.674 E0.43315
G1 X81.967 Y101.355 E0.04081
G1 X85.462 Y104.850 E0.29658
G1 X83.853 Y103.921 F7800.000
G1 X81.967 Y102.035 E0.16001 F1620.000
G1 X81.967 Y102.715 E0.04081
G1 X82.243 Y102.992 E0.02345
G1 X85.468 Y102.815 F7800.000
G1 X88.624 Y105.971 E0.26774 F1620.000
G1 X89.304 Y105.971 E0.04081
G1 X86.179 Y102.846 E0.26519
G1 X86.746 Y102.733 E0.03471
G1 X89.984 Y105.971 E0.27477
G1 X90.665 Y105.971 F7800.000
G1 X87.239 Y102.545 E0.29068 F1620.000
G1 X87.647 Y102.273 E0.02943
G1 X98.595 Y113.221 E0.92895
G1 X99.275 Y113.221 E0.04081
G1 X88.044 Y101.989 E0.95299
G1 X88.316 Y101.581 E0.02942
G1 X99.956 Y113.221 E0.98759
G1 X100.636 Y113.221 E0.04081
G1 X88.589 Y101.174 E1.02219
G1 X88.751 Y100.656 E0.03257
G1 X101.316 Y113.221 E1.06615
G1 X101.996 Y113.221 E0.04081
G1 X88.864 Y100.088 E1.11430
G1 X88.788 Y99.333 E0.04554
G1 X102.677 Y113.221 E1.17839
G1 X96.554 Y113.221 F7800.000
G1 X91.029 Y107.696 E0.46880 F1620.000
G1 X91.029 Y107.016 E0.04081
G1 X97.234 Y113.221 E0.52652
G1 X97.915 Y113.221 E0.04081
G1 X91.029 Y106.335 E0.58424
G1 X111.212 Y100.667 F7800.000
G1 X97.323 Y86.779 E1.17839 F1620.000
G1 X98.004 Y86.779 E0.04081
G1 X111.136 Y99.912 E1.11430
G1 X111.249 Y99.344 E0.03471
G1 X98.684 Y86.779 E1.06616
G1 X99.364 Y86.779 E0.04081
G1 X111.411 Y98.826 E1.02219
G1 X111.684 Y98.419 E0.02943
G1 X100.044 Y86.779 E0.98759
G1 X100.725 Y86.779 E0.04081
G1 X111.956 Y98.011 E0.95299
G1 X112.353 Y97.727 E0.02926
G1 X101.405 Y86.779 E0.92895
G1 X103.446 Y86.779 F7800.000
G1 X108.971 Y92.304 E0.46881 F1620.000
G1 X108.971 Y92.985 E0.04081
G1 X102.765 Y86.779 E0.52653
G1 X102.085 Y86.779 E0.04081
G1 X108.971 Y93.665 E0.58425
G1 X109.335 Y94.029 F7800.000
G1 X112.761 Y97.455 E0.29069 F1620.000
G1 X113.254 Y97.267 E0.03163
G1 X110.015 Y94.029 E0.27477
G1 X110.696 Y94.029 E0.04081
G1 X113.821 Y97.154 E0.26519
G1 X114.532 Y97.185 E0.04266
G1 X111.376 Y94.029 E0.26774
G1 X112.056 Y94.029 E0.04081
G1 X115.566 Y97.539 E0.29780
G1 X116.461 Y98.434 F7800.000
G1 X118.033 Y100.006 E0.13339 F1620.000
G1 X118.033 Y100.686 E0.04081
G1 X116.815 Y99.468 E0.10333
G1 X116.845 Y100.179 E0.04266
G1 X118.033 Y101.366 E0.10078
G1 X118.033 Y102.047 E0.04081
G1 X116.733 Y100.746 E0.11035
G1 X116.545 Y101.239 E0.03163
G1 X118.033 Y102.727 E0.12627
G1 X117.742 Y103.116 E0.02916
G1 X116.273 Y101.647 E0.12471
G1 X115.989 Y102.044 E0.02926
G1 X117.311 Y103.365 E0.11216
G1 X116.880 Y103.614 E0.02988
G1 X115.581 Y102.316 E0.11016
G1 X115.174 Y102.589 E0.02943
G1 X116.449 Y103.863 E0.10817
G1 X116.017 Y104.112 E0.02988
G1 X114.656 Y102.751 E0.11554
G1 X114.088 Y102.864 E0.03471
G1 X115.586 Y104.361 E0.12710
G1 X115.155 Y104.610 E0.02988
G1 X113.333 Y102.788 E0.15459
G1 X118.033 Y99.326 F7800.000
G1 X112.928 Y94.221 E0.43315 F1620.000
G1 X114.538 Y95.150 F7800.000
G1 X118.033 Y98.645 E0.29659 F1620.000
G1 X118.033 Y97.285 F7800.000
G1 X117.757 Y97.008 E0.02345 F1620.000
G1 X118.033 Y97.965 E0.05975
G1 X116.147 Y96.079 E0.16002
M106 S255
M140 S50 ; wait for bed temperature to be reached
G1 F6240
G1 X117.741 Y97.672 E-1.23500
G1 E-0.06500 F3600.00000
G1 Z0.550 F7800.000
G1 X111.703 Y99.048 F7800.000
G1 E1.30000 F3600.00000
G1 X112.242 Y98.242 E0.05069 F1800.000
G1 X113.048 Y97.703 E0.05069
G1 X113.778 Y97.557 E0.03886
G1 X114.000 Y97.513 E0.01183 F1800.000
G1 X114.952 Y97.703 E0.05069
G1 X115.758 Y98.242 E0.05069
G1 X116.297 Y99.048 E0.05069
G1 X116.487 Y100.000 E0.05069
G1 X116.297 Y100.952 E0.05069
G1 X115.758 Y101.758 E0.05069
G1 X114.952 Y102.297 E0.05069
G1 X114.000 Y102.487 E0.05069
G1 X113.048 Y102.297 E0.05069
G1 X112.242 Y101.758 E0.05069
G1 X111.703 Y100.952 E0.05069
G1 X111.513 Y100.000 E0.05069
G1 X111.691 Y99.107 E0.04756
G1 X112.102 Y99.214 F7800.000
G1 X112.548 Y98.548 E0.02885 F1800.000
G1 X113.214 Y98.102 E0.02885
G1 X113.861 Y97.974 E0.02374
G1 X114.000 Y97.946 E0.00511 F1800.000
G1 X114.786 Y98.102 E0.02885
G1 X115.452 Y98.548 E0.02885
G1 X115.898 Y99.214 E0.02885
G1 X116.054 Y100.000 E0.02885
G1 X115.898 Y100.786 E0.02885
G1 X115.452 Y101.452 E0.02885
G1 X114.786 Y101.898 E0.02885
G1 X114.000 Y102.054 E0.02885
G1 X113.214 Y101.898 E0.02885
G1 X112.548 Y101.452 E0.02885
G1 X112.102 Y100.786 E0.02885
G1 X111.946 Y100.000 E0.02885
G1 X112.091 Y99.273 E0.02669
G1 X111.880 Y98.881 F7800.000
G1 X106.948 Y97.225 F7800.000
G1 X106.948 Y102.374 E0.26901 F1800.000
G1 X93.052 Y102.375 E0.72595
G1 X93.052 Y97.225 E0.26901
G1 X94.425 Y97.225 E0.07171
G1 X96.567 Y97.456 E0.11258
G1 X98.311 Y97.565 E0.09128
G1 X100.000 Y97.600 E0.08825
G1 X101.689 Y97.565 E0.08825
G1 X103.433 Y97.456 E0.09128
G1 X105.575 Y97.225 E0.11258
G1 X106.888 Y97.225 E0.06858
G1 X106.523 Y97.650 F7800.000
G1 X106.523 Y101.950 E0.15480 F1800.000
G1 X93.477 Y101.950 E0.46965
G1 X93.477 Y97.650 E0.15480
G1 X94.402 Y97.650 E0.03331
G1 X96.531 Y97.879 E0.07709
G1 X98.293 Y97.989 E0.06355
G1 X100.000 Y98.025 E0.06145
G1 X101.707 Y97.989 E0.06145
G1 X103.469 Y97.879 E0.06355
G1 X105.598 Y97.650 E0.07709
G1 X106.463 Y97.650 E0.03115
G1 X106.923 Y97.650 F7800.000
G1 F6240
