; generated by Slic3r 1.2.9 on 2020-05-14 at 10:35:38

; external perimeters extrusion width = 0.40mm
; perimeters extrusion width = 0.56mm
; infill extrusion width = 0.56mm
; solid infill extrusion width = 0.56mm
; top infill extrusion width = 0.56mm

M107
M190 S60 ; set bed temperature
M104 S215 ; set temperature
G28 ; home all axes
G92 E0.0 ; reset extruder
M109 S215 ; wait for temperature to be reached
G21 ; set units to millimeters
G90 ; use absolute coordinates
M83 ; use relative distances for extrusion
G1 E-1.30000 F3600.00000
G1 Z0.300 F7800.000
G1 X66.976 Y44.783 F7800.000
G1 E1.30000 F3600.00000
M204 S500
G1 X68.106 Y43.456 E0.10341 F2160.000
G1 X72.106 Y39.456 E0.33559
G1 X74.457 Y37.669 E0.17519
G1 X77.200 Y36.574 E0.17519
G1 X79.850 Y36.249 E0.15838
G1 X92.850 Y36.249 E0.77118
G1 X95.776 Y36.647 E0.17519
G1 X98.490 Y37.813 E0.17519 F2160.000
G1 X100.594 Y39.456 E0.15840
G1 X133.894 Y72.756 E2.79366
G1 X135.681 Y75.107 E0.17519
G1 X136.776 Y77.850 E0.17519
G1 X137.101 Y80.500 E0.15840
G1 X137.101 Y119.500 E2.31355
G1 X136.703 Y122.426 E0.17519
G1 X135.537 Y125.140 E0.17519
G1 X133.894 Y127.244 E0.15839
G1 X100.594 Y160.544 E2.79367
G1 X98.243 Y162.331 E0.17519
G1 X95.500 Y163.426 E0.17519
G1 X92.850 Y163.751 E0.15840
G1 X79.850 Y163.751 E0.77118
G1 X76.924 Y163.353 E0.17519
G1 X74.210 Y162.187 E0.17519
G1 X72.106 Y160.544 E0.15838
G1 X68.106 Y156.544 E0.33559
G1 X66.319 Y154.193 E0.17519
G1 X65.224 Y151.450 E0.17519
G1 X64.938 Y149.731 E0.10341
G1 X62.938 Y126.281 E1.39615
G1 X62.899 Y125.350 E0.05526
G1 X62.899 Y74.650 E3.00762
G1 X62.938 Y73.719 E0.05526
G1 X64.938 Y50.269 E1.39615
G1 X65.584 Y47.388 E0.17519
G1 X66.947 Y44.836 E0.17163
G1 X67.405 Y45.017 F7800.000
G1 X67.436 Y44.959 E0.00394 F2160.000
G1 X68.443 Y43.793 E0.09138
G1 X72.443 Y39.792 E0.33559
G1 X74.747 Y38.051 E0.17132
G1 X77.439 Y37.006 E0.17132
G1 X79.850 Y36.724 E0.14400
G1 X92.850 Y36.724 E0.77118
G1 X95.710 Y37.122 E0.17132
G1 X98.353 Y38.286 E0.17132 F2160.000
G1 X100.257 Y39.793 E0.14401
G1 X133.557 Y73.093 E2.79366
G1 X135.299 Y75.397 E0.17132
G1 X136.344 Y78.089 E0.17132
G1 X136.626 Y80.500 E0.14401
G1 X136.626 Y119.500 E2.31355
G1 X136.228 Y122.360 E0.17132
G1 X135.064 Y125.003 E0.17132
G1 X133.557 Y126.907 E0.14401
G1 X100.257 Y160.207 E2.79367
G1 X97.953 Y161.949 E0.17132
G1 X95.261 Y162.994 E0.17132
G1 X92.850 Y163.276 E0.14401
G1 X79.850 Y163.276 E0.77118
G1 X76.990 Y162.878 E0.17132
G1 X74.347 Y161.714 E0.17132
G1 X72.443 Y160.208 E0.14400
G1 X68.443 Y156.207 E0.33559
G1 X66.701 Y153.903 E0.17132
G1 X65.656 Y151.211 E0.17132
G1 X65.412 Y149.690 E0.09138
G1 X63.412 Y126.240 E1.39615
G1 X63.374 Y125.350 E0.05286
G1 X63.374 Y74.650 E3.00762
G1 X63.412 Y73.760 E0.05286
G1 X65.412 Y50.310 E1.39615
G1 X66.052 Y47.494 E0.17132
G1 X67.376 Y45.070 E0.16382
G1 F6240
G1 X67.436 Y44.959 E-0.06932
G1 F6240
G1 X68.443 Y43.793 E-0.84427
G1 F6240
G1 X68.857 Y43.378 E-0.32140
G1 E-0.06500 F3600.00000
G1 X93.240 Y145.218 F7800.000
G1 E1.30000 F3600.00000
G1 X93.603 Y145.622 E0.03224 F1080.000
G1 X93.875 Y146.093 E0.03224
G1 X94.043 Y146.610 E0.03225
G1 X94.100 Y147.150 E0.03224
G1 X94.043 Y147.690 E0.03223
G1 X93.875 Y148.207 E0.03225
G1 X93.603 Y148.678 E0.03224
G1 X93.240 Y149.082 E0.03224
G1 X92.800 Y149.401 E0.03223
G1 X92.303 Y149.623 E0.03224
G1 X91.772 Y149.736 E0.03225
G1 X89.226 Y149.736 E0.15102
G1 X88.684 Y149.617 E0.03292
G1 X88.200 Y149.401 E0.03142
G1 X87.760 Y149.082 E0.03223
G1 X87.397 Y148.678 E0.03224
G1 X87.125 Y148.207 E0.03224
G1 X86.957 Y147.690 E0.03225
G1 X86.900 Y147.150 E0.03223
G1 X86.956 Y146.623 E0.03141
G1 X87.124 Y146.095 E0.03292
G1 X87.397 Y145.622 E0.03238
G1 X87.760 Y145.218 E0.03224
G1 X88.200 Y144.899 E0.03223
G1 X88.697 Y144.677 E0.03224
G1 X89.228 Y144.564 E0.03225
G1 X91.772 Y144.564 E0.15089 F1080.000
G1 X92.303 Y144.677 E0.03225
G1 X92.800 Y144.899 E0.03224
G1 X93.191 Y145.183 E0.02867
G1 X92.920 Y145.573 F7800.000
G1 X93.216 Y145.903 E0.02631 F1080.000
G1 X93.438 Y146.287 E0.02631
G1 X93.575 Y146.709 E0.02632
G1 X93.621 Y147.150 E0.02631
G1 X93.575 Y147.591 E0.02631
G1 X93.438 Y148.013 E0.02632
G1 X93.216 Y148.397 E0.02631
G1 X92.920 Y148.727 E0.02631
G1 X92.561 Y148.987 E0.02631
G1 X92.156 Y149.168 E0.02631
G1 X91.722 Y149.260 E0.02631
G1 X89.277 Y149.260 E0.14501
G1 X88.833 Y149.163 E0.02699
G1 X88.439 Y148.987 E0.02557
G1 X88.080 Y148.727 E0.02631
G1 X87.784 Y148.397 E0.02631
G1 X87.562 Y148.013 E0.02631
G1 X87.425 Y147.591 E0.02632
G1 X87.379 Y147.150 E0.02631
G1 X87.424 Y146.721 E0.02557
G1 X87.561 Y146.288 E0.02699
G1 X87.784 Y145.903 E0.02636
G1 X88.080 Y145.573 E0.02631
G1 X88.439 Y145.313 E0.02631
G1 X88.844 Y145.132 E0.02631
G1 X89.278 Y145.040 E0.02631
G1 X91.722 Y145.040 E0.14496 F1080.000
G1 X92.156 Y145.132 E0.02631
G1 X92.561 Y145.313 E0.02631
G1 X92.871 Y145.538 E0.02275
G1 X93.304 Y145.463 F7800.000
G1 X91.772 Y118.736 F7800.000
G1 X89.226 Y118.736 E0.15102 F1080.000
G1 X88.684 Y118.617 E0.03292
G1 X88.200 Y118.401 E0.03142
G1 X87.760 Y118.082 E0.03223
G1 X87.397 Y117.678 E0.03224
G1 X87.125 Y117.207 E0.03224
G1 X86.957 Y116.690 E0.03225
G1 X86.900 Y116.150 E0.03223
G1 X86.957 Y115.610 E0.03224
G1 X87.121 Y115.106 E0.03142
G1 X87.395 Y114.624 E0.03292
G1 X87.760 Y114.218 E0.03238
G1 X88.200 Y113.899 E0.03224
G1 X88.697 Y113.678 E0.03224
G1 X89.228 Y113.565 E0.03224
G1 X91.772 Y113.565 E0.15089 F1080.000
G1 X92.303 Y113.678 E0.03224
G1 X92.787 Y113.893 E0.03142
G1 X93.238 Y114.216 E0.03292
G1 X93.603 Y114.622 E0.03238
G1 X93.875 Y115.093 E0.03224
G1 X94.043 Y115.610 E0.03224
G1 X94.100 Y116.150 E0.03224
G1 X94.043 Y116.690 E0.03224
G1 X93.875 Y117.207 E0.03225
G1 X93.603 Y117.678 E0.03224
G1 X93.240 Y118.082 E0.03224
G1 X92.800 Y118.401 E0.03223
G1 X92.303 Y118.623 E0.03224
G1 X91.830 Y118.723 E0.02869
G1 X91.722 Y118.260 F7800.000
G1 X89.277 Y118.260 E0.14500 F1080.000
G1 X88.833 Y118.163 E0.02699
G1 X88.439 Y117.987 E0.02557
G1 X88.080 Y117.727 E0.02631
G1 X87.784 Y117.397 E0.02631
G1 X87.562 Y117.013 E0.02631
G1 X87.425 Y116.591 E0.02632
G1 X87.379 Y116.150 E0.02631
G1 X87.425 Y115.709 E0.02631
G1 X87.558 Y115.299 E0.02557
G1 X87.783 Y114.904 E0.02698
G1 X88.080 Y114.573 E0.02636
G1 X88.439 Y114.313 E0.02631
G1 X88.844 Y114.132 E0.02631
G1 X89.278 Y114.040 E0.02631
G1 X91.722 Y114.040 E0.14496 F1080.000
G1 X92.156 Y114.132 E0.02631
G1 X92.549 Y114.308 E0.02557
G1 X92.919 Y114.573 E0.02698
G1 X93.216 Y114.903 E0.02636
G1 X93.438 Y115.287 E0.02631
G1 X93.575 Y115.709 E0.02631
G1 X93.621 Y116.150 E0.02631
G1 X93.575 Y116.591 E0.02631
G1 X93.438 Y117.013 E0.02631
G1 X93.216 Y117.397 E0.02631
G1 X92.920 Y117.727 E0.02631
G1 X92.561 Y117.987 E0.02631
G1 X92.156 Y118.168 E0.02631
G1 X91.780 Y118.247 E0.02275
G1 X91.546 Y118.619 F7800.000
G1 X117.900 Y116.150 F7800.000
G1 X117.956 Y115.623 E0.03142 F1080.000
G1 X118.124 Y115.095 E0.03292
G1 X118.397 Y114.622 E0.03238
G1 X118.760 Y114.218 E0.03224
G1 X119.200 Y113.899 E0.03224
G1 X119.697 Y113.678 E0.03224
G1 X120.228 Y113.565 E0.03224
G1 X122.772 Y113.565 E0.15089 F1080.000
G1 X123.303 Y113.678 E0.03224
G1 X123.800 Y113.899 E0.03224
G1 X124.240 Y114.218 E0.03224
G1 X124.603 Y114.622 E0.03224
G1 X124.875 Y115.093 E0.03224
G1 X125.043 Y115.610 E0.03224
G1 X125.100 Y116.150 E0.03224
G1 X125.043 Y116.690 E0.03224
G1 X124.875 Y117.207 E0.03225
G1 X124.603 Y117.678 E0.03224
G1 X124.240 Y118.082 E0.03224
G1 X123.800 Y118.401 E0.03223
G1 X123.303 Y118.623 E0.03224
G1 X122.772 Y118.736 E0.03225
G1 X120.226 Y118.736 E0.15102
G1 X119.684 Y118.617 E0.03292
G1 X119.200 Y118.401 E0.03142
G1 X118.760 Y118.082 E0.03223
G1 X118.397 Y117.678 E0.03224
G1 X118.125 Y117.207 E0.03224
G1 X117.957 Y116.690 E0.03225
G1 X117.907 Y116.210 E0.02868
G1 X118.379 Y116.150 F7800.000
G1 X118.424 Y115.721 E0.02557 F1080.000
G1 X118.561 Y115.288 E0.02698
G1 X118.784 Y114.903 E0.02636
G1 X119.080 Y114.573 E0.02631
G1 X119.439 Y114.313 E0.02631
G1 X119.844 Y114.132 E0.02631
G1 X120.278 Y114.040 E0.02631
G1 X122.722 Y114.040 E0.14496 F1080.000
G1 X123.156 Y114.132 E0.02631
G1 X123.561 Y114.313 E0.02631
G1 X123.920 Y114.573 E0.02631
G1 X124.216 Y114.903 E0.02631
G1 X124.438 Y115.287 E0.02631
G1 X124.575 Y115.709 E0.02631
G1 X124.621 Y116.150 E0.02631
G1 X124.575 Y116.591 E0.02631
G1 X124.438 Y117.013 E0.02631
G1 X124.216 Y117.397 E0.02631
G1 X123.920 Y117.727 E0.02631
G1 X123.561 Y117.987 E0.02631
G1 X123.156 Y118.168 E0.02631
G1 X122.722 Y118.260 E0.02631
G1 X120.277 Y118.260 E0.14500
G1 X119.833 Y118.163 E0.02699
G1 X119.439 Y117.987 E0.02557
G1 X119.080 Y117.727 E0.02631
G1 X118.784 Y117.397 E0.02631
G1 X118.562 Y117.013 E0.02631
G1 X118.425 Y116.591 E0.02631
G1 X118.385 Y116.210 E0.02275
G1 X118.039 Y115.938 F7800.000
G1 F6240
G1 X118.424 Y115.721 E-0.26852
G1 F6240
G1 X118.561 Y115.288 E-0.24930
G1 F6240
G1 X118.784 Y114.903 E-0.24354
G1 F6240
G1 X119.080 Y114.573 E-0.24308
G1 F6240
G1 X119.421 Y114.326 E-0.23056
G1 E-0.06500 F3600.00000
G1 X76.596 Y118.396 F7800.000
G1 E1.30000 F3600.00000
G1 X76.596 Y115.637 E0.16366 F1620.000
G1 X77.165 Y115.547 E0.03419
G1 X78.351 Y114.942 E0.07897
G1 X79.292 Y114.001 E0.07897
G1 X79.897 Y112.815 E0.07897
G1 X80.096 Y111.559 E0.07545
G1 X80.096 Y107.246 E0.25586
G1 X125.404 Y107.246 E2.68780
G1 X125.404 Y119.254 E0.71238
G1 X105.132 Y119.254 E1.20261
G1 X103.919 Y119.314 E0.07202
G1 X102.668 Y119.503 E0.07509
G1 X101.508 Y119.794 E0.07092
G1 X100.349 Y120.209 E0.07304
G1 X99.236 Y120.735 E0.07304
G1 X98.180 Y121.368 E0.07304
G1 X97.191 Y122.101 E0.07304
G1 X96.278 Y122.928 E0.07304
G1 X95.451 Y123.841 E0.07304
G1 X94.718 Y124.830 E0.07304
G1 X94.085 Y125.886 E0.07304
G1 X93.559 Y126.999 E0.07304
G1 X93.144 Y128.158 E0.07304
G1 X92.845 Y129.352 E0.07304
G1 X92.664 Y130.570 E0.07304
G1 X92.603 Y131.800 E0.07304
G1 X92.664 Y133.030 E0.07304
G1 X92.845 Y134.248 E0.07304
G1 X93.144 Y135.442 E0.07304
G1 X93.559 Y136.601 E0.07304
G1 X94.085 Y137.714 E0.07304
G1 X94.718 Y138.770 E0.07304
G1 X95.451 Y139.759 E0.07304
G1 X96.278 Y140.672 E0.07305
G1 X96.404 Y140.786 E0.01010
G1 X96.404 Y148.191 E0.43928
G1 X92.541 Y152.054 E0.32410
G1 X80.159 Y152.054 E0.73454
G1 X76.596 Y148.491 E0.29893
G1 X76.596 Y124.604 E1.41701
G1 X74.596 Y124.604 E0.11864
G1 X74.596 Y118.396 E0.36832
G1 X76.536 Y118.396 E0.11508
G1 X76.120 Y117.920 F7800.000
G1 X76.120 Y115.231 E0.15954 F1458.000
G1 X77.016 Y115.089 E0.05382
G1 X78.068 Y114.553 E0.07003
G1 X78.903 Y113.718 E0.07003
G1 X79.439 Y112.666 E0.07003
G1 X79.620 Y111.521 E0.06876
G1 X79.620 Y106.770 E0.28185
G1 X125.880 Y106.770 E2.74423
G1 X125.880 Y119.388 E0.74853
G1 X125.538 Y119.730 E0.02868
G1 X105.143 Y119.730 E1.20986
G1 X103.967 Y119.788 E0.06990
G1 X102.761 Y119.970 E0.07232
G1 X101.646 Y120.249 E0.06819
G1 X100.531 Y120.648 E0.07027
G1 X99.460 Y121.155 E0.07027
G1 X98.444 Y121.764 E0.07027
G1 X97.493 Y122.470 E0.07027
G1 X96.615 Y123.265 E0.07027
G1 X95.820 Y124.143 E0.07027
G1 X95.114 Y125.094 E0.07027
G1 X94.505 Y126.110 E0.07027
G1 X93.998 Y127.181 E0.07027
G1 X93.599 Y128.296 E0.07027
G1 X93.312 Y129.445 E0.07027
G1 X93.138 Y130.617 E0.07027
G1 X93.080 Y131.800 E0.07027
G1 X93.138 Y132.983 E0.07027
G1 X93.312 Y134.155 E0.07027
G1 X93.599 Y135.304 E0.07027
G1 X93.998 Y136.419 E0.07027
G1 X94.505 Y137.490 E0.07027
G1 X95.114 Y138.506 E0.07027
G1 X95.820 Y139.457 E0.07027
G1 X96.615 Y140.335 E0.07027
G1 X96.880 Y140.575 E0.02122
G1 X96.880 Y148.388 E0.46348
G1 X92.738 Y152.530 E0.34747
G1 X79.962 Y152.530 E0.75792
G1 X76.120 Y148.688 E0.32231
G1 X76.120 Y125.080 E1.40048
G1 X74.120 Y125.080 E0.11864
G1 X74.120 Y117.920 E0.42474
G1 X76.060 Y117.920 E0.11508
G1 X76.520 Y117.920 F7800.000
G1 X74.879 Y123.865 F7800.000
G1 X75.335 Y124.321 E0.03849 F1620.000
G1 X76.012 Y124.321 E0.04041
G1 X74.879 Y123.188 E0.09564
G1 X74.879 Y122.511 E0.04041
G1 X96.121 Y143.753 E1.79340
G1 X96.121 Y143.076 E0.04041
G1 X74.879 Y121.834 E1.79340
G1 X74.879 Y121.158 E0.04041
G1 X96.121 Y142.400 E1.79340
G1 X96.121 Y141.723 E0.04041
G1 X74.879 Y120.481 E1.79340
G1 X74.879 Y119.804 E0.04041
G1 X95.983 Y140.907 E1.78172
G1 X93.993 Y138.241 F7800.000
G1 X74.879 Y119.127 E1.61372 F1620.000
G1 X75.108 Y118.679 E0.03003
G1 X93.327 Y136.898 E1.53815
G1 X92.941 Y135.835 F7800.000
G1 X75.785 Y118.679 E1.44843 F1620.000
G1 X76.462 Y118.679 E0.04041
G1 X92.689 Y134.906 E1.37000
G1 X92.513 Y134.053 E0.05197
G1 X76.879 Y118.419 E1.31995
G1 X76.879 Y117.742 E0.04041
G1 X92.395 Y133.259 E1.30999
G1 X92.351 Y132.537 E0.04314
G1 X76.879 Y117.065 E1.30625
G1 X76.879 Y116.389 E0.04041
G1 X92.323 Y131.833 E1.30389
G1 X92.355 Y131.187 E0.03857
G1 X77.011 Y115.843 E1.29545
G1 X77.499 Y115.655 E0.03127
G1 X92.394 Y130.550 E1.25753
G1 X92.482 Y129.961 E0.03558
G1 X77.948 Y115.427 E1.22705
G1 X78.396 Y115.198 E0.03004
G1 X92.570 Y129.372 E1.19662
G1 X92.705 Y128.830 E0.03331
G1 X78.755 Y114.880 E1.17779
G1 X79.093 Y114.542 E0.02857
G1 X92.841 Y128.289 E1.16066
G1 X93.008 Y127.779 E0.03203
G1 X79.432 Y114.203 E1.14620
G1 X79.684 Y113.779 E0.02948
G1 X93.186 Y127.281 E1.13993
G1 X93.378 Y126.796 E0.03115
G1 X79.913 Y113.330 E1.13682
G1 X80.141 Y112.882 E0.03004
G1 X93.595 Y126.336 E1.13588
G1 X93.813 Y125.876 E0.03035
G1 X80.248 Y112.312 E1.14520
G1 X80.341 Y111.728 E0.03532
G1 X94.061 Y125.448 E1.15833
G1 X99.229 Y120.462 F7800.000
G1 X94.335 Y115.568 E0.41318 F1620.000
G1 X94.362 Y116.272 E0.04206
G1 X98.800 Y120.710 E0.37467
G1 X98.376 Y120.963 E0.02946
G1 X94.262 Y116.849 E0.34738
G1 X94.081 Y117.344 E0.03150
G1 X97.962 Y121.226 E0.32774
G1 X97.574 Y121.515 E0.02889
G1 X93.833 Y117.773 E0.31585
G1 X93.517 Y118.135 E0.02864
G1 X97.185 Y121.803 E0.30967
G1 X96.818 Y122.113 E0.02868
G1 X93.152 Y118.446 E0.30953
G1 X92.734 Y118.706 E0.02935
G1 X96.463 Y122.435 E0.31483
G1 X96.108 Y122.756 E0.02861
G1 X92.255 Y118.903 E0.32530
G1 X91.694 Y119.019 E0.03421
G1 X95.786 Y123.111 E0.34551
G1 X95.464 Y123.466 E0.02861
G1 X91.017 Y119.019 E0.37549
G1 X90.340 Y119.019 E0.04041
G1 X95.154 Y123.833 E0.40646
G1 X94.866 Y124.222 E0.02889
G1 X89.663 Y119.019 E0.43928
G1 X88.959 Y118.992 E0.04207
G1 X94.578 Y124.611 E0.47440
G1 X94.315 Y125.024 E0.02927
G1 X87.941 Y118.651 E0.53813
G1 X87.033 Y117.743 F7800.000
G1 X80.379 Y111.089 E0.56179 F1620.000
G1 X80.379 Y110.412 E0.04041
G1 X86.661 Y116.694 E0.53040
G1 X86.641 Y115.997 E0.04162
G1 X80.379 Y109.735 E0.52872
G1 X80.379 Y109.058 E0.04041
G1 X86.746 Y115.426 E0.53759
G1 X86.934 Y114.936 E0.03130
G1 X80.379 Y108.381 E0.55339
G1 X80.379 Y107.704 E0.04041
G1 X87.179 Y114.505 E0.57412
G1 X87.499 Y114.147 E0.02862
G1 X80.881 Y107.529 E0.55876
G1 X81.557 Y107.529 E0.04041
G1 X87.868 Y113.839 E0.53276
G1 X88.289 Y113.584 E0.02942
G1 X82.234 Y107.529 E0.51121
G1 X82.911 Y107.529 E0.04041
G1 X88.773 Y113.391 E0.49489
G1 X89.340 Y113.281 E0.03449
G1 X83.588 Y107.529 E0.48564
G1 X84.265 Y107.529 E0.04041
G1 X90.017 Y113.281 E0.48564
G1 X90.694 Y113.281 E0.04041
G1 X84.942 Y107.529 E0.48564
G1 X85.619 Y107.529 E0.04041
G1 X91.371 Y113.281 E0.48564
G1 X92.084 Y113.318 E0.04264
G1 X86.296 Y107.529 E0.48871
G1 X86.973 Y107.529 E0.04041
G1 X93.159 Y113.715 E0.52229
G1 X93.920 Y114.477 F7800.000
G1 X99.688 Y120.244 E0.48695 F1620.000
G1 X100.148 Y120.027 E0.03035
G1 X87.650 Y107.529 E1.05518
G1 X88.327 Y107.529 E0.04041
G1 X100.633 Y119.836 E1.03901
G1 X101.132 Y119.657 E0.03161
G1 X89.003 Y107.529 E1.02395
G1 X89.680 Y107.529 E0.04041
G1 X101.642 Y119.490 E1.00985
G1 X102.183 Y119.355 E0.03331
G1 X90.357 Y107.529 E0.99841
G1 X91.034 Y107.529 E0.04041
G1 X102.727 Y119.222 E0.98719
G1 X103.315 Y119.133 E0.03550
G1 X91.711 Y107.529 E0.97968
G1 X92.388 Y107.529 E0.04041
G1 X103.903 Y119.044 E0.97217
G1 X104.540 Y119.005 E0.03813
G1 X93.065 Y107.529 E0.96885
G1 X93.742 Y107.529 E0.04041
G1 X105.186 Y118.973 E0.96617
G1 X105.861 Y118.971 E0.04030
G1 X94.419 Y107.529 E0.96602
G1 X95.096 Y107.529 E0.04041
G1 X106.538 Y118.971 E0.96602
G1 X107.214 Y118.971 E0.04041
G1 X95.772 Y107.529 E0.96602
G1 X96.449 Y107.529 E0.04041
G1 X107.891 Y118.971 E0.96602
G1 X108.568 Y118.971 E0.04041
G1 X97.126 Y107.529 E0.96602
G1 X97.803 Y107.529 E0.04041
G1 X109.245 Y118.971 E0.96602
G1 X109.922 Y118.971 E0.04041
