; generated by Slic3r 1.3.1-dev (Build 2d100c4) on 2020-05-15 at 13:15:34

; external perimeters extrusion width = 0.44mm (3.91mm^3/s)
; perimeters extrusion width = 0.56mm (5.65mm^3/s)
; infill extrusion width = 0.50mm (5.02mm^3/s)
; solid infill extrusion width = 0.56mm (5.65mm^3/s)
; top infill extrusion width = 0.56mm (5.65mm^3/s)

M107
M190 S60 ; set bed temperature and wait for it to be reached
M104 S215 ; set temperature
G28 ; home all axes
G92 E0.0 ; reset extruder
; Filament gcode

M109 S215 ; set temperature and wait for it to be reached
G21 ; set units to millimeters
G90 ; use absolute coordinates
M83 ; use relative distances for extrusion
G1 E-1.30000 F3600.00000
G1 Z0.300 F7800.000
G1 X56.976 Y34.783 F7800.000
G1 E1.30000 F3600.00000
M201 X500 Y500
M204 P500 T500
G1 F2160.000
G1 X58.106 Y33.456 E0.10341
G1 X62.106 Y29.456 E0.33558
G1 X64.457 Y27.669 E0.17519
G1 X67.200 Y26.574 E0.17519
G1 X69.850 Y26.249 E0.15840
G1 X82.850 Y26.249 E0.77118
G1 X85.776 Y26.647 E0.17519
G1 X88.490 Y27.813 E0.17519
G1 X90.594 Y29.456 E0.15840
G1 X123.894 Y62.756 E2.79366
G1 X125.681 Y65.107 E0.17519
G1 X126.776 Y67.850 E0.17519
G1 X127.101 Y70.500 E0.15840
G1 X127.101 Y109.500 E2.31355
G1 X126.703 Y112.426 E0.17519
G1 X125.537 Y115.140 E0.17519
G1 X123.894 Y117.244 E0.15840
G1 X90.594 Y150.544 E2.79366
G1 X88.243 Y152.331 E0.17519
G1 X85.500 Y153.426 E0.17519
G1 X82.850 Y153.751 E0.15840
G1 X69.850 Y153.751 E0.77118
G1 X66.924 Y153.353 E0.17519
G1 X64.210 Y152.187 E0.17519
G1 X62.106 Y150.544 E0.15840
G1 X58.106 Y146.544 E0.33558
G1 X56.319 Y144.193 E0.17519
G1 X55.224 Y141.450 E0.17519
G1 X54.938 Y139.731 E0.10341
G1 X52.938 Y116.281 E1.39615
G1 X52.899 Y115.350 E0.05526
G1 X52.899 Y64.650 E3.00762
G1 X52.938 Y63.719 E0.05526
G1 X54.938 Y40.269 E1.39615
G1 X55.584 Y37.388 E0.17519
G1 X56.947 Y34.836 E0.17163
G1 X57.436 Y34.959 F7800.000
G1 F2160.000
G1 X58.443 Y33.793 E0.09138
G1 X62.443 Y29.793 E0.33558
G1 X64.747 Y28.051 E0.17132
G1 X67.439 Y27.006 E0.17132
G1 X69.850 Y26.724 E0.14401
G1 X82.850 Y26.724 E0.77118
G1 X85.710 Y27.122 E0.17132
G1 X88.353 Y28.286 E0.17132
G1 X90.257 Y29.793 E0.14401
G1 X123.557 Y63.093 E2.79366
G1 X125.299 Y65.397 E0.17132
G1 X126.344 Y68.089 E0.17132
G1 X126.626 Y70.500 E0.14401
G1 X126.626 Y109.500 E2.31355
G1 X126.228 Y112.360 E0.17132
G1 X125.064 Y115.003 E0.17132
G1 X123.557 Y116.907 E0.14401
G1 X90.257 Y150.207 E2.79366
G1 X87.953 Y151.949 E0.17132
G1 X85.261 Y152.994 E0.17132
G1 X82.850 Y153.276 E0.14401
G1 X69.850 Y153.276 E0.77118
G1 X66.990 Y152.878 E0.17132
G1 X64.347 Y151.714 E0.17132
G1 X62.443 Y150.207 E0.14401
G1 X58.443 Y146.207 E0.33558
G1 X56.701 Y143.903 E0.17132
G1 X55.656 Y141.211 E0.17132
G1 X55.412 Y139.690 E0.09138
G1 X53.412 Y116.240 E1.39615
G1 X53.374 Y115.350 E0.05286
G1 X53.374 Y64.650 E3.00762
G1 X53.412 Y63.760 E0.05286
G1 X55.412 Y40.310 E1.39615
G1 X56.052 Y37.494 E0.17132
G1 X57.408 Y35.012 E0.16776
G1 F6240.000
G1 X58.443 Y33.793 E-0.87645
G1 F6240.000
G1 X58.905 Y33.330 E-0.35855
G1 E-0.06500 F3600.00000
G1 X82.800 Y134.899 F7800.000
G1 E1.30000 F3600.00000
G1 F1080.000
G1 X83.240 Y135.218 E0.03223
G1 X83.603 Y135.622 E0.03224
G1 X83.875 Y136.093 E0.03224
G1 X84.043 Y136.610 E0.03225
G1 X84.100 Y137.150 E0.03224
G1 X84.043 Y137.690 E0.03223
G1 X83.875 Y138.207 E0.03225
G1 X83.603 Y138.678 E0.03224
G1 X83.240 Y139.082 E0.03224
G1 X82.800 Y139.401 E0.03223
G1 X82.303 Y139.623 E0.03224
G1 X81.772 Y139.736 E0.03225
G1 X79.228 Y139.736 E0.15089
G1 X78.697 Y139.623 E0.03225
G1 X78.200 Y139.401 E0.03224
G1 X77.760 Y139.082 E0.03223
G1 X77.397 Y138.678 E0.03224
G1 X77.125 Y138.207 E0.03224
G1 X76.957 Y137.690 E0.03225
G1 X76.900 Y137.150 E0.03223
G1 X76.957 Y136.610 E0.03224
G1 X77.125 Y136.093 E0.03225
G1 X77.397 Y135.622 E0.03224
G1 X77.760 Y135.218 E0.03224
G1 X78.200 Y134.899 E0.03223
G1 X78.697 Y134.677 E0.03224
G1 X79.228 Y134.564 E0.03225
G1 X81.772 Y134.564 E0.15089
G1 X82.303 Y134.677 E0.03225
G1 X82.745 Y134.874 E0.02868
G1 X82.561 Y135.313 F7800.000
G1 F1080.000
G1 X82.920 Y135.573 E0.02631
G1 X83.216 Y135.903 E0.02631
G1 X83.438 Y136.287 E0.02631
G1 X83.575 Y136.709 E0.02632
G1 X83.621 Y137.150 E0.02631
G1 X83.575 Y137.591 E0.02631
G1 X83.438 Y138.013 E0.02632
G1 X83.216 Y138.397 E0.02631
G1 X82.920 Y138.727 E0.02631
G1 X82.561 Y138.987 E0.02631
G1 X82.156 Y139.168 E0.02631
G1 X81.722 Y139.260 E0.02631
G1 X79.278 Y139.260 E0.14496
G1 X78.844 Y139.168 E0.02631
G1 X78.439 Y138.987 E0.02631
G1 X78.080 Y138.727 E0.02631
G1 X77.784 Y138.397 E0.02631
G1 X77.562 Y138.013 E0.02631
G1 X77.425 Y137.591 E0.02632
G1 X77.379 Y137.150 E0.02631
G1 X77.425 Y136.709 E0.02631
G1 X77.562 Y136.287 E0.02632
G1 X77.784 Y135.903 E0.02631
G1 X78.080 Y135.573 E0.02631
G1 X78.439 Y135.313 E0.02631
G1 X78.844 Y135.132 E0.02631
G1 X79.278 Y135.040 E0.02631
G1 X81.722 Y135.040 E0.14496
G1 X82.156 Y135.132 E0.02631
G1 X82.506 Y135.288 E0.02275
G1 X82.561 Y135.313 F7800.000
G1 F6240.000
G1 X82.561 Y135.313 E-0.03289
G1 F6240.000
G1 X82.920 Y135.573 E-0.24305
G1 F6240.000
G1 X83.216 Y135.903 E-0.24308
G1 F6240.000
G1 X83.438 Y136.287 E-0.24308
G1 F6240.000
G1 X83.575 Y136.709 E-0.24313
G1 F6240.000
G1 X83.619 Y137.126 E-0.22979
G1 E-0.06500 F3600.00000
G1 X81.772 Y108.736 F7800.000
G1 E1.30000 F3600.00000
G1 F1080.000
G1 X79.228 Y108.736 E0.15089
G1 X78.697 Y108.623 E0.03225
G1 X78.200 Y108.401 E0.03224
G1 X77.760 Y108.082 E0.03223
G1 X77.397 Y107.678 E0.03224
G1 X77.125 Y107.207 E0.03224
G1 X76.957 Y106.690 E0.03225
G1 X76.900 Y106.150 E0.03224
G1 X76.957 Y105.610 E0.03224
G1 X77.125 Y105.093 E0.03224
G1 X77.397 Y104.622 E0.03224
G1 X77.760 Y104.218 E0.03224
G1 X78.200 Y103.899 E0.03224
G1 X78.697 Y103.678 E0.03224
G1 X79.228 Y103.565 E0.03224
G1 X81.772 Y103.565 E0.15089
G1 X82.303 Y103.678 E0.03224
G1 X82.800 Y103.899 E0.03224
G1 X83.240 Y104.218 E0.03224
G1 X83.603 Y104.622 E0.03224
G1 X83.875 Y105.093 E0.03224
G1 X84.043 Y105.610 E0.03224
G1 X84.100 Y106.150 E0.03224
G1 X84.043 Y106.690 E0.03224
G1 X83.875 Y107.207 E0.03225
G1 X83.603 Y107.678 E0.03224
G1 X83.240 Y108.082 E0.03224
G1 X82.800 Y108.401 E0.03223
G1 X82.303 Y108.623 E0.03224
G1 X81.830 Y108.723 E0.02869
G1 X81.722 Y108.260 F7800.000
G1 F1080.000
G1 X79.278 Y108.260 E0.14496
G1 X78.844 Y108.168 E0.02631
G1 X78.439 Y107.987 E0.02631
G1 X78.080 Y107.727 E0.02631
G1 X77.784 Y107.397 E0.02631
G1 X77.562 Y107.013 E0.02631
G1 X77.425 Y106.591 E0.02631
G1 X77.379 Y106.150 E0.02631
G1 X77.425 Y105.709 E0.02631
G1 X77.562 Y105.287 E0.02631
G1 X77.784 Y104.903 E0.02631
G1 X78.080 Y104.573 E0.02631
G1 X78.439 Y104.313 E0.02631
G1 X78.844 Y104.132 E0.02631
G1 X79.278 Y104.040 E0.02631
G1 X81.722 Y104.040 E0.14496
G1 X82.156 Y104.132 E0.02631
G1 X82.561 Y104.313 E0.02631
G1 X82.920 Y104.573 E0.02631
G1 X83.216 Y104.903 E0.02631
G1 X83.438 Y105.287 E0.02631
G1 X83.575 Y105.709 E0.02631
G1 X83.621 Y106.150 E0.02631
G1 X83.575 Y106.591 E0.02631
G1 X83.438 Y107.013 E0.02631
G1 X83.216 Y107.397 E0.02631
G1 X82.920 Y107.727 E0.02631
G1 X82.561 Y107.987 E0.02631
G1 X82.156 Y108.168 E0.02631
G1 X81.780 Y108.247 E0.02275
G1 X81.722 Y108.260 F7800.000
G1 F6240.000
G1 X81.722 Y108.260 E-0.03288
G1 F6240.000
G1 X79.528 Y108.260 E-1.20212
G1 E-0.06500 F3600.00000
G1 X107.900 Y106.150 F7800.000
G1 E1.30000 F3600.00000
G1 F1080.000
G1 X107.957 Y105.610 E0.03224
G1 X108.125 Y105.093 E0.03224
G1 X108.397 Y104.622 E0.03224
G1 X108.760 Y104.218 E0.03224
G1 X109.200 Y103.899 E0.03224
G1 X109.697 Y103.678 E0.03224
G1 X110.228 Y103.565 E0.03224
G1 X112.772 Y103.565 E0.15089
G1 X113.303 Y103.678 E0.03224
G1 X113.800 Y103.899 E0.03224
G1 X114.240 Y104.218 E0.03224
G1 X114.603 Y104.622 E0.03224
G1 X114.875 Y105.093 E0.03224
G1 X115.043 Y105.610 E0.03224
G1 X115.100 Y106.150 E0.03224
G1 X115.043 Y106.690 E0.03224
G1 X114.875 Y107.207 E0.03225
G1 X114.603 Y107.678 E0.03224
G1 X114.240 Y108.082 E0.03224
G1 X113.800 Y108.401 E0.03223
G1 X113.303 Y108.623 E0.03224
G1 X112.772 Y108.736 E0.03225
G1 X110.228 Y108.736 E0.15089
G1 X109.697 Y108.623 E0.03225
G1 X109.200 Y108.401 E0.03224
G1 X108.760 Y108.082 E0.03223
G1 X108.397 Y107.678 E0.03224
G1 X108.125 Y107.207 E0.03224
G1 X107.957 Y106.690 E0.03225
G1 X107.907 Y106.210 E0.02868
G1 X108.379 Y106.150 F7800.000
G1 F1080.000
G1 X108.425 Y105.709 E0.02631
G1 X108.562 Y105.287 E0.02631
G1 X108.784 Y104.903 E0.02631
G1 X109.080 Y104.573 E0.02631
G1 X109.439 Y104.313 E0.02631
G1 X109.844 Y104.132 E0.02631
G1 X110.278 Y104.040 E0.02631
G1 X112.722 Y104.040 E0.14496
G1 X113.156 Y104.132 E0.02631
G1 X113.561 Y104.313 E0.02631
G1 X113.920 Y104.573 E0.02631
G1 X114.216 Y104.903 E0.02631
G1 X114.438 Y105.287 E0.02631
G1 X114.575 Y105.709 E0.02631
G1 X114.621 Y106.150 E0.02631
G1 X114.575 Y106.591 E0.02631
G1 X114.438 Y107.013 E0.02631
G1 X114.216 Y107.397 E0.02631
G1 X113.920 Y107.727 E0.02631
G1 X113.561 Y107.987 E0.02631
G1 X113.156 Y108.168 E0.02631
G1 X112.722 Y108.260 E0.02631
G1 X110.278 Y108.260 E0.14496
G1 X109.844 Y108.168 E0.02631
G1 X109.439 Y107.987 E0.02631
G1 X109.080 Y107.727 E0.02631
G1 X108.784 Y107.397 E0.02631
G1 X108.562 Y107.013 E0.02631
G1 X108.425 Y106.591 E0.02631
G1 X108.385 Y106.210 E0.02275
G1 X108.379 Y106.150 F7800.000
G1 F6240.000
G1 X108.379 Y106.150 E-0.03288
G1 F6240.000
G1 X108.425 Y105.709 E-0.24307
G1 F6240.000
G1 X108.562 Y105.287 E-0.24308
G1 F6240.000
G1 X108.784 Y104.903 E-0.24309
G1 F6240.000
G1 X109.080 Y104.573 E-0.24308
G1 F6240.000
G1 X109.420 Y104.327 E-0.22980
G1 E-0.06500 F3600.00000
G1 X66.596 Y108.396 F7800.000
G1 E1.30000 F3600.00000
G1 F1620.000
G1 X66.596 Y105.637 E0.16366
G1 X67.165 Y105.547 E0.03419
G1 X68.351 Y104.942 E0.07897
G1 X69.292 Y104.001 E0.07897
G1 X69.897 Y102.815 E0.07897
G1 X70.096 Y101.559 E0.07545
G1 X70.096 Y97.246 E0.25586
G1 X115.404 Y97.246 E2.68780
G1 X115.404 Y109.254 E0.71238
G1 X95.149 Y109.254 E1.20157
G1 X93.920 Y109.314 E0.07300
G1 X92.702 Y109.495 E0.07304
G1 X91.508 Y109.794 E0.07304
G1 X90.349 Y110.209 E0.07304
G1 X89.236 Y110.735 E0.07304
G1 X88.180 Y111.368 E0.07304
G1 X87.191 Y112.101 E0.07304
G1 X86.278 Y112.928 E0.07304
G1 X85.451 Y113.841 E0.07304
G1 X84.718 Y114.830 E0.07304
G1 X84.085 Y115.886 E0.07304
G1 X83.559 Y116.999 E0.07304
G1 X83.144 Y118.158 E0.07304
G1 X82.845 Y119.352 E0.07304
G1 X82.664 Y120.570 E0.07304
G1 X82.603 Y121.800 E0.07304
G1 X82.664 Y123.030 E0.07304
G1 X82.845 Y124.248 E0.07304
G1 X83.144 Y125.442 E0.07304
G1 X83.559 Y126.601 E0.07304
G1 X84.085 Y127.714 E0.07304
G1 X84.718 Y128.770 E0.07304
G1 X85.451 Y129.759 E0.07304
G1 X86.278 Y130.672 E0.07304
G1 X86.404 Y130.786 E0.01010
G1 X86.404 Y138.191 E0.43928
G1 X82.541 Y142.054 E0.32410
G1 X70.159 Y142.054 E0.73454
G1 X66.596 Y138.491 E0.29893
G1 X66.596 Y114.604 E1.41701
G1 X64.596 Y114.604 E0.11864
G1 X64.596 Y108.396 E0.36832
G1 X66.536 Y108.396 E0.11508
G1 X66.120 Y107.920 F7800.000
G1 F1458.000
G1 X66.120 Y105.231 E0.15954
G1 X67.016 Y105.089 E0.05382
G1 X68.068 Y104.553 E0.07003
G1 X68.903 Y103.718 E0.07003
G1 X69.439 Y102.666 E0.07003
G1 X69.620 Y101.521 E0.06876
G1 X69.620 Y96.770 E0.28185
G1 X115.880 Y96.770 E2.74423
G1 X115.880 Y109.388 E0.74853
G1 X115.538 Y109.730 E0.02868
G1 X95.161 Y109.729 E1.20881
G1 X93.967 Y109.788 E0.07092
G1 X92.795 Y109.962 E0.07027
G1 X91.646 Y110.249 E0.07027
G1 X90.531 Y110.648 E0.07027
G1 X89.460 Y111.155 E0.07027
G1 X88.444 Y111.764 E0.07027
G1 X87.493 Y112.470 E0.07027
G1 X86.615 Y113.265 E0.07027
G1 X85.820 Y114.143 E0.07027
G1 X85.114 Y115.094 E0.07027
G1 X84.505 Y116.110 E0.07027
G1 X83.998 Y117.181 E0.07027
G1 X83.599 Y118.296 E0.07027
G1 X83.312 Y119.445 E0.07027
G1 X83.138 Y120.617 E0.07027
G1 X83.080 Y121.800 E0.07027
G1 X83.138 Y122.983 E0.07027
G1 X83.312 Y124.155 E0.07027
G1 X83.599 Y125.304 E0.07027
G1 X83.998 Y126.419 E0.07027
G1 X84.505 Y127.490 E0.07027
G1 X85.114 Y128.506 E0.07027
G1 X85.820 Y129.457 E0.07027
G1 X86.615 Y130.335 E0.07027
G1 X86.880 Y130.575 E0.02122
G1 X86.880 Y138.388 E0.46348
G1 X82.738 Y142.530 E0.34747
G1 X69.962 Y142.530 E0.75792
G1 X66.120 Y138.688 E0.32231
G1 X66.120 Y115.080 E1.40048
G1 X64.120 Y115.080 E0.11864
G1 X64.120 Y107.920 E0.42474
G1 X66.060 Y107.920 E0.11508
G1 X66.483 Y107.752 F7800.000
G1 X65.578 Y108.821 F7800.000
G1 F1620.000
G1 X65.021 Y109.378 E0.04712
G1 X65.021 Y110.056 E0.04059
G1 X66.256 Y108.821 E0.10452
G1 X66.934 Y108.821 E0.04059
G1 X65.021 Y110.734 E0.16193
G1 F6240.000
G1 X66.614 Y109.141 E-1.23500
G1 E-0.06500 F3600.00000
G1 X76.606 Y105.255 F7800.000
G1 E1.30000 F3600.00000
G1 F1620.000
G1 X67.021 Y114.840 E0.81109
G1 X67.021 Y115.519 E0.04059
G1 X76.476 Y106.063 E0.80009
G1 X76.534 Y106.684 E0.03731
G1 X67.021 Y116.197 E0.80496
G1 X67.021 Y116.875 E0.04059
G1 X76.691 Y107.205 E0.81826
G1 X76.739 Y107.352 E0.00920
G1 X76.916 Y107.659 E0.02122
G1 X67.021 Y117.554 E0.83729
G1 X67.021 Y118.232 E0.04059
G1 X77.195 Y108.058 E0.86089
G1 X77.522 Y108.409 E0.02872
G1 X67.021 Y118.911 E0.88857
G1 X67.021 Y119.589 E0.04059
G1 X77.915 Y108.695 E0.92182
G1 X78.011 Y108.765 E0.00713
G1 X78.366 Y108.923 E0.02320
G1 X67.021 Y120.268 E0.95995
G1 X67.021 Y120.946 E0.04059
G1 X78.880 Y109.087 E1.00349
G1 X79.229 Y109.161 E0.02132
G1 X79.484 Y109.161 E0.01530
G1 X67.021 Y121.624 E1.05463
G1 X67.021 Y122.303 E0.04059
G1 X80.163 Y109.161 E1.11203
G1 X80.841 Y109.161 E0.04059
G1 X67.021 Y122.981 E1.16944
G1 X67.021 Y123.660 E0.04059
G1 X81.520 Y109.161 E1.22684
G1 X81.872 Y109.161 E0.02109
G1 X82.286 Y109.073 E0.02532
G1 X67.021 Y124.338 E1.29169
G1 X67.021 Y125.016 E0.04059
G1 X94.366 Y97.671 E2.31388
G1 X95.045 Y97.671 E0.04059
G1 X67.021 Y125.695 E2.37128
G1 X67.021 Y126.373 E0.04059
G1 X95.723 Y97.671 E2.42869
G1 X96.402 Y97.671 E0.04059
G1 X67.021 Y127.052 E2.48609
G1 X67.021 Y127.730 E0.04059
G1 X97.080 Y97.671 E2.54350
G1 X97.759 Y97.671 E0.04059
G1 X67.021 Y128.409 E2.60090
G1 X67.021 Y129.087 E0.04059
G1 X98.437 Y97.671 E2.65831
G1 X99.115 Y97.671 E0.04059
G1 X67.021 Y129.765 E2.71571
G1 X67.021 Y130.444 E0.04059
G1 X99.794 Y97.671 E2.77312
G1 X100.472 Y97.671 E0.04059
G1 X67.021 Y131.122 E2.83052
G1 X67.021 Y131.801 E0.04059
G1 X84.561 Y114.260 E1.48419
G1 X84.373 Y114.515 E0.01894
G1 X83.715 Y115.611 E0.07646
G1 X83.560 Y115.940 E0.02182
G1 X67.021 Y132.479 E1.39944
G1 X67.021 Y133.157 E0.04059
G1 X83.034 Y117.145 E1.35493
G1 X82.739 Y117.969 E0.05239
G1 X82.689 Y118.168 E0.01226
G1 X67.021 Y133.836 E1.32576
G1 X67.021 Y134.514 E0.04059
G1 X82.462 Y119.073 E1.30657
G1 X82.328 Y119.886 E0.04930
G1 X67.021 Y135.193 E1.29519
G1 X67.021 Y135.871 E0.04059
G1 X82.231 Y120.661 E1.28705
G1 X82.196 Y121.374 E0.04274
G1 X67.021 Y136.550 E1.28408
G1 X67.021 Y137.228 E0.04059
G1 X82.193 Y122.056 E1.28379
G1 X82.225 Y122.703 E0.03874
G1 X67.021 Y137.906 E1.28648
G1 X67.021 Y138.345 E0.02622
G1 X67.141 Y138.465 E0.01016
G1 X82.284 Y123.321 E1.28137
G1 X82.372 Y123.912 E0.03574
G1 X67.480 Y138.804 E1.26008
G1 X67.819 Y139.143 E0.02870
G1 X82.477 Y124.486 E1.24027
G1 X82.613 Y125.028 E0.03346
G1 X68.158 Y139.482 E1.22306
G1 X68.498 Y139.822 E0.02870
G1 X82.752 Y125.567 E1.20613
G1 X82.931 Y126.067 E0.03175
G1 X68.837 Y140.161 E1.19256
G1 X69.176 Y140.500 E0.02870
G1 X83.109 Y126.567 E1.17898
G1 X83.314 Y127.040 E0.03087
G1 X69.515 Y140.839 E1.16761
G1 X69.855 Y141.178 E0.02870
G1 X83.532 Y127.501 E1.15734
G1 X83.756 Y127.956 E0.03032
G1 X70.194 Y141.518 E1.14756
G1 X70.305 Y141.629 E0.00945
G1 X70.760 Y141.629 E0.02723
G1 X77.007 Y135.383 E0.52856
G1 X76.739 Y135.848 E0.03212
G1 X76.540 Y136.460 E0.03851
G1 X76.532 Y136.536 E0.00462
G1 X71.439 Y141.629 E0.43093
G1 X72.117 Y141.629 E0.04059
G1 X76.489 Y137.257 E0.36992
G1 X76.540 Y137.739 E0.02899
G1 X76.575 Y137.849 E0.00693
G1 X72.796 Y141.629 E0.31983
G1 X73.474 Y141.629 E0.04059
G1 X76.743 Y138.360 E0.27663
G1 X76.992 Y138.790 E0.02971
G1 X74.153 Y141.629 E0.24024
G1 X74.831 Y141.629 E0.04059
G1 X77.293 Y139.167 E0.20833
G1 X77.491 Y139.387 E0.01769
G1 X77.642 Y139.497 E0.01117
G1 X75.509 Y141.629 E0.18045
G1 X76.188 Y141.629 E0.04059
G1 X78.040 Y139.778 E0.15668
G1 X78.509 Y139.987 E0.03074
G1 X76.866 Y141.629 E0.13899
G1 X77.545 Y141.629 E0.04059
G1 X79.051 Y140.123 E0.12746
