; generated by Slic3r 1.2.9 on 2020-05-14 at 22:51:22

; external perimeters extrusion width = 0.40mm
; perimeters extrusion width = 0.56mm
; infill extrusion width = 0.56mm
; solid infill extrusion width = 0.56mm
; top infill extrusion width = 0.56mm

M107
M190 S60 ; set bed temperature
M104 S215 ; set temperature
G28 ; home all axes
G92 E0.0 ; reset extruder
M109 S215 ; wait for temperature to be reached
G21 ; set units to millimeters
G90 ; use absolute coordinates
M83 ; use relative distances for extrusion
G1 E-1.30000 F3600.00000
G1 Z0.300 F7800.000
G1 X69.876 Y93.671 F7800.000
G1 E1.30000 F3600.00000
M204 S500
G1 X87.669 Y81.670 E1.27321 F2160.000
G1 X90.318 Y80.364 E0.17519
G1 X93.791 Y79.799 E0.20873
G1 X106.209 Y79.799 E0.73669
G1 X109.135 Y80.197 E0.17519
G1 X112.326 Y81.666 E0.20838 F2160.000
G1 X130.124 Y93.671 E1.27353
G1 X132.327 Y95.637 E0.17519
G1 X133.925 Y98.121 E0.17519
G1 X134.801 Y100.941 E0.17519
G1 X134.951 Y102.750 E0.10767
G1 X134.951 Y108.250 E0.32627
G1 X134.553 Y111.176 E0.17519
G1 X133.387 Y113.890 E0.17519
G1 X131.539 Y116.193 E0.17519
G1 X129.143 Y117.919 E0.17519
G1 X126.372 Y118.941 E0.17519
G1 X124.000 Y119.201 E0.14158
G1 X76.000 Y119.201 E2.84745
G1 X73.074 Y118.803 E0.17519
G1 X70.360 Y117.637 E0.17519
G1 X68.057 Y115.789 E0.17519
G1 X66.331 Y113.393 E0.17519
G1 X65.309 Y110.622 E0.17519
G1 X65.049 Y108.250 E0.14158
G1 X65.049 Y102.750 E0.32627
G1 X65.447 Y99.824 E0.17519
G1 X66.613 Y97.110 E0.17519
G1 X68.461 Y94.807 E0.17519
G1 X69.829 Y93.709 E0.10407
G1 X70.142 Y94.066 F7800.000
G1 X87.935 Y82.064 E1.27320 F2160.000
G1 X90.529 Y80.795 E0.17132
G1 X93.791 Y80.274 E0.19593
G1 X106.209 Y80.274 E0.73669
G1 X109.070 Y80.672 E0.17132
G1 X112.060 Y82.061 E0.19560 F2160.000
G1 X129.858 Y94.065 E1.27350
G1 X132.007 Y95.995 E0.17132
G1 X133.547 Y98.438 E0.17132
G1 X134.362 Y101.209 E0.17132
G1 X134.476 Y102.750 E0.09169
G1 X134.476 Y108.250 E0.32627
G1 X134.078 Y111.110 E0.17132
G1 X132.914 Y113.753 E0.17132
G1 X131.072 Y115.978 E0.17132
G1 X128.693 Y117.616 E0.17132
G1 X125.957 Y118.541 E0.17132
G1 X124.000 Y118.726 E0.11663
G1 X76.000 Y118.726 E2.84745
G1 X73.140 Y118.328 E0.17132
G1 X70.497 Y117.164 E0.17132
G1 X68.272 Y115.322 E0.17132
G1 X66.634 Y112.943 E0.17132
G1 X65.709 Y110.207 E0.17132
G1 X65.524 Y108.250 E0.11663
G1 X65.524 Y102.750 E0.32627
G1 X65.922 Y99.890 E0.17132
G1 X67.086 Y97.247 E0.17132
G1 X68.928 Y95.022 E0.17132
G1 X70.094 Y94.103 E0.08809
G1 F6240
G1 X71.962 Y92.842 E-1.23500
G1 E-0.06500 F3600.00000
G1 X123.254 Y107.504 F7800.000
G1 E1.30000 F3600.00000
G1 X76.746 Y107.504 E2.75899 F1620.000
G1 X76.746 Y103.146 E0.25852
G1 X94.019 Y91.496 E1.23597
G1 X105.983 Y91.496 E0.70972
G1 X123.254 Y103.146 E1.23589
G1 X123.254 Y107.444 E0.25496
G1 X123.730 Y107.980 F7800.000
G1 X76.270 Y107.980 E2.81542 F1458.000
G1 X76.270 Y102.894 E0.30174
G1 X93.873 Y91.020 E1.25960
G1 X106.128 Y91.021 E0.72697
G1 X123.730 Y102.894 E1.25951
G1 X123.730 Y107.920 E0.29818
G1 X123.384 Y107.780 F7800.000
G1 X122.971 Y103.482 F7800.000
G1 X122.675 Y103.186 E0.02500 F1620.000
G1 X122.971 Y104.160 E0.06075
G1 X120.594 Y101.783 E0.20075
G1 X118.514 Y100.379 F7800.000
G1 X122.971 Y104.837 E0.37651 F1620.000
G1 X122.971 Y105.514 E0.04045
G1 X116.433 Y98.976 E0.55226
G1 X114.352 Y97.573 F7800.000
G1 X122.971 Y106.191 E0.72802 F1620.000
G1 X122.971 Y106.869 E0.04045
G1 X112.272 Y96.169 E0.90378
G1 X110.191 Y94.766 F7800.000
G1 X122.646 Y107.221 E1.05210 F1620.000
G1 X121.969 Y107.221 E0.04045
G1 X108.110 Y93.362 E1.17065
G1 X106.030 Y91.959 F7800.000
G1 X121.292 Y107.221 E1.28920 F1620.000
G1 X120.615 Y107.221 E0.04045
G1 X105.173 Y91.780 E1.30432
G1 X104.496 Y91.780 E0.04045
G1 X119.937 Y107.221 E1.30433
G1 X119.260 Y107.221 E0.04045
G1 X103.819 Y91.780 E1.30433
G1 X103.141 Y91.780 E0.04045
G1 X118.583 Y107.221 E1.30433
G1 X117.906 Y107.221 E0.04045
G1 X102.464 Y91.780 E1.30434
G1 X101.787 Y91.780 E0.04045
G1 X117.228 Y107.221 E1.30434
G1 X116.551 Y107.221 E0.04045
G1 X101.110 Y91.779 E1.30435
G1 X100.432 Y91.779 E0.04045
G1 X115.874 Y107.221 E1.30435
G1 X115.197 Y107.221 E0.04045
G1 X99.755 Y91.779 E1.30435
G1 X99.078 Y91.779 E0.04045
G1 X114.519 Y107.221 E1.30436
G1 X113.842 Y107.221 E0.04045
G1 X98.400 Y91.779 E1.30436
G1 X97.723 Y91.779 E0.04045
G1 X113.165 Y107.221 E1.30437
G1 X112.488 Y107.221 E0.04045
G1 X97.046 Y91.779 E1.30437
G1 X96.368 Y91.779 E0.04045
G1 X111.810 Y107.221 E1.30437
G1 X111.133 Y107.221 E0.04045
G1 X95.691 Y91.779 E1.30438
G1 X95.014 Y91.779 E0.04045
G1 X110.456 Y107.221 E1.30438
G1 X109.779 Y107.221 E0.04045
G1 X94.337 Y91.779 E1.30438
G1 X93.811 Y91.930 E0.03268
G1 X109.101 Y107.221 E1.29160
G1 X108.424 Y107.221 E0.04045
G1 X93.406 Y92.203 E1.26855
G1 X93.002 Y92.476 E0.02914
G1 X107.747 Y107.221 E1.24551
G1 X107.070 Y107.221 E0.04045
G1 X92.597 Y92.749 E1.22247
G1 X92.193 Y93.022 E0.02914
G1 X106.392 Y107.221 E1.19942
G1 X105.715 Y107.221 E0.04045
G1 X91.788 Y93.294 E1.17638
G1 X91.384 Y93.567 E0.02914
G1 X105.038 Y107.221 E1.15333
G1 X104.361 Y107.221 E0.04045
G1 X90.980 Y93.840 E1.13029
G1 X90.575 Y94.113 E0.02914
G1 X103.683 Y107.221 E1.10725
G1 X103.006 Y107.221 E0.04045
G1 X90.171 Y94.386 E1.08420
G1 X89.766 Y94.658 E0.02914
G1 X102.329 Y107.221 E1.06116
G1 X101.652 Y107.221 E0.04045
G1 X89.362 Y94.931 E1.03812
G1 X88.957 Y95.204 E0.02914
G1 X100.974 Y107.221 E1.01507
G1 X100.297 Y107.221 E0.04045
G1 X88.553 Y95.477 E0.99203
G1 X88.148 Y95.750 E0.02914
G1 X99.620 Y107.221 E0.96899
G1 X98.943 Y107.221 E0.04045
G1 X87.744 Y96.022 E0.94594
G1 X87.340 Y96.295 E0.02914
G1 X98.265 Y107.221 E0.92290
G1 X97.588 Y107.221 E0.04045
G1 X86.935 Y96.568 E0.89986
G1 X86.531 Y96.841 E0.02914
G1 X96.911 Y107.221 E0.87681
G1 X96.234 Y107.221 E0.04045
G1 X86.126 Y97.114 E0.85377
G1 X85.722 Y97.386 E0.02914
G1 X95.556 Y107.221 E0.83072
G1 X94.879 Y107.221 E0.04045
G1 X85.317 Y97.659 E0.80768
G1 X84.913 Y97.932 E0.02914
G1 X94.202 Y107.221 E0.78464
G1 X93.525 Y107.221 E0.04045
G1 X84.508 Y98.205 E0.76159
G1 X84.104 Y98.478 E0.02914
G1 X92.847 Y107.221 E0.73855
G1 X92.170 Y107.221 E0.04045
G1 X83.700 Y98.750 E0.71551
G1 X83.295 Y99.023 E0.02914
G1 X91.493 Y107.221 E0.69246
G1 X90.816 Y107.221 E0.04045
G1 X82.891 Y99.296 E0.66942
G1 X82.486 Y99.569 E0.02914
G1 X90.138 Y107.221 E0.64638
G1 X89.461 Y107.221 E0.04045
G1 X82.082 Y99.842 E0.62333
G1 X81.677 Y100.114 E0.02914
G1 X88.784 Y107.221 E0.60029
G1 X88.107 Y107.221 E0.04045
G1 X81.273 Y100.387 E0.57725
G1 X80.868 Y100.660 E0.02914
G1 X87.429 Y107.221 E0.55420
G1 X86.752 Y107.221 E0.04045
G1 X80.464 Y100.933 E0.53116
G1 X80.060 Y101.206 E0.02914
G1 X86.075 Y107.221 E0.50811
G1 X85.398 Y107.221 E0.04045
G1 X79.655 Y101.478 E0.48507
G1 X79.251 Y101.751 E0.02914
G1 X84.720 Y107.221 E0.46203
G1 X84.043 Y107.221 E0.04045
G1 X78.846 Y102.024 E0.43898
G1 X78.442 Y102.297 E0.02914
G1 X83.366 Y107.221 E0.41594
G1 X82.689 Y107.221 E0.04045
G1 X78.037 Y102.570 E0.39290
G1 X77.633 Y102.843 E0.02914
G1 X82.011 Y107.221 E0.36985
G1 X81.334 Y107.221 E0.04045
G1 X77.228 Y103.115 E0.34681
G1 X77.029 Y103.593 E0.03092
G1 X80.657 Y107.221 E0.30645
G1 X79.980 Y107.221 E0.04045
G1 X77.029 Y104.270 E0.24925
G1 X77.029 Y104.948 E0.04045
G1 X79.302 Y107.221 E0.19204
G1 X78.625 Y107.221 E0.04045
G1 X77.029 Y105.625 E0.13483
G1 X77.029 Y106.302 E0.04045
G1 X77.948 Y107.221 E0.07763
G1 X77.271 Y107.221 E0.04045
G1 X77.029 Y106.979 E0.02042
M106 S255
M140 S50 ; wait for bed temperature to be reached
G1 F6240
G1 X77.271 Y107.221 E-0.18737
G1 F6240
G1 X77.948 Y107.221 E-0.37118
G1 F6240
G1 X77.075 Y106.348 E-0.67645
G1 E-0.06500 F3600.00000
G1 Z0.550 F7800.000
G1 X123.375 Y107.625 F7800.000
G1 E1.30000 F3600.00000
G1 X76.625 Y107.625 E2.44250 F2636.033
G1 X76.625 Y103.082 E0.23737
G1 X93.982 Y91.375 E1.09382
G1 X106.022 Y91.377 E0.62904
G1 X123.375 Y103.082 E1.09361
G1 X123.375 Y107.565 E0.23424
G1 X123.800 Y108.050 F7800.000
G1 X76.200 Y108.050 E1.71355 F2372.430
G1 X76.200 Y102.856 E0.18697
G1 X93.852 Y90.950 E0.76649
G1 X106.152 Y90.952 E0.44278
G1 X123.800 Y102.856 E0.76633
G1 X123.800 Y107.990 E0.18481
G1 X123.454 Y107.850 F7800.000
G1 X122.822 Y107.325 F7800.000
G1 X123.075 Y107.072 E0.01872 F2636.033
G1 X123.075 Y106.360 E0.03718
G1 X122.110 Y107.325 E0.07130
G1 X121.399 Y107.325 E0.03718
G1 X123.075 Y105.649 E0.12387
G1 X123.075 Y104.938 E0.03718
G1 X120.688 Y107.325 E0.17645
G1 X119.977 Y107.325 E0.03718
G1 X123.075 Y104.227 E0.22903
G1 X123.075 Y103.516 E0.03718
G1 X119.266 Y107.325 E0.28160
G1 X118.554 Y107.325 E0.03718
G1 X122.843 Y103.036 E0.31706
G1 X122.419 Y102.749 E0.02678
G1 X117.843 Y107.325 E0.33824
G1 X117.132 Y107.325 E0.03718
G1 X121.994 Y102.463 E0.35942
G1 X121.569 Y102.176 E0.02678
G1 X116.421 Y107.325 E0.38060
G1 X115.709 Y107.325 E0.03718
G1 X121.144 Y101.890 E0.40178
G1 X120.720 Y101.603 E0.02678
G1 X114.998 Y107.325 E0.42295
G1 X114.287 Y107.325 E0.03718
G1 X120.295 Y101.317 E0.44413
G1 X119.870 Y101.030 E0.02678
G1 X113.576 Y107.325 E0.46531
G1 X112.864 Y107.325 E0.03718
G1 X119.445 Y100.744 E0.48649
G1 X119.021 Y100.457 E0.02678
G1 X112.153 Y107.325 E0.50767
G1 X111.442 Y107.325 E0.03718
G1 X118.596 Y100.171 E0.52884
G1 X118.171 Y99.884 E0.02678
G1 X110.731 Y107.325 E0.55002
G1 X110.020 Y107.325 E0.03718
G1 X117.747 Y99.598 E0.57120
G1 X117.322 Y99.311 E0.02678
G1 X109.308 Y107.325 E0.59238
G1 X108.597 Y107.325 E0.03718
G1 X116.897 Y99.025 E0.61356
G1 X116.472 Y98.738 E0.02678
G1 X107.886 Y107.325 E0.63473
G1 X107.175 Y107.325 E0.03718
G1 X116.048 Y98.452 E0.65591
G1 X115.623 Y98.165 E0.02678
G1 X106.463 Y107.325 E0.67709
G1 X105.752 Y107.325 E0.03718
G1 X115.198 Y97.879 E0.69827
G1 X114.773 Y97.593 E0.02678
G1 X105.041 Y107.325 E0.71945
G1 X104.330 Y107.325 E0.03718
G1 X114.349 Y97.306 E0.74063
G1 X113.924 Y97.020 E0.02678
G1 X103.619 Y107.325 E0.76180
G1 X102.907 Y107.325 E0.03718
G1 X113.499 Y96.733 E0.78298
G1 X113.074 Y96.447 E0.02678
G1 X102.196 Y107.325 E0.80416
G1 X101.485 Y107.325 E0.03718
G1 X112.650 Y96.160 E0.82534
G1 X112.225 Y95.874 E0.02678
G1 X100.774 Y107.325 E0.84652
G1 X100.062 Y107.325 E0.03718
G1 X111.800 Y95.587 E0.86769
G1 X111.376 Y95.301 E0.02678
G1 X99.351 Y107.325 E0.88887
G1 X98.640 Y107.325 E0.03718
G1 X110.951 Y95.014 E0.91005
G1 X110.526 Y94.728 E0.02678
G1 X97.929 Y107.325 E0.93123
G1 X97.218 Y107.325 E0.03718
G1 X110.101 Y94.441 E0.95241
G1 X109.677 Y94.155 E0.02678
G1 X96.506 Y107.325 E0.97358
G1 X95.795 Y107.325 E0.03718
G1 X109.252 Y93.868 E0.99476
G1 X108.827 Y93.582 E0.02678
G1 X95.084 Y107.325 E1.01594
G1 X94.373 Y107.325 E0.03718
G1 X108.402 Y93.295 E1.03712
G1 X107.978 Y93.009 E0.02678
G1 X93.661 Y107.325 E1.05830
G1 X92.950 Y107.325 E0.03718
G1 X107.553 Y92.722 E1.07947
G1 X107.128 Y92.436 E0.02678
G1 X92.239 Y107.325 E1.10065
G1 X91.528 Y107.325 E0.03718
G1 X106.703 Y92.149 E1.12183
G1 X106.279 Y91.863 E0.02678
G1 X90.817 Y107.325 E1.14301
G1 X90.105 Y107.325 E0.03718
G1 X105.753 Y91.677 E1.15671
G1 X105.042 Y91.677 E0.03717
G1 X89.394 Y107.325 E1.15672
G1 X88.683 Y107.325 E0.03718
G1 X104.331 Y91.677 E1.15673
G1 X103.620 Y91.677 E0.03717
G1 X87.972 Y107.325 E1.15674
G1 X87.260 Y107.325 E0.03718
G1 X102.909 Y91.677 E1.15675
G1 X102.197 Y91.677 E0.03717
G1 X86.549 Y107.325 E1.15676
G1 X85.838 Y107.325 E0.03718
G1 X101.486 Y91.677 E1.15677
G1 X100.775 Y91.676 E0.03717
G1 X85.127 Y107.325 E1.15678
G1 X84.416 Y107.325 E0.03718
G1 X100.064 Y91.676 E1.15679
G1 X99.353 Y91.676 E0.03717
G1 X83.704 Y107.325 E1.15680
G1 X82.993 Y107.325 E0.03718
G1 X98.642 Y91.676 E1.15681
G1 X97.931 Y91.676 E0.03717
G1 X82.282 Y107.325 E1.15682
G1 X81.571 Y107.325 E0.03718
G1 X97.220 Y91.676 E1.15683
G1 X96.509 Y91.676 E0.03717
G1 X80.859 Y107.325 E1.15684
G1 X80.148 Y107.325 E0.03718
G1 X95.798 Y91.675 E1.15685
G1 X95.087 Y91.675 E0.03717
G1 X79.437 Y107.325 E1.15686
G1 X78.726 Y107.325 E0.03718
G1 X94.375 Y91.675 E1.15687
G1 X92.528 Y92.812 F7800.000
G1 X78.015 Y107.325 E1.07287 F2636.033
G1 X77.303 Y107.325 E0.03718
G1 X90.343 Y94.285 E0.96391
G1 X88.158 Y95.759 F7800.000
G1 X76.925 Y106.992 E0.83034 F2636.033
G1 X76.925 Y106.281 E0.03718
G1 X85.973 Y97.233 E0.66881
G1 X83.787 Y98.707 F7800.000
G1 X76.925 Y105.569 E0.50729 F2636.033
G1 X76.925 Y104.858 E0.03718
G1 X81.602 Y100.181 E0.34576
G1 X79.417 Y101.655 F7800.000
G1 X76.925 Y104.147 E0.18423 F2636.033
G1 X76.925 Y103.436 E0.03718
G1 X77.232 Y103.129 E0.02270
G1 F6240
G1 X76.925 Y103.436 E-0.23803
G1 F6240
G1 X76.925 Y104.147 E-0.38981
G1 F6240
G1 X77.708 Y103.364 E-0.60717
G1 E-0.06500 F3600.00000
G1 Z0.800 F7800.000
G1 X123.375 Y107.625 F7800.000
G1 E1.30000 F3600.00000
G1 X76.625 Y107.625 E2.44250 F2636.708
G1 X76.625 Y103.082 E0.23737
G1 X93.982 Y91.375 E1.09382
G1 X106.024 Y91.378 E0.62915
G1 X123.375 Y103.082 E1.09348
G1 X123.375 Y107.565 E0.23424
G1 X123.800 Y108.050 F7800.000
G1 X76.200 Y108.050 E1.71355 F2373.037
G1 X76.200 Y102.856 E0.18697
G1 X93.852 Y90.950 E0.76649
G1 X106.154 Y90.954 E0.44285
G1 X123.800 Y102.856 E0.76625
G1 X123.800 Y107.990 E0.18481
G1 X123.454 Y107.850 F7800.000
G1 X123.075 Y103.436 F7800.000
G1 X122.768 Y103.128 E0.02272 F2636.708
G1 X123.075 Y104.147 E0.05562
G1 X120.582 Y101.655 E0.18425
G1 X118.397 Y100.181 F7800.000
G1 X123.075 Y104.858 E0.34578 F2636.708
G1 X123.075 Y105.570 E0.03718
G1 X116.212 Y98.707 E0.50731
G1 X114.027 Y97.233 F7800.000
G1 X123.075 Y106.281 E0.66883 F2636.708
G1 X123.075 Y106.992 E0.03718
G1 X111.842 Y95.759 E0.83036
G1 X109.657 Y94.285 F7800.000
G1 X122.697 Y107.325 E0.96393 F2636.708
G1 X121.985 Y107.325 E0.03718
G1 X107.472 Y92.811 E1.07288
G1 X105.628 Y91.679 F7800.000
G1 X121.274 Y107.325 E1.15661 F2636.708
G1 X120.563 Y107.325 E0.03718
G1 X104.917 Y91.679 E1.15663
G1 X104.205 Y91.678 E0.03719
G1 X119.852 Y107.325 E1.15664
G1 X119.140 Y107.325 E0.03718
G1 X103.494 Y91.678 E1.15666
G1 X102.782 Y91.678 E0.03719
G1 X118.429 Y107.325 E1.15668
G1 X117.718 Y107.325 E0.03718
G1 X102.071 Y91.678 E1.15669
G1 X101.359 Y91.677 E0.03719
G1 X117.007 Y107.325 E1.15671
G1 X116.296 Y107.325 E0.03718
G1 X100.648 Y91.677 E1.15672
G1 X99.936 Y91.677 E0.03719
G1 X115.584 Y107.325 E1.15674
G1 X114.873 Y107.325 E0.03718
G1 X99.225 Y91.677 E1.15676
G1 X98.514 Y91.677 E0.03719
G1 X114.162 Y107.325 E1.15677
G1 X113.451 Y107.325 E0.03718
G1 X97.802 Y91.676 E1.15679
G1 X97.091 Y91.676 E0.03719
G1 X112.739 Y107.325 E1.15680
G1 X112.028 Y107.325 E0.03718
G1 X96.379 Y91.676 E1.15682
G1 X95.668 Y91.676 E0.03719
G1 X111.317 Y107.325 E1.15684
G1 X110.606 Y107.325 E0.03718
G1 X94.956 Y91.675 E1.15685
G1 X94.245 Y91.675 E0.03719
G1 X109.895 Y107.325 E1.15687
G1 X109.183 Y107.325 E0.03718
G1 X93.721 Y91.863 E1.14301
G1 X93.297 Y92.149 E0.02678
G1 X108.472 Y107.325 E1.12183
G1 X107.761 Y107.325 E0.03718
G1 X92.872 Y92.436 E1.10065
G1 X92.447 Y92.722 E0.02678
G1 X107.050 Y107.325 E1.07947
G1 X106.338 Y107.325 E0.03718
G1 X92.022 Y93.009 E1.05829
G1 X91.598 Y93.295 E0.02678
G1 X105.627 Y107.325 E1.03712
G1 X104.916 Y107.325 E0.03718
G1 X91.173 Y93.582 E1.01594
G1 X90.748 Y93.868 E0.02678
G1 X104.205 Y107.325 E0.99476
G1 X103.494 Y107.325 E0.03718
G1 X90.323 Y94.155 E0.97358
G1 X89.899 Y94.441 E0.02678
G1 X102.782 Y107.325 E0.95240
G1 X102.071 Y107.325 E0.03718
G1 X89.474 Y94.728 E0.93123
G1 X89.049 Y95.014 E0.02678
G1 X101.360 Y107.325 E0.91005
G1 X100.649 Y107.325 E0.03718
G1 X88.624 Y95.301 E0.88887
G1 X88.200 Y95.587 E0.02678
G1 X99.937 Y107.325 E0.86769
G1 X99.226 Y107.325 E0.03718
G1 X87.775 Y95.874 E0.84651
G1 X87.350 Y96.160 E0.02678
G1 X98.515 Y107.325 E0.82533
G1 X97.804 Y107.325 E0.03718
G1 X86.925 Y96.447 E0.80416
G1 X86.501 Y96.733 E0.02678
G1 X97.093 Y107.325 E0.78298
G1 X96.381 Y107.325 E0.03718
G1 X86.076 Y97.020 E0.76180
G1 X85.651 Y97.306 E0.02678
G1 X95.670 Y107.325 E0.74062
G1 X94.959 Y107.325 E0.03718
G1 X85.227 Y97.593 E0.71944
G1 X84.802 Y97.879 E0.02678
G1 X94.248 Y107.325 E0.69827
G1 X93.536 Y107.325 E0.03718
G1 X84.377 Y98.166 E0.67709
G1 X83.952 Y98.452 E0.02678
G1 X92.825 Y107.325 E0.65591
G1 X92.114 Y107.325 E0.03718
G1 X83.528 Y98.739 E0.63473
G1 X83.103 Y99.025 E0.02678
G1 X91.403 Y107.325 E0.61355
G1 X90.692 Y107.325 E0.03718
G1 X82.678 Y99.311 E0.59238
