; generated by Slic3r 1.3.1-dev (Build 2d100c4) on 2020-05-07 at 12:47:13

; external perimeters extrusion width = 0.44mm (3.91mm^3/s)
; perimeters extrusion width = 0.56mm (5.65mm^3/s)
; infill extrusion width = 0.50mm (5.02mm^3/s)
; solid infill extrusion width = 0.56mm (5.65mm^3/s)
; top infill extrusion width = 0.56mm (5.65mm^3/s)

M107
M190 S60 ; set bed temperature and wait for it to be reached
M104 S215 ; set temperature
G28 ; home all axes
G92 E0.0 ; reset extruder
; Filament gcode

M109 S215 ; set temperature and wait for it to be reached
G21 ; set units to millimeters
G90 ; use absolute coordinates
M83 ; use relative distances for extrusion
G1 E-1.30000 F3600.00000
G1 Z0.300 F7800.000
G1 X59.876 Y83.671 F7800.000
G1 E1.30000 F3600.00000
M201 X500 Y500
M204 P500 T500
G1 F2160.000
G1 X77.667 Y71.671 E1.27302
G1 X80.315 Y70.365 E0.17519
G1 X83.791 Y69.799 E0.20888
G1 X96.209 Y69.799 E0.73669
G1 X99.135 Y70.197 E0.17519
G1 X102.333 Y71.671 E0.20888
G1 X120.124 Y83.671 E1.27302
G1 X122.327 Y85.637 E0.17519
G1 X123.925 Y88.121 E0.17519
G1 X124.801 Y90.941 E0.17519
G1 X124.951 Y92.750 E0.10767
G1 X124.951 Y98.250 E0.32627
G1 X124.553 Y101.176 E0.17519
G1 X123.387 Y103.890 E0.17519
G1 X121.539 Y106.193 E0.17519
G1 X119.143 Y107.919 E0.17519
G1 X116.372 Y108.941 E0.17519
G1 X114.000 Y109.201 E0.14158
G1 X66.000 Y109.201 E2.84745
G1 X63.074 Y108.803 E0.17519
G1 X60.360 Y107.637 E0.17519
G1 X58.057 Y105.789 E0.17519
G1 X56.331 Y103.393 E0.17519
G1 X55.309 Y100.622 E0.17519
G1 X55.049 Y98.250 E0.14158
G1 X55.049 Y92.750 E0.32627
G1 X55.447 Y89.824 E0.17519
G1 X56.613 Y87.110 E0.17519
G1 X58.461 Y84.807 E0.17519
G1 X59.829 Y83.709 E0.10411
G1 X60.142 Y84.065 F7800.000
G1 F2160.000
G1 X77.933 Y72.065 E1.27302
G1 X80.527 Y70.796 E0.17132
G1 X83.791 Y70.274 E0.19608
G1 X96.209 Y70.274 E0.73669
G1 X99.070 Y70.672 E0.17132
G1 X102.067 Y72.065 E0.19608
G1 X119.858 Y84.065 E1.27302
G1 X122.007 Y85.995 E0.17132
G1 X123.547 Y88.438 E0.17132
G1 X124.362 Y91.209 E0.17132
G1 X124.476 Y92.750 E0.09169
G1 X124.476 Y98.250 E0.32627
G1 X124.078 Y101.110 E0.17132
G1 X122.914 Y103.753 E0.17132
G1 X121.072 Y105.978 E0.17132
G1 X118.693 Y107.616 E0.17132
G1 X115.957 Y108.541 E0.17132
G1 X114.000 Y108.726 E0.11663
G1 X66.000 Y108.726 E2.84745
G1 X63.140 Y108.328 E0.17132
G1 X60.497 Y107.164 E0.17132
G1 X58.272 Y105.322 E0.17132
G1 X56.634 Y102.943 E0.17132
G1 X55.709 Y100.207 E0.17132
G1 X55.524 Y98.250 E0.11663
G1 X55.524 Y92.750 E0.32627
G1 X55.922 Y89.890 E0.17132
G1 X57.086 Y87.247 E0.17132
G1 X58.928 Y85.022 E0.17132
G1 X60.095 Y84.102 E0.08813
G1 F6240.000
G1 X61.963 Y82.842 E-1.23500
G1 E-0.06500 F3600.00000
G1 X113.254 Y97.504 F7800.000
G1 E1.30000 F3600.00000
G1 F1620.000
G1 X66.746 Y97.504 E2.75899
G1 X66.746 Y93.146 E0.25852
G1 X84.019 Y81.496 E1.23598
G1 X95.981 Y81.496 E0.70965
G1 X113.254 Y93.146 E1.23598
G1 X113.254 Y97.444 E0.25496
G1 X113.730 Y97.980 F7800.000
G1 F1458.000
G1 X66.270 Y97.980 E2.81542
G1 X66.270 Y92.894 E0.30174
G1 X83.873 Y81.020 E1.25960
G1 X96.127 Y81.020 E0.72690
G1 X113.730 Y92.894 E1.25960
G1 X113.730 Y97.920 E0.29818
G1 X113.343 Y97.879 F7800.000
G1 X112.728 Y97.079 F7800.000
G1 F1620.000
G1 X112.829 Y96.978 E0.00849
G1 X112.829 Y96.304 E0.04004
G1 X112.054 Y97.079 E0.06512
G1 X111.381 Y97.079 E0.04004
G1 X112.829 Y95.631 E0.12174
G1 X112.829 Y94.957 E0.04004
G1 X110.707 Y97.079 E0.17836
G1 X110.033 Y97.079 E0.04004
G1 X112.829 Y94.283 E0.23499
G1 X112.829 Y93.609 E0.04004
G1 X109.359 Y97.079 E0.29161
G1 X108.685 Y97.079 E0.04004
G1 X112.582 Y93.182 E0.32749
G1 X112.180 Y92.911 E0.02884
G1 X108.012 Y97.079 E0.35030
G1 X107.338 Y97.079 E0.04004
G1 X111.778 Y92.640 E0.37311
G1 X111.375 Y92.368 E0.02884
G1 X106.664 Y97.079 E0.39592
G1 X105.990 Y97.079 E0.04004
G1 X110.973 Y92.097 E0.41873
G1 X110.570 Y91.825 E0.02884
G1 X105.316 Y97.079 E0.44153
G1 X104.643 Y97.079 E0.04004
G1 X110.168 Y91.554 E0.46434
G1 X109.766 Y91.282 E0.02884
G1 X103.969 Y97.079 E0.48715
G1 X103.295 Y97.079 E0.04004
G1 X109.363 Y91.011 E0.50996
G1 X108.961 Y90.740 E0.02884
G1 X102.621 Y97.079 E0.53277
G1 X101.948 Y97.079 E0.04004
G1 X108.559 Y90.468 E0.55558
G1 X108.156 Y90.197 E0.02884
G1 X101.274 Y97.079 E0.57839
G1 X100.600 Y97.079 E0.04004
G1 X107.754 Y89.925 E0.60120
G1 X107.351 Y89.654 E0.02884
G1 X99.926 Y97.079 E0.62401
G1 X99.252 Y97.079 E0.04004
G1 X106.949 Y89.383 E0.64682
G1 X106.547 Y89.111 E0.02884
G1 X98.579 Y97.079 E0.66962
G1 X97.905 Y97.079 E0.04004
G1 X106.144 Y88.840 E0.69243
G1 X105.742 Y88.568 E0.02884
G1 X97.231 Y97.079 E0.71524
G1 X96.557 Y97.079 E0.04004
G1 X105.339 Y88.297 E0.73805
G1 X104.937 Y88.026 E0.02884
G1 X95.883 Y97.079 E0.76086
G1 X95.210 Y97.079 E0.04004
G1 X104.535 Y87.754 E0.78367
G1 X104.132 Y87.483 E0.02884
G1 X94.536 Y97.079 E0.80648
G1 X93.862 Y97.079 E0.04004
G1 X103.730 Y87.211 E0.82929
G1 X103.328 Y86.940 E0.02884
G1 X93.188 Y97.079 E0.85210
G1 X92.514 Y97.079 E0.04004
G1 X102.925 Y86.669 E0.87491
G1 X102.523 Y86.397 E0.02884
G1 X91.841 Y97.079 E0.89771
G1 X91.167 Y97.079 E0.04004
G1 X102.120 Y86.126 E0.92052
G1 X101.718 Y85.854 E0.02884
G1 X90.493 Y97.079 E0.94333
G1 X89.819 Y97.079 E0.04004
G1 X101.316 Y85.583 E0.96614
G1 X100.913 Y85.311 E0.02884
G1 X89.146 Y97.079 E0.98895
G1 X88.472 Y97.079 E0.04004
G1 X100.511 Y85.040 E1.01176
G1 X100.109 Y84.769 E0.02884
G1 X87.798 Y97.079 E1.03457
G1 X87.124 Y97.079 E0.04004
G1 X99.706 Y84.497 E1.05738
G1 X99.304 Y84.226 E0.02884
G1 X86.450 Y97.079 E1.08019
G1 X85.777 Y97.079 E0.04004
G1 X98.901 Y83.954 E1.10300
G1 X98.499 Y83.683 E0.02884
G1 X85.103 Y97.079 E1.12580
G1 X84.429 Y97.079 E0.04004
G1 X98.097 Y83.412 E1.14861
G1 X97.694 Y83.140 E0.02884
G1 X83.755 Y97.079 E1.17142
G1 X83.081 Y97.079 E0.04004
G1 X97.292 Y82.869 E1.19423
G1 X96.889 Y82.597 E0.02884
G1 X82.408 Y97.079 E1.21704
G1 X81.734 Y97.079 E0.04004
G1 X96.487 Y82.326 E1.23985
G1 X96.085 Y82.055 E0.02884
G1 X81.060 Y97.079 E1.26266
G1 X80.386 Y97.079 E0.04004
G1 X95.545 Y81.921 E1.27390
G1 X94.871 Y81.921 E0.04004
G1 X79.712 Y97.079 E1.27390
G1 X79.039 Y97.079 E0.04004
G1 X94.197 Y81.921 E1.27390
G1 X93.523 Y81.921 E0.04004
G1 X78.365 Y97.079 E1.27390
G1 X77.691 Y97.079 E0.04004
G1 X92.850 Y81.921 E1.27390
G1 X92.176 Y81.921 E0.04004
G1 X77.017 Y97.079 E1.27390
G1 X76.343 Y97.079 E0.04004
G1 X91.502 Y81.921 E1.27390
G1 X90.828 Y81.921 E0.04004
G1 X75.670 Y97.079 E1.27390
G1 X74.996 Y97.079 E0.04004
G1 X90.154 Y81.921 E1.27390
G1 X89.481 Y81.921 E0.04004
G1 X74.322 Y97.079 E1.27390
G1 X73.648 Y97.079 E0.04004
G1 X88.807 Y81.921 E1.27390
G1 X88.133 Y81.921 E0.04004
G1 X72.975 Y97.079 E1.27390
G1 X72.301 Y97.079 E0.04004
G1 X87.459 Y81.921 E1.27390
G1 X86.785 Y81.921 E0.04004
G1 X71.627 Y97.079 E1.27390
G1 X70.953 Y97.079 E0.04004
G1 X86.112 Y81.921 E1.27390
G1 X85.438 Y81.921 E0.04004
G1 X70.279 Y97.079 E1.27390
G1 X69.606 Y97.079 E0.04004
G1 X84.764 Y81.921 E1.27390
G1 X84.215 Y81.921 E0.03266
G1 X83.833 Y82.178 E0.02736
G1 X68.932 Y97.079 E1.25226
G1 X68.258 Y97.079 E0.04004
G1 X81.763 Y83.575 E1.13492
G1 X79.693 Y84.971 E0.14838
G1 X67.584 Y97.079 E1.01758
G1 X67.171 Y97.079 E0.02457
G1 X67.171 Y96.819 E0.01547
G1 X77.623 Y86.367 E0.87835
G1 X75.552 Y87.763 E0.14838
G1 X67.171 Y96.145 E0.70439
G1 X67.171 Y95.471 E0.04004
G1 X73.482 Y89.160 E0.53042
G1 X71.412 Y90.556 E0.14838
G1 X67.171 Y94.798 E0.35645
G1 X67.171 Y94.124 E0.04004
G1 X69.342 Y91.952 E0.18248
G1 X67.272 Y93.349 E0.14838
G1 X67.171 Y93.449 E0.00848
M106 S255
M140 S50 ; set bed temperature
G1 F6240.000
G1 X67.272 Y93.349 E-0.07820
G1 F6240.000
G1 X69.022 Y92.168 E-1.15680
G1 E-0.06500 F3600.00000
G1 Z0.550 F7800.000
G1 X113.335 Y97.585 F7800.000
G1 E1.30000 F3600.00000
G1 F2550.560
G1 X66.665 Y97.585 E2.43832
G1 X66.665 Y93.103 E0.23417
G1 X83.994 Y81.415 E1.09207
G1 X96.006 Y81.415 E0.62758
G1 X113.335 Y93.103 E1.09207
G1 X113.335 Y97.525 E0.23104
G1 X113.780 Y98.030 F7800.000
G1 F2430.000
G1 X66.220 Y98.030 E1.90984
G1 X66.220 Y92.867 E0.20733
G1 X83.858 Y80.970 E0.85434
G1 X96.142 Y80.970 E0.49328
G1 X113.780 Y92.867 E0.85434
G1 X113.780 Y97.970 E0.20492
G1 X113.393 Y97.929 F7800.000
G1 X112.886 Y93.424 F7800.000
G1 F2550.560
G1 X112.779 Y93.317 E0.00796
G1 X110.581 Y91.834 E0.13948
G1 X112.886 Y94.140 E0.17149
G1 X112.886 Y94.855 E0.03764
G1 X108.382 Y90.351 E0.33502
G1 X106.183 Y88.868 E0.13948
G1 X112.886 Y95.571 E0.49856
G1 X112.886 Y96.287 E0.03764
G1 X103.985 Y87.385 E0.66209
G1 X101.786 Y85.902 E0.13948
G1 X112.886 Y97.002 E0.82562
G1 X112.886 Y97.136 E0.00705
G1 X112.305 Y97.136 E0.03059
G1 X99.588 Y84.419 E0.94589
G1 X97.389 Y82.936 E0.13948
G1 X111.589 Y97.136 E1.05619
G1 X110.873 Y97.136 E0.03764
G1 X95.601 Y81.864 E1.13596
G1 X94.885 Y81.864 E0.03764
G1 X110.158 Y97.136 E1.13596
G1 X109.442 Y97.136 E0.03764
G1 X94.170 Y81.864 E1.13596
G1 X93.454 Y81.864 E0.03764
G1 X108.727 Y97.136 E1.13596
G1 X108.011 Y97.136 E0.03764
G1 X92.739 Y81.864 E1.13596
G1 X92.023 Y81.864 E0.03764
G1 X107.295 Y97.136 E1.13596
G1 X106.580 Y97.136 E0.03764
G1 X91.307 Y81.864 E1.13596
G1 X90.592 Y81.864 E0.03764
G1 X105.864 Y97.136 E1.13596
G1 X105.148 Y97.136 E0.03764
G1 X89.876 Y81.864 E1.13596
G1 X89.160 Y81.864 E0.03764
G1 X104.433 Y97.136 E1.13596
G1 X103.717 Y97.136 E0.03764
G1 X88.445 Y81.864 E1.13596
G1 X87.729 Y81.864 E0.03764
G1 X103.002 Y97.136 E1.13596
G1 X102.286 Y97.136 E0.03764
G1 X87.014 Y81.864 E1.13596
G1 X86.298 Y81.864 E0.03764
G1 X101.570 Y97.136 E1.13596
G1 X100.855 Y97.136 E0.03764
G1 X85.582 Y81.864 E1.13596
G1 X84.867 Y81.864 E0.03764
G1 X100.139 Y97.136 E1.13596
G1 X99.423 Y97.136 E0.03764
G1 X84.151 Y81.864 E1.13596
G1 X84.094 Y81.864 E0.00299
G1 X83.701 Y82.129 E0.02496
G1 X98.708 Y97.136 E1.11622
G1 X97.992 Y97.136 E0.03764
G1 X83.273 Y82.417 E1.09478
G1 X82.846 Y82.706 E0.02711
G1 X97.277 Y97.136 E1.07334
G1 X96.561 Y97.136 E0.03764
G1 X82.419 Y82.994 E1.05190
G1 X81.991 Y83.282 E0.02711
G1 X95.845 Y97.136 E1.03046
G1 X95.130 Y97.136 E0.03764
G1 X81.564 Y83.570 E1.00902
G1 X81.137 Y83.859 E0.02711
G1 X94.414 Y97.136 E0.98758
G1 X93.699 Y97.136 E0.03764
G1 X80.709 Y84.147 E0.96614
G1 X80.282 Y84.435 E0.02711
G1 X92.983 Y97.136 E0.94470
G1 X92.267 Y97.136 E0.03764
G1 X79.855 Y84.723 E0.92326
G1 X79.427 Y85.012 E0.02711
G1 X91.552 Y97.136 E0.90181
G1 X90.836 Y97.136 E0.03764
G1 X79.000 Y85.300 E0.88037
G1 X78.573 Y85.588 E0.02711
G1 X90.120 Y97.136 E0.85893
G1 X89.405 Y97.136 E0.03764
G1 X78.145 Y85.877 E0.83749
G1 X77.718 Y86.165 E0.02711
G1 X88.689 Y97.136 E0.81605
G1 X87.974 Y97.136 E0.03764
G1 X77.290 Y86.453 E0.79461
G1 X76.863 Y86.741 E0.02711
G1 X87.258 Y97.136 E0.77317
G1 X86.542 Y97.136 E0.03764
G1 X76.436 Y87.030 E0.75173
G1 X76.008 Y87.318 E0.02711
G1 X85.827 Y97.136 E0.73029
G1 X85.111 Y97.136 E0.03764
G1 X75.581 Y87.606 E0.70885
G1 X75.154 Y87.894 E0.02711
G1 X84.395 Y97.136 E0.68741
G1 X83.680 Y97.136 E0.03764
G1 X74.726 Y88.183 E0.66597
G1 X74.299 Y88.471 E0.02711
G1 X82.964 Y97.136 E0.64453
G1 X82.249 Y97.136 E0.03764
G1 X73.872 Y88.759 E0.62309
G1 X73.444 Y89.047 E0.02711
G1 X81.533 Y97.136 E0.60165
G1 X80.817 Y97.136 E0.03764
G1 X73.017 Y89.336 E0.58020
G1 X72.589 Y89.624 E0.02711
G1 X80.102 Y97.136 E0.55876
G1 X79.386 Y97.136 E0.03764
G1 X72.162 Y89.912 E0.53732
G1 X71.735 Y90.200 E0.02711
G1 X78.671 Y97.136 E0.51588
G1 X77.955 Y97.136 E0.03764
G1 X71.307 Y90.489 E0.49444
G1 X70.880 Y90.777 E0.02711
G1 X77.239 Y97.136 E0.47300
G1 X76.524 Y97.136 E0.03764
G1 X70.453 Y91.065 E0.45156
G1 X70.025 Y91.353 E0.02711
G1 X75.808 Y97.136 E0.43012
G1 X75.092 Y97.136 E0.03764
G1 X69.598 Y91.642 E0.40868
G1 X69.171 Y91.930 E0.02711
G1 X74.377 Y97.136 E0.38724
G1 X73.661 Y97.136 E0.03764
G1 X68.743 Y92.218 E0.36580
G1 X68.316 Y92.506 E0.02711
G1 X72.946 Y97.136 E0.34436
G1 X72.230 Y97.136 E0.03764
G1 X67.889 Y92.795 E0.32292
G1 X67.461 Y93.083 E0.02711
G1 X71.514 Y97.136 E0.30148
G1 X70.799 Y97.136 E0.03764
G1 X67.114 Y93.451 E0.27408
G1 X67.114 Y94.167 E0.03764
G1 X70.083 Y97.136 E0.22085
G1 X69.367 Y97.136 E0.03764
G1 X67.114 Y94.883 E0.16763
G1 X67.114 Y95.598 E0.03764
G1 X68.652 Y97.136 E0.11440
G1 X67.936 Y97.136 E0.03764
G1 X67.114 Y96.314 E0.06117
G1 X67.114 Y97.029 E0.03764
G1 X67.220 Y97.136 E0.00793
G1 F6240.000
G1 X67.114 Y97.029 E-0.08265
G1 F6240.000
G1 X67.114 Y96.314 E-0.39221
G1 F6240.000
G1 X67.936 Y97.136 E-0.63746
G1 F6240.000
G1 X68.160 Y97.136 E-0.12268
G1 E-0.06500 F3600.00000
G1 Z0.800 F7800.000
G1 X113.335 Y97.585 F7800.000
G1 E1.30000 F3600.00000
G1 F2550.558
G1 X66.665 Y97.585 E2.43832
G1 X66.665 Y93.103 E0.23417
G1 X83.994 Y81.415 E1.09207
G1 X96.006 Y81.415 E0.62758
G1 X113.335 Y93.103 E1.09207
G1 X113.335 Y97.525 E0.23104
G1 X113.780 Y98.030 F7800.000
G1 F2430.000
G1 X66.220 Y98.030 E1.90984
G1 X66.220 Y92.867 E0.20733
G1 X83.858 Y80.970 E0.85434
G1 X96.142 Y80.970 E0.49328
G1 X113.780 Y92.867 E0.85434
G1 X113.780 Y97.970 E0.20492
G1 X113.393 Y97.929 F7800.000
G1 X112.779 Y97.136 F7800.000
G1 F2550.558
G1 X112.886 Y97.029 E0.00794
G1 X112.886 Y96.314 E0.03764
G1 X112.064 Y97.136 E0.06117
G1 X111.348 Y97.136 E0.03764
G1 X112.886 Y95.598 E0.11440
G1 X112.886 Y94.883 E0.03764
G1 X110.633 Y97.136 E0.16762
G1 X109.917 Y97.136 E0.03764
G1 X112.886 Y94.167 E0.22085
G1 X112.886 Y93.451 E0.03764
G1 X109.201 Y97.136 E0.27408
G1 X108.486 Y97.136 E0.03764
G1 X112.539 Y93.083 E0.30148
G1 X112.112 Y92.795 E0.02711
G1 X107.770 Y97.136 E0.32292
G1 X107.054 Y97.136 E0.03764
G1 X111.684 Y92.506 E0.34436
G1 X111.257 Y92.218 E0.02711
G1 X106.339 Y97.136 E0.36580
G1 X105.623 Y97.136 E0.03764
G1 X110.829 Y91.930 E0.38724
G1 X110.402 Y91.642 E0.02711
G1 X104.908 Y97.136 E0.40868
G1 X104.192 Y97.136 E0.03764
G1 X109.975 Y91.353 E0.43012
G1 X109.547 Y91.065 E0.02711
G1 X103.476 Y97.136 E0.45156
G1 X102.761 Y97.136 E0.03764
G1 X109.120 Y90.777 E0.47300
G1 X108.693 Y90.489 E0.02711
G1 X102.045 Y97.136 E0.49444
G1 X101.330 Y97.136 E0.03764
G1 X108.265 Y90.200 E0.51588
G1 X107.838 Y89.912 E0.02711
G1 X100.614 Y97.136 E0.53732
G1 X99.898 Y97.136 E0.03764
G1 X107.411 Y89.624 E0.55876
G1 X106.983 Y89.336 E0.02711
G1 X99.183 Y97.136 E0.58020
G1 X98.467 Y97.136 E0.03764
G1 X106.556 Y89.047 E0.60164
G1 X106.128 Y88.759 E0.02711
G1 X97.751 Y97.136 E0.62309
G1 X97.036 Y97.136 E0.03764
G1 X105.701 Y88.471 E0.64453
G1 X105.274 Y88.183 E0.02711
G1 X96.320 Y97.136 E0.66597
G1 X95.605 Y97.136 E0.03764
G1 X104.846 Y87.894 E0.68741
G1 X104.419 Y87.606 E0.02711
G1 X94.889 Y97.136 E0.70885
G1 X94.173 Y97.136 E0.03764
G1 X103.992 Y87.318 E0.73029
G1 X103.564 Y87.030 E0.02711
G1 X93.458 Y97.136 E0.75173
G1 X92.742 Y97.136 E0.03764
G1 X103.137 Y86.741 E0.77317
G1 X102.710 Y86.453 E0.02711
G1 X92.026 Y97.136 E0.79461
G1 X91.311 Y97.136 E0.03764
G1 X102.282 Y86.165 E0.81605
G1 X101.855 Y85.877 E0.02711
G1 X90.595 Y97.136 E0.83749
G1 X89.880 Y97.136 E0.03764
G1 X101.428 Y85.588 E0.85893
G1 X101.000 Y85.300 E0.02711
G1 X89.164 Y97.136 E0.88037
G1 X88.448 Y97.136 E0.03764
G1 X100.573 Y85.012 E0.90181
G1 X100.145 Y84.724 E0.02711
G1 X87.733 Y97.136 E0.92325
G1 X87.017 Y97.136 E0.03764
G1 X99.718 Y84.435 E0.94470
G1 X99.291 Y84.147 E0.02711
G1 X86.302 Y97.136 E0.96614
G1 X85.586 Y97.136 E0.03764
G1 X98.863 Y83.859 E0.98758
G1 X98.436 Y83.570 E0.02711
G1 X84.870 Y97.136 E1.00902
G1 X84.155 Y97.136 E0.03764
G1 X98.009 Y83.282 E1.03046
G1 X97.581 Y82.994 E0.02711
G1 X83.439 Y97.136 E1.05190
G1 X82.723 Y97.136 E0.03764
G1 X97.154 Y82.706 E1.07334
G1 X96.727 Y82.417 E0.02711
G1 X82.008 Y97.136 E1.09478
G1 X81.292 Y97.136 E0.03764
G1 X96.299 Y82.129 E1.11622
G1 X95.906 Y81.864 E0.02496
G1 X95.849 Y81.864 E0.00299
G1 X80.577 Y97.136 E1.13596
G1 X79.861 Y97.136 E0.03764
G1 X95.133 Y81.864 E1.13596
G1 X94.418 Y81.864 E0.03764
G1 X79.145 Y97.136 E1.13596
G1 X78.430 Y97.136 E0.03764
G1 X93.702 Y81.864 E1.13596
G1 X92.986 Y81.864 E0.03764
G1 X77.714 Y97.136 E1.13596
G1 X76.998 Y97.136 E0.03764
G1 X92.271 Y81.864 E1.13596
G1 X91.555 Y81.864 E0.03764
G1 X76.283 Y97.136 E1.13596
G1 X75.567 Y97.136 E0.03764
G1 X90.840 Y81.864 E1.13596
G1 X90.124 Y81.864 E0.03764
G1 X74.852 Y97.136 E1.13596
G1 X74.136 Y97.136 E0.03764
G1 X89.408 Y81.864 E1.13596
G1 X88.693 Y81.864 E0.03764
G1 X73.420 Y97.136 E1.13596
