; generated by Slic3r 1.2.9 on 2020-05-25 at 12:26:50

; external perimeters extrusion width = 0.40mm
; perimeters extrusion width = 0.56mm
; infill extrusion width = 0.56mm
; solid infill extrusion width = 0.56mm
; top infill extrusion width = 0.56mm

M107
M190 S60 ; set bed temperature
M104 S215 ; set temperature
G28 ; home all axes
G92 E0.0 ; reset extruder
M109 S215 ; wait for temperature to be reached
G21 ; set units to millimeters
G90 ; use absolute coordinates
M83 ; use relative distances for extrusion
G1 E-1.30000 F3600.00000
G1 Z0.300 F7800.000
G1 X66.962 Y36.560 F7800.000
G1 E1.30000 F3600.00000
M204 S500
G1 X68.606 Y34.456 E0.15840 F2160.000
G1 X72.606 Y30.456 E0.33558
G1 X74.957 Y28.669 E0.17519
G1 X77.700 Y27.574 E0.17519
G1 X80.350 Y27.249 E0.15839
G1 X88.350 Y27.249 E0.47458
G1 X91.276 Y27.647 E0.17519
G1 X93.990 Y28.812 E0.17519 F2160.000
G1 X96.094 Y30.456 E0.15840
G1 X131.394 Y65.756 E2.96145
G1 X133.181 Y68.107 E0.17519
G1 X134.276 Y70.850 E0.17519
G1 X134.601 Y73.500 E0.15840
G1 X134.601 Y126.500 E3.14406
G1 X134.203 Y129.426 E0.17519
G1 X133.037 Y132.140 E0.17519
G1 X131.394 Y134.244 E0.15840
G1 X96.094 Y169.544 E2.96145
G1 X93.743 Y171.331 E0.17519
G1 X91.000 Y172.426 E0.17519
G1 X88.350 Y172.751 E0.15840
G1 X80.350 Y172.751 E0.47458
G1 X77.424 Y172.353 E0.17519
G1 X74.710 Y171.188 E0.17519
G1 X72.606 Y169.544 E0.15840
G1 X68.606 Y165.544 E0.33558
G1 X66.819 Y163.193 E0.17519
G1 X65.724 Y160.450 E0.17519
G1 X65.399 Y157.800 E0.15840
G1 X65.399 Y42.200 E6.85761
G1 X65.797 Y39.274 E0.17519
G1 X66.939 Y36.616 E0.17163
G1 X67.410 Y36.757 F7800.000
G1 X67.436 Y36.697 E0.00394 F2160.000
G1 X68.943 Y34.793 E0.14401
G1 X72.943 Y30.793 E0.33558
G1 X75.247 Y29.051 E0.17132
G1 X77.939 Y28.006 E0.17132
G1 X80.350 Y27.724 E0.14401
G1 X88.350 Y27.724 E0.47458
G1 X91.210 Y28.122 E0.17132
G1 X93.853 Y29.286 E0.17132 F2160.000
G1 X95.757 Y30.793 E0.14401
G1 X131.057 Y66.093 E2.96145
G1 X132.799 Y68.397 E0.17132
G1 X133.844 Y71.089 E0.17132
G1 X134.126 Y73.500 E0.14401
G1 X134.126 Y126.500 E3.14406
G1 X133.728 Y129.360 E0.17132
G1 X132.564 Y132.003 E0.17132
G1 X131.057 Y133.907 E0.14401
G1 X95.757 Y169.207 E2.96145
G1 X93.453 Y170.949 E0.17132
G1 X90.761 Y171.994 E0.17132
G1 X88.350 Y172.276 E0.14401
G1 X80.350 Y172.276 E0.47458
G1 X77.490 Y171.878 E0.17132
G1 X74.847 Y170.714 E0.17132
G1 X72.943 Y169.207 E0.14401
G1 X68.943 Y165.207 E0.33558
G1 X67.201 Y162.903 E0.17132
G1 X66.156 Y160.211 E0.17132
G1 X65.874 Y157.800 E0.14401
G1 X65.874 Y42.200 E6.85761
G1 X66.272 Y39.340 E0.17132
G1 X67.386 Y36.812 E0.16382
G1 F6240
G1 X67.436 Y36.697 E-0.06932
G1 F6240
G1 X68.756 Y35.029 E-1.16568
G1 E-0.06500 F3600.00000
G1 X88.625 Y137.551 F7800.000
G1 E1.30000 F3600.00000
G1 X89.237 Y138.231 E0.05422 F1080.000
G1 X89.694 Y139.022 E0.05421
G1 X89.976 Y139.891 E0.05421
G1 X90.071 Y140.800 E0.05421
G1 X89.976 Y141.709 E0.05421
G1 X89.693 Y142.579 E0.05426
G1 X89.222 Y143.386 E0.05546
G1 X88.625 Y144.049 E0.05291
G1 X87.886 Y144.586 E0.05421
G1 X87.051 Y144.958 E0.05421
G1 X86.157 Y145.147 E0.05421
G1 X85.243 Y145.147 E0.05421
G1 X84.349 Y144.958 E0.05421
G1 X83.514 Y144.586 E0.05421
G1 X82.775 Y144.049 E0.05421
G1 X82.163 Y143.369 E0.05421
G1 X81.706 Y142.578 E0.05421
G1 X81.424 Y141.709 E0.05421
G1 X81.329 Y140.800 E0.05421
G1 X81.424 Y139.891 E0.05421
G1 X81.706 Y139.022 E0.05421
G1 X82.163 Y138.231 E0.05421
G1 X82.775 Y137.551 E0.05421
G1 X83.514 Y137.014 E0.05421
G1 X84.349 Y136.643 E0.05421
G1 X85.243 Y136.452 E0.05421
G1 X86.157 Y136.452 E0.05421 F1080.000
G1 X87.051 Y136.643 E0.05422
G1 X87.886 Y137.014 E0.05421
G1 X88.577 Y137.516 E0.05065
G1 X89.010 Y137.441 F7800.000
G1 F6240
G1 X89.237 Y138.231 E-0.53313
G1 F6240
G1 X89.694 Y139.022 E-0.50086
G1 F6240
G1 X89.807 Y139.371 E-0.20101
G1 E-0.06500 F3600.00000
G1 X86.979 Y153.544 F7800.000
G1 E1.30000 F3600.00000
G1 X87.996 Y153.736 E0.06141 F1080.000
G1 X88.846 Y154.304 E0.06063
G1 X89.412 Y155.151 E0.06041
G1 X89.610 Y156.150 E0.06042
G1 X89.412 Y157.149 E0.06042
G1 X88.846 Y157.996 E0.06041
G1 X87.999 Y158.562 E0.06041
G1 X87.000 Y158.760 E0.06042
G1 X86.001 Y158.562 E0.06042
G1 X85.154 Y157.996 E0.06042
G1 X84.588 Y157.149 E0.06041
G1 X84.390 Y156.150 E0.06042
G1 X84.588 Y155.151 E0.06042
G1 X85.154 Y154.304 E0.06041
G1 X86.001 Y153.738 E0.06042
G1 X86.920 Y153.556 E0.05557 F1080.000
G1 X86.981 Y154.028 F7800.000
G1 X87.812 Y154.186 E0.05019 F1080.000
G1 X88.503 Y154.647 E0.04927
G1 X88.964 Y155.337 E0.04919
G1 X89.125 Y156.150 E0.04920
G1 X88.964 Y156.963 E0.04919
G1 X88.503 Y157.653 E0.04919
G1 X87.813 Y158.114 E0.04919
G1 X87.000 Y158.275 E0.04920
G1 X86.187 Y158.114 E0.04919
G1 X85.497 Y157.653 E0.04919
G1 X85.036 Y156.963 E0.04919
G1 X84.875 Y156.150 E0.04919
G1 X85.036 Y155.337 E0.04919
G1 X85.497 Y154.647 E0.04919
G1 X86.187 Y154.186 E0.04919
G1 X86.922 Y154.040 E0.04448 F1080.000
G1 X87.201 Y153.695 F7800.000
G1 F6240
G1 X87.812 Y154.186 E-0.49433
G1 F6240
G1 X88.503 Y154.647 E-0.45518
G1 F6240
G1 X88.792 Y155.080 E-0.28549
G1 E-0.06500 F3600.00000
G1 X87.000 Y127.760 F7800.000
G1 E1.30000 F3600.00000
G1 X86.001 Y127.562 E0.06042 F1080.000
G1 X85.154 Y126.996 E0.06042
G1 X84.588 Y126.149 E0.06041
G1 X84.390 Y125.150 E0.06042
G1 X84.588 Y124.151 E0.06042
G1 X85.154 Y123.304 E0.06041
G1 X86.001 Y122.738 E0.06042
G1 X86.979 Y122.544 E0.05913 F1080.000
G1 X87.996 Y122.736 E0.06141
G1 X88.846 Y123.304 E0.06063
G1 X89.412 Y124.151 E0.06041
G1 X89.610 Y125.150 E0.06042
G1 X89.412 Y126.149 E0.06042
G1 X88.846 Y126.996 E0.06041
G1 X87.999 Y127.562 E0.06041
G1 X87.059 Y127.749 E0.05686
G1 X87.000 Y127.275 F7800.000
G1 X86.187 Y127.114 E0.04919 F1080.000
G1 X85.497 Y126.653 E0.04919
G1 X85.036 Y125.963 E0.04919
G1 X84.875 Y125.150 E0.04920
G1 X85.036 Y124.337 E0.04919
G1 X85.497 Y123.647 E0.04919
G1 X86.187 Y123.186 E0.04919
G1 X86.981 Y123.028 E0.04804 F1080.000
G1 X87.812 Y123.186 E0.05019
G1 X88.503 Y123.647 E0.04927
G1 X88.964 Y124.337 E0.04919
G1 X89.125 Y125.150 E0.04920
G1 X88.964 Y125.963 E0.04919
G1 X88.503 Y126.653 E0.04919
G1 X87.813 Y127.114 E0.04919
G1 X87.059 Y127.264 E0.04564
G1 X86.778 Y127.608 F7800.000
G1 X115.390 Y125.150 F7800.000
G1 X115.588 Y124.151 E0.06042 F1080.000
G1 X116.154 Y123.304 E0.06041
G1 X117.001 Y122.738 E0.06041
G1 X117.797 Y122.580 E0.04812
G1 X118.000 Y122.540 E0.01230 F1080.000
G1 X118.999 Y122.738 E0.06042
G1 X119.846 Y123.304 E0.06041
G1 X120.412 Y124.151 E0.06041
G1 X120.610 Y125.150 E0.06042
G1 X120.412 Y126.149 E0.06042
G1 X119.846 Y126.996 E0.06041
G1 X118.999 Y127.562 E0.06041
G1 X118.000 Y127.760 E0.06042
G1 X117.001 Y127.562 E0.06042
G1 X116.154 Y126.996 E0.06041
G1 X115.588 Y126.149 E0.06041
G1 X115.401 Y125.209 E0.05686
G1 X115.875 Y125.150 F7800.000
G1 X116.036 Y124.337 E0.04920 F1080.000
G1 X116.497 Y123.647 E0.04919
G1 X117.187 Y123.186 E0.04919
G1 X117.889 Y123.047 E0.04251
G1 X118.000 Y123.025 E0.00669 F1080.000
G1 X118.813 Y123.186 E0.04920
G1 X119.503 Y123.647 E0.04919
G1 X119.964 Y124.337 E0.04919
G1 X120.125 Y125.150 E0.04920
G1 X119.964 Y125.963 E0.04919
G1 X119.503 Y126.653 E0.04919
G1 X118.813 Y127.114 E0.04919
G1 X118.000 Y127.275 E0.04920
G1 X117.187 Y127.114 E0.04920
G1 X116.497 Y126.653 E0.04919
G1 X116.036 Y125.963 E0.04919
G1 X115.886 Y125.209 E0.04564
G1 X115.542 Y124.928 F7800.000
G1 X103.404 Y107.246 F7800.000
G1 X114.841 Y107.246 E0.67845 F1620.000
G1 X122.904 Y115.309 E0.67645
G1 X122.904 Y126.191 E0.64556
G1 X120.341 Y128.754 E0.21504
G1 X90.604 Y128.754 E1.76404
G1 X90.604 Y139.507 E0.63787
G1 X90.364 Y139.545 E0.01446
G1 X90.130 Y138.827 E0.04477
G1 X89.624 Y137.949 E0.06014
G1 X88.945 Y137.196 E0.06015
G1 X88.125 Y136.600 E0.06014
G1 X87.199 Y136.188 E0.06014
G1 X86.207 Y135.977 E0.06015
G1 X85.193 Y135.977 E0.06014
G1 X84.201 Y136.188 E0.06014
G1 X83.275 Y136.600 E0.06014
G1 X82.455 Y137.196 E0.06015
G1 X81.776 Y137.949 E0.06015
G1 X81.270 Y138.827 E0.06014
G1 X80.956 Y139.792 E0.06015
G1 X80.850 Y140.800 E0.06014
G1 X80.956 Y141.808 E0.06014
G1 X81.270 Y142.773 E0.06015
G1 X81.776 Y143.651 E0.06014
G1 X82.455 Y144.404 E0.06015
G1 X83.275 Y145.000 E0.06015
G1 X84.201 Y145.412 E0.06014
G1 X85.193 Y145.623 E0.06014
G1 X86.207 Y145.623 E0.06014
G1 X87.199 Y145.412 E0.06015
G1 X88.125 Y145.000 E0.06014
G1 X88.945 Y144.404 E0.06014
G1 X89.608 Y143.668 E0.05876
G1 X90.130 Y142.774 E0.06139
G1 X90.364 Y142.055 E0.04489
G1 X90.604 Y142.093 E0.01446
G1 X90.604 Y158.491 E0.97278
G1 X88.041 Y161.054 E0.21504
G1 X80.659 Y161.054 E0.43793
G1 X77.096 Y157.491 E0.29893
G1 X77.096 Y114.232 E2.56623
G1 X85.421 Y107.246 E0.64474
G1 X96.896 Y107.246 E0.68067
G1 X96.896 Y105.246 E0.11864
G1 X103.404 Y105.246 E0.38611
G1 X103.404 Y107.186 E0.11508
G1 X103.880 Y106.770 F7800.000
G1 X115.038 Y106.770 E0.66192 F1458.000
G1 X123.380 Y115.112 E0.69983
G1 X123.380 Y126.388 E0.66893
G1 X120.538 Y129.230 E0.23841
G1 X91.080 Y129.230 E1.74751
G1 X91.080 Y158.688 E1.74751
G1 X88.238 Y161.530 E0.23841
G1 X80.462 Y161.530 E0.46131
G1 X76.620 Y157.688 E0.32231
G1 X76.620 Y114.010 E2.59107
G1 X85.248 Y106.770 E0.66817
G1 X96.420 Y106.770 E0.66273
G1 X96.420 Y104.770 E0.11864
G1 X103.880 Y104.770 E0.44254
G1 X103.880 Y106.710 E0.11508
G1 X103.880 Y107.170 F7800.000
G1 X103.121 Y106.869 F7800.000
G1 X101.781 Y105.529 E0.11252 F1620.000
G1 X102.454 Y105.529 E0.03997
G1 X103.121 Y106.196 E0.05599
G1 X103.781 Y107.529 F7800.000
G1 X118.600 Y122.348 E1.24437 F1620.000
G1 X117.873 Y122.294 E0.04330
G1 X101.108 Y105.529 E1.40778
G1 X100.435 Y105.529 E0.03997
G1 X117.311 Y122.406 E1.41715
G1 X116.807 Y122.574 E0.03159
G1 X99.761 Y105.529 E1.43131
G1 X99.088 Y105.529 E0.03997
G1 X116.403 Y122.844 E1.45395
G1 X116.000 Y123.114 E0.02882
G1 X98.415 Y105.529 E1.47660
G1 X97.742 Y105.529 E0.03997
G1 X115.723 Y123.510 E1.50989
G1 X115.453 Y123.914 E0.02882
G1 X97.179 Y105.640 E1.53448
G1 X97.179 Y106.313 E0.03997
G1 X115.268 Y124.402 E1.51892
G1 X115.156 Y124.963 E0.03400
G1 X97.179 Y106.986 E1.50954
G1 X97.049 Y107.529 E0.03315
G1 X115.180 Y125.661 E1.52253
G1 X115.491 Y126.645 E0.06126
G1 X96.375 Y107.529 E1.60514
G1 X95.702 Y107.529 E0.03997
G1 X116.644 Y128.471 E1.75850
G1 X116.505 Y127.659 E0.04891
G1 X116.873 Y128.026 E0.03084
G1 X120.010 Y128.471 F7800.000
G1 X119.236 Y127.697 E0.06501 F1620.000
G1 X119.640 Y127.427 E0.02882
G1 X120.469 Y128.257 E0.06964
G1 X120.806 Y127.920 E0.02827
G1 X120.036 Y127.150 E0.06462
G1 X120.306 Y126.747 E0.02882
G1 X121.142 Y127.583 E0.07024
G1 X121.479 Y127.247 E0.02827
G1 X120.576 Y126.343 E0.07586
G1 X120.744 Y125.839 E0.03159
G1 X121.816 Y126.910 E0.08997
G1 X122.152 Y126.573 E0.02827
G1 X120.856 Y125.277 E0.10886
G1 X120.802 Y124.550 E0.04330
G1 X122.489 Y126.237 E0.14166
G1 X122.621 Y125.696 E0.03307
G1 X104.454 Y107.529 E1.52546
G1 X105.127 Y107.529 E0.03997
G1 X122.621 Y125.023 E1.46893
G1 X122.621 Y124.349 E0.03997
G1 X105.801 Y107.529 E1.41240
G1 X106.474 Y107.529 E0.03997
G1 X122.621 Y123.676 E1.35587
G1 X122.621 Y123.003 E0.03997
G1 X107.147 Y107.529 E1.29934
G1 X107.820 Y107.529 E0.03997
G1 X122.621 Y122.330 E1.24281
G1 X122.621 Y121.656 E0.03997
G1 X108.494 Y107.529 E1.18627
G1 X109.167 Y107.529 E0.03997
G1 X122.621 Y120.983 E1.12974
G1 X122.621 Y120.310 E0.03997
G1 X109.840 Y107.529 E1.07321
G1 X110.513 Y107.529 E0.03997
G1 X122.621 Y119.637 E1.01668
G1 X122.621 Y118.963 E0.03997
G1 X111.187 Y107.529 E0.96015
G1 X111.860 Y107.529 E0.03997
G1 X122.621 Y118.290 E0.90361
G1 X122.621 Y117.617 E0.03997
G1 X112.533 Y107.529 E0.84708
G1 X113.206 Y107.529 E0.03997
G1 X122.621 Y116.944 E0.79055
G1 X122.621 Y116.270 E0.03997
G1 X113.880 Y107.529 E0.73402
G1 X114.553 Y107.529 E0.03997
G1 X122.621 Y115.597 E0.67749
G1 X95.029 Y107.529 F7800.000
G1 X115.971 Y128.471 E1.75850 F1620.000
G1 X115.298 Y128.471 E0.03997
G1 X94.356 Y107.529 E1.75850
G1 X93.682 Y107.529 E0.03997
G1 X114.624 Y128.471 E1.75850
G1 X113.951 Y128.471 E0.03997
G1 X93.009 Y107.529 E1.75850
G1 X92.336 Y107.529 E0.03997
G1 X113.278 Y128.471 E1.75850
G1 X112.605 Y128.471 E0.03997
G1 X91.663 Y107.529 E1.75850
G1 X90.989 Y107.529 E0.03997
G1 X111.932 Y128.471 E1.75850
G1 X111.258 Y128.471 E0.03997
G1 X90.316 Y107.529 E1.75850
G1 X89.643 Y107.529 E0.03997
G1 X110.585 Y128.471 E1.75850
G1 X109.912 Y128.471 E0.03997
G1 X88.970 Y107.529 E1.75850
G1 X88.297 Y107.529 E0.03997
G1 X109.239 Y128.471 E1.75850
G1 X108.565 Y128.471 E0.03997
G1 X87.623 Y107.529 E1.75850
G1 X86.950 Y107.529 E0.03997
G1 X107.892 Y128.471 E1.75850
G1 X107.219 Y128.471 E0.03997
G1 X86.277 Y107.529 E1.75850
G1 X85.604 Y107.529 E0.03997
G1 X106.546 Y128.471 E1.75850
G1 X105.872 Y128.471 E0.03997
G1 X85.172 Y107.771 E1.73820
G1 X84.806 Y108.078 E0.02837
G1 X105.199 Y128.471 E1.71240
G1 X104.526 Y128.471 E0.03997
G1 X84.440 Y108.385 E1.68661
G1 X84.074 Y108.692 E0.02837
G1 X103.853 Y128.471 E1.66082
G1 X103.179 Y128.471 E0.03997
G1 X83.708 Y108.999 E1.63502
G1 X83.342 Y109.307 E0.02837
G1 X102.506 Y128.471 E1.60923
G1 X101.833 Y128.471 E0.03997
G1 X82.976 Y109.614 E1.58344
G1 X82.610 Y109.921 E0.02837
G1 X101.160 Y128.471 E1.55765
G1 X100.486 Y128.471 E0.03997
G1 X82.244 Y110.228 E1.53185
G1 X81.878 Y110.535 E0.02837
G1 X99.813 Y128.471 E1.50606
G1 X99.140 Y128.471 E0.03997
G1 X81.511 Y110.842 E1.48027
G1 X81.145 Y111.150 E0.02837
G1 X98.467 Y128.471 E1.45447
G1 X97.794 Y128.471 E0.03997
G1 X80.779 Y111.457 E1.42868
G1 X80.413 Y111.764 E0.02837
G1 X97.120 Y128.471 E1.40289
G1 X96.447 Y128.471 E0.03997
G1 X80.047 Y112.071 E1.37710
G1 X79.681 Y112.378 E0.02837
G1 X95.774 Y128.471 E1.35130
G1 X95.101 Y128.471 E0.03997
G1 X79.315 Y112.686 E1.32551
G1 X78.949 Y112.993 E0.02837
G1 X94.427 Y128.471 E1.29972
G1 X93.754 Y128.471 E0.03997
G1 X89.794 Y124.511 E0.33252
G1 X89.861 Y125.251 E0.04412
G1 X93.081 Y128.471 E0.27038
G1 X92.408 Y128.471 E0.03997
G1 X89.749 Y125.813 E0.22322
G1 X89.588 Y126.325 E0.03187
G1 X91.734 Y128.471 E0.18023
G1 X91.061 Y128.471 E0.03997
G1 X89.318 Y126.728 E0.14635
G1 X89.049 Y127.132 E0.02882
G1 X90.388 Y128.471 E0.11246
G1 X90.321 Y129.077 E0.03622
G1 X88.658 Y127.415 E0.13962
G1 X88.255 Y127.684 E0.02882
G1 X90.321 Y129.751 E0.17350
G1 X90.321 Y130.424 E0.03997
G1 X87.774 Y127.877 E0.21385
G1 X87.213 Y127.989 E0.03400
G1 X90.321 Y131.097 E0.26101
G1 X90.321 Y131.770 E0.03997
G1 X86.528 Y127.977 E0.31850
G1 X85.599 Y127.721 E0.05722
G1 X90.321 Y132.444 E0.39652
G1 X90.321 Y133.117 E0.03997
G1 X77.379 Y120.175 E1.08674
G1 X77.379 Y119.502 E0.03997
G1 X84.428 Y126.551 E0.59195
G1 X84.173 Y125.622 E0.05721
G1 X77.379 Y118.828 E0.57047
G1 X77.379 Y118.155 E0.03997
G1 X84.161 Y124.937 E0.56951
G1 X84.273 Y124.376 E0.03400
G1 X77.379 Y117.482 E0.57889
G1 X77.379 Y116.809 E0.03997
G1 X84.466 Y123.895 E0.59506
G1 X84.735 Y123.492 E0.02882
G1 X77.379 Y116.135 E0.61771
G1 X77.379 Y115.462 E0.03997
G1 X85.018 Y123.101 E0.64147
G1 X85.422 Y122.832 E0.02882
G1 X77.379 Y114.789 E0.67536
G1 X77.491 Y114.228 E0.03399
G1 X85.825 Y122.562 E0.69985
G1 X86.337 Y122.401 E0.03187
G1 X77.851 Y113.914 E0.71262
G1 X78.217 Y113.607 E0.02837
G1 X86.899 Y122.289 E0.72903
G1 X87.644 Y122.361 E0.04442
G1 X78.583 Y113.300 E0.76082
G1 X77.379 Y120.848 F7800.000
G1 X90.321 Y133.790 E1.08674 F1620.000
G1 X90.321 Y134.463 E0.03997
G1 X77.379 Y121.521 E1.08674
G1 X77.379 Y122.195 E0.03997
G1 X90.321 Y135.137 E1.08674
G1 X90.321 Y135.810 E0.03997
G1 X77.379 Y122.868 E1.08674
G1 X77.379 Y123.541 E0.03997
G1 X90.321 Y136.483 E1.08674
G1 X90.321 Y137.156 E0.03997
G1 X77.379 Y124.214 E1.08674
G1 X77.379 Y124.887 E0.03997
G1 X90.321 Y137.829 E1.08674
G1 X87.997 Y136.178 F7800.000
G1 X77.379 Y125.561 E0.89155 F1620.000
G1 X77.379 Y126.234 E0.03997
G1 X86.971 Y135.826 E0.80543
G1 X86.165 Y135.694 E0.04847
G1 X77.379 Y126.907 E0.73779
G1 X77.379 Y127.580 E0.03997
G1 X85.492 Y135.694 E0.68126
G1 X84.895 Y135.770 E0.03574
G1 X77.379 Y128.254 E0.63112
G1 X77.379 Y128.927 E0.03997
G1 X84.340 Y135.888 E0.58450
G1 X83.849 Y136.070 E0.03110
G1 X77.379 Y129.600 E0.54326
G1 X77.379 Y130.273 E0.03997
G1 X83.383 Y136.277 E0.50415
G1 X82.960 Y136.528 E0.02917
G1 X77.379 Y130.947 E0.46867
G1 X77.379 Y131.620 E0.03997
G1 X82.570 Y136.811 E0.43592
G1 X82.202 Y137.116 E0.02839
