; generated by Slic3r 1.3.1-dev (Build 2d100c4) on 2020-05-15 at 13:15:46

; external perimeters extrusion width = 0.44mm (3.91mm^3/s)
; perimeters extrusion width = 0.56mm (5.65mm^3/s)
; infill extrusion width = 0.50mm (5.02mm^3/s)
; solid infill extrusion width = 0.56mm (5.65mm^3/s)
; top infill extrusion width = 0.56mm (5.65mm^3/s)

M107
M190 S60 ; set bed temperature and wait for it to be reached
M104 S215 ; set temperature
G28 ; home all axes
G92 E0.0 ; reset extruder
; Filament gcode

M109 S215 ; set temperature and wait for it to be reached
G21 ; set units to millimeters
G90 ; use absolute coordinates
M83 ; use relative distances for extrusion
G1 E-1.30000 F3600.00000
G1 Z0.300 F7800.000
G1 X56.963 Y26.560 F7800.000
G1 E1.30000 F3600.00000
M201 X500 Y500
M204 P500 T500
G1 F2160.000
G1 X58.606 Y24.456 E0.15840
G1 X62.606 Y20.456 E0.33558
G1 X64.957 Y18.669 E0.17519
G1 X67.700 Y17.574 E0.17519
G1 X70.350 Y17.249 E0.15840
G1 X78.350 Y17.249 E0.47458
G1 X81.276 Y17.647 E0.17519
G1 X83.990 Y18.813 E0.17519
G1 X86.094 Y20.456 E0.15840
G1 X121.394 Y55.756 E2.96145
G1 X123.181 Y58.107 E0.17519
G1 X124.276 Y60.850 E0.17519
G1 X124.601 Y63.500 E0.15840
G1 X124.601 Y116.500 E3.14406
G1 X124.203 Y119.426 E0.17519
G1 X123.037 Y122.140 E0.17519
G1 X121.394 Y124.244 E0.15840
G1 X86.094 Y159.544 E2.96145
G1 X83.743 Y161.331 E0.17519
G1 X81.000 Y162.426 E0.17519
G1 X78.350 Y162.751 E0.15840
G1 X70.350 Y162.751 E0.47458
G1 X67.424 Y162.353 E0.17519
G1 X64.710 Y161.187 E0.17519
G1 X62.606 Y159.544 E0.15840
G1 X58.606 Y155.544 E0.33558
G1 X56.819 Y153.193 E0.17519
G1 X55.724 Y150.450 E0.17519
G1 X55.399 Y147.800 E0.15840
G1 X55.399 Y32.200 E6.85761
G1 X55.797 Y29.274 E0.17519
G1 X56.939 Y26.616 E0.17163
G1 X57.436 Y26.697 F7800.000
G1 F2160.000
G1 X58.943 Y24.793 E0.14401
G1 X62.943 Y20.793 E0.33558
G1 X65.247 Y19.051 E0.17132
G1 X67.939 Y18.006 E0.17132
G1 X70.350 Y17.724 E0.14401
G1 X78.350 Y17.724 E0.47458
G1 X81.210 Y18.122 E0.17132
G1 X83.853 Y19.286 E0.17132
G1 X85.757 Y20.793 E0.14401
G1 X121.057 Y56.093 E2.96145
G1 X122.799 Y58.397 E0.17132
G1 X123.844 Y61.089 E0.17132
G1 X124.126 Y63.500 E0.14401
G1 X124.126 Y116.500 E3.14406
G1 X123.728 Y119.360 E0.17132
G1 X122.564 Y122.003 E0.17132
G1 X121.057 Y123.907 E0.14401
G1 X85.757 Y159.207 E2.96145
G1 X83.453 Y160.949 E0.17132
G1 X80.761 Y161.994 E0.17132
G1 X78.350 Y162.276 E0.14401
G1 X70.350 Y162.276 E0.47458
G1 X67.490 Y161.878 E0.17132
G1 X64.847 Y160.714 E0.17132
G1 X62.943 Y159.207 E0.14401
G1 X58.943 Y155.207 E0.33558
G1 X57.201 Y152.903 E0.17132
G1 X56.156 Y150.211 E0.17132
G1 X55.874 Y147.800 E0.14401
G1 X55.874 Y32.200 E6.85761
G1 X56.272 Y29.340 E0.17132
G1 X57.412 Y26.751 E0.16776
G1 F6240.000
G1 X58.800 Y24.976 E-1.23500
G1 E-0.06500 F3600.00000
G1 X77.886 Y127.014 F7800.000
G1 E1.30000 F3600.00000
G1 F1080.000
G1 X78.625 Y127.551 E0.05421
G1 X79.237 Y128.231 E0.05422
G1 X79.694 Y129.022 E0.05421
G1 X79.976 Y129.891 E0.05422
G1 X80.071 Y130.800 E0.05421
G1 X79.976 Y131.709 E0.05421
G1 X79.694 Y132.578 E0.05421
G1 X79.237 Y133.369 E0.05421
G1 X78.625 Y134.049 E0.05422
G1 X77.886 Y134.586 E0.05421
G1 X77.051 Y134.957 E0.05421
G1 X76.157 Y135.147 E0.05421
G1 X75.243 Y135.147 E0.05421
G1 X74.349 Y134.957 E0.05421
G1 X73.514 Y134.586 E0.05421
G1 X72.775 Y134.049 E0.05421
G1 X72.163 Y133.369 E0.05421
G1 X71.706 Y132.578 E0.05421
G1 X71.424 Y131.709 E0.05421
G1 X71.329 Y130.800 E0.05421
G1 X71.424 Y129.891 E0.05421
G1 X71.706 Y129.022 E0.05422
G1 X72.163 Y128.231 E0.05421
G1 X72.775 Y127.551 E0.05421
G1 X73.514 Y127.014 E0.05421
G1 X74.349 Y126.642 E0.05421
G1 X75.243 Y126.452 E0.05421
G1 X76.157 Y126.452 E0.05421
G1 X77.051 Y126.642 E0.05422
G1 X77.831 Y126.990 E0.05065
G1 X77.886 Y127.014 F7800.000
G1 F6240.000
G1 X77.886 Y127.014 E-0.03288
G1 F6240.000
G1 X78.625 Y127.551 E-0.50086
G1 F6240.000
G1 X79.237 Y128.231 E-0.50092
G1 F6240.000
G1 X79.419 Y128.547 E-0.20033
G1 E-0.06500 F3600.00000
G1 X77.000 Y143.540 F7800.000
G1 E1.30000 F3600.00000
G1 F1080.000
G1 X77.999 Y143.738 E0.06042
G1 X78.846 Y144.304 E0.06041
G1 X79.412 Y145.151 E0.06041
G1 X79.610 Y146.150 E0.06042
G1 X79.412 Y147.149 E0.06042
G1 X78.846 Y147.996 E0.06041
G1 X77.999 Y148.562 E0.06041
G1 X77.000 Y148.760 E0.06042
G1 X76.001 Y148.562 E0.06042
G1 X75.154 Y147.996 E0.06042
G1 X74.588 Y147.149 E0.06041
G1 X74.390 Y146.150 E0.06042
G1 X74.588 Y145.151 E0.06042
G1 X75.154 Y144.304 E0.06041
G1 X76.001 Y143.738 E0.06042
G1 X76.941 Y143.551 E0.05686
G1 X77.000 Y144.025 F7800.000
G1 F1080.000
G1 X77.813 Y144.186 E0.04920
G1 X78.503 Y144.647 E0.04919
G1 X78.964 Y145.337 E0.04919
G1 X79.125 Y146.150 E0.04920
G1 X78.964 Y146.963 E0.04920
G1 X78.503 Y147.653 E0.04919
G1 X77.813 Y148.114 E0.04919
G1 X77.000 Y148.275 E0.04920
G1 X76.187 Y148.114 E0.04919
G1 X75.497 Y147.653 E0.04919
G1 X75.036 Y146.963 E0.04919
G1 X74.875 Y146.150 E0.04919
G1 X75.036 Y145.337 E0.04919
G1 X75.497 Y144.647 E0.04919
G1 X76.187 Y144.186 E0.04919
G1 X76.941 Y144.036 E0.04563
G1 X77.000 Y144.025 F7800.000
G1 F6240.000
G1 X77.000 Y144.025 E-0.03288
G1 F6240.000
G1 X77.813 Y144.186 E-0.45452
G1 F6240.000
G1 X78.503 Y144.647 E-0.45447
G1 F6240.000
G1 X78.800 Y145.092 E-0.29313
G1 E-0.06500 F3600.00000
G1 X77.000 Y117.760 F7800.000
G1 E1.30000 F3600.00000
G1 F1080.000
G1 X76.001 Y117.562 E0.06042
G1 X75.154 Y116.996 E0.06042
G1 X74.588 Y116.149 E0.06041
G1 X74.390 Y115.150 E0.06042
G1 X74.588 Y114.151 E0.06042
G1 X75.154 Y113.304 E0.06041
G1 X76.001 Y112.738 E0.06042
G1 X77.000 Y112.540 E0.06042
G1 X77.999 Y112.738 E0.06042
G1 X78.846 Y113.304 E0.06041
G1 X79.412 Y114.151 E0.06041
G1 X79.610 Y115.150 E0.06042
G1 X79.412 Y116.149 E0.06042
G1 X78.846 Y116.996 E0.06041
G1 X77.999 Y117.562 E0.06041
G1 X77.059 Y117.749 E0.05686
G1 X77.000 Y117.275 F7800.000
G1 F1080.000
G1 X76.187 Y117.114 E0.04919
G1 X75.497 Y116.653 E0.04919
G1 X75.036 Y115.963 E0.04919
G1 X74.875 Y115.150 E0.04919
G1 X75.036 Y114.337 E0.04919
G1 X75.497 Y113.647 E0.04919
G1 X76.187 Y113.186 E0.04919
G1 X77.000 Y113.025 E0.04919
G1 X77.813 Y113.186 E0.04920
G1 X78.503 Y113.647 E0.04919
G1 X78.964 Y114.337 E0.04919
G1 X79.125 Y115.150 E0.04920
G1 X78.964 Y115.963 E0.04920
G1 X78.503 Y116.653 E0.04919
G1 X77.813 Y117.114 E0.04919
G1 X77.059 Y117.264 E0.04564
G1 X77.000 Y117.275 F7800.000
G1 F6240.000
G1 X77.000 Y117.275 E-0.03288
G1 F6240.000
G1 X76.187 Y117.114 E-0.45449
G1 F6240.000
G1 X75.497 Y116.653 E-0.45451
G1 F6240.000
G1 X75.200 Y116.208 E-0.29312
G1 E-0.06500 F3600.00000
G1 X105.390 Y115.150 F7800.000
G1 E1.30000 F3600.00000
G1 F1080.000
G1 X105.588 Y114.151 E0.06042
G1 X106.154 Y113.304 E0.06041
G1 X107.001 Y112.738 E0.06041
G1 X108.000 Y112.540 E0.06042
G1 X108.999 Y112.738 E0.06042
G1 X109.846 Y113.304 E0.06041
G1 X110.412 Y114.151 E0.06041
G1 X110.610 Y115.150 E0.06042
G1 X110.412 Y116.149 E0.06042
G1 X109.846 Y116.996 E0.06041
G1 X108.999 Y117.562 E0.06041
G1 X108.000 Y117.760 E0.06042
G1 X107.001 Y117.562 E0.06042
G1 X106.154 Y116.996 E0.06041
G1 X105.588 Y116.149 E0.06041
G1 X105.401 Y115.209 E0.05686
G1 X105.875 Y115.150 F7800.000
G1 F1080.000
G1 X106.036 Y114.337 E0.04920
G1 X106.497 Y113.647 E0.04919
G1 X107.187 Y113.186 E0.04919
G1 X108.000 Y113.025 E0.04920
G1 X108.813 Y113.186 E0.04920
G1 X109.503 Y113.647 E0.04919
G1 X109.964 Y114.337 E0.04919
G1 X110.125 Y115.150 E0.04920
G1 X109.964 Y115.963 E0.04920
G1 X109.503 Y116.653 E0.04919
G1 X108.813 Y117.114 E0.04919
G1 X108.000 Y117.275 E0.04920
G1 X107.187 Y117.114 E0.04920
G1 X106.497 Y116.653 E0.04919
G1 X106.036 Y115.963 E0.04919
G1 X105.886 Y115.209 E0.04564
G1 X105.875 Y115.150 F7800.000
G1 F6240.000
G1 X105.875 Y115.150 E-0.03288
G1 F6240.000
G1 X106.036 Y114.337 E-0.45452
G1 F6240.000
G1 X106.497 Y113.647 E-0.45447
G1 F6240.000
G1 X106.942 Y113.350 E-0.29313
G1 E-0.06500 F3600.00000
G1 X93.404 Y97.246 F7800.000
G1 E1.30000 F3600.00000
G1 F1620.000
G1 X104.841 Y97.246 E0.67845
G1 X112.904 Y105.309 E0.67645
G1 X112.904 Y116.191 E0.64556
G1 X110.341 Y118.754 E0.21504
G1 X80.604 Y118.754 E1.76404
G1 X80.604 Y129.507 E0.63787
G1 X80.364 Y129.545 E0.01446
G1 X80.130 Y128.827 E0.04477
G1 X79.624 Y127.949 E0.06014
G1 X78.945 Y127.196 E0.06015
G1 X78.125 Y126.600 E0.06014
G1 X77.199 Y126.188 E0.06014
G1 X76.207 Y125.977 E0.06015
G1 X75.193 Y125.977 E0.06014
G1 X74.201 Y126.188 E0.06014
G1 X73.275 Y126.600 E0.06014
G1 X72.455 Y127.196 E0.06015
G1 X71.776 Y127.949 E0.06015
G1 X71.270 Y128.827 E0.06014
G1 X70.956 Y129.792 E0.06015
G1 X70.850 Y130.800 E0.06014
G1 X70.956 Y131.808 E0.06014
G1 X71.270 Y132.773 E0.06015
G1 X71.776 Y133.651 E0.06014
G1 X72.455 Y134.404 E0.06015
G1 X73.275 Y135.000 E0.06015
G1 X74.201 Y135.412 E0.06014
G1 X75.193 Y135.623 E0.06014
G1 X76.207 Y135.623 E0.06014
G1 X77.199 Y135.412 E0.06015
G1 X78.125 Y135.000 E0.06014
G1 X78.945 Y134.404 E0.06014
G1 X79.624 Y133.651 E0.06015
G1 X80.130 Y132.773 E0.06014
G1 X80.364 Y132.055 E0.04477
G1 X80.604 Y132.093 E0.01446
G1 X80.604 Y148.491 E0.97278
G1 X78.041 Y151.054 E0.21504
G1 X70.659 Y151.054 E0.43793
G1 X67.096 Y147.491 E0.29893
G1 X67.096 Y104.232 E2.56623
G1 X75.421 Y97.246 E0.64474
G1 X86.896 Y97.246 E0.68067
G1 X86.896 Y95.246 E0.11864
G1 X93.404 Y95.246 E0.38611
G1 X93.404 Y97.186 E0.11508
G1 X93.880 Y96.770 F7800.000
G1 F1458.000
G1 X105.038 Y96.770 E0.66192
G1 X113.380 Y105.112 E0.69983
G1 X113.380 Y116.388 E0.66893
G1 X110.538 Y119.230 E0.23841
G1 X81.080 Y119.230 E1.74751
G1 X81.080 Y148.688 E1.74751
G1 X78.238 Y151.530 E0.23841
G1 X70.462 Y151.530 E0.46131
G1 X66.620 Y147.688 E0.32231
G1 X66.620 Y104.010 E2.59107
G1 X75.248 Y96.770 E0.66817
G1 X86.420 Y96.770 E0.66273
G1 X86.420 Y94.770 E0.11864
G1 X93.880 Y94.770 E0.44254
G1 X93.880 Y96.710 E0.11508
G1 X94.049 Y97.133 F7800.000
G1 F6240.000
G1 X96.133 Y96.722 E-1.23500
G1 E-0.06500 F3600.00000
G1 X87.906 Y95.671 F7800.000
G1 E1.30000 F3600.00000
G1 F1620.000
G1 X87.321 Y96.256 E0.04956
G1 X87.321 Y96.935 E0.04072
G1 X88.585 Y95.671 E0.10715
G1 X89.265 Y95.671 E0.04072
G1 X87.321 Y97.615 E0.16474
G1 F6240.000
G1 X88.914 Y96.021 E-1.23500
G1 E-0.06500 F3600.00000
G1 X67.522 Y104.503 F7800.000
G1 E1.30000 F3600.00000
G1 F1620.000
G1 X71.846 Y100.858 E0.33889
G1 X67.521 Y105.184 E0.36659
G1 X67.521 Y105.863 E0.04072
G1 X75.713 Y97.671 E0.69431
G1 X76.393 Y97.671 E0.04072
G1 X67.521 Y106.543 E0.75190
G1 X67.521 Y107.222 E0.04072
G1 X77.072 Y97.671 E0.80948
G1 X77.752 Y97.671 E0.04072
G1 X67.521 Y107.902 E0.86707
G1 X67.521 Y108.581 E0.04072
G1 X78.431 Y97.671 E0.92466
G1 X79.111 Y97.671 E0.04072
G1 X67.521 Y109.261 E0.98224
G1 X67.521 Y109.940 E0.04072
G1 X79.790 Y97.671 E1.03983
G1 X80.470 Y97.671 E0.04072
G1 X67.521 Y110.620 E1.09742
G1 X67.521 Y111.299 E0.04072
G1 X81.149 Y97.671 E1.15500
G1 X81.829 Y97.671 E0.04072
G1 X67.521 Y111.979 E1.21259
G1 X67.521 Y112.658 E0.04072
G1 X82.508 Y97.671 E1.27018
G1 X83.188 Y97.671 E0.04072
G1 X67.521 Y113.338 E1.32777
G1 X67.521 Y114.017 E0.04072
G1 X83.867 Y97.671 E1.38535
G1 X84.547 Y97.671 E0.04072
G1 X67.521 Y114.697 E1.44294
G1 X67.521 Y115.376 E0.04072
G1 X85.226 Y97.671 E1.50053
G1 X85.906 Y97.671 E0.04072
G1 X67.521 Y116.056 E1.55811
G1 X67.521 Y116.735 E0.04072
G1 X86.585 Y97.671 E1.61570
G1 X87.265 Y97.671 E0.04072
G1 X67.521 Y117.415 E1.67329
G1 X67.521 Y118.094 E0.04072
G1 X89.944 Y95.671 E1.90037
G1 X90.624 Y95.671 E0.04072
G1 X67.521 Y118.774 E1.95796
G1 X67.521 Y119.453 E0.04072
G1 X91.303 Y95.671 E2.01555
G1 X91.983 Y95.671 E0.04072
G1 X67.521 Y120.133 E2.07313
G1 X67.521 Y120.812 E0.04072
G1 X74.034 Y114.299 E0.55197
G1 X74.090 Y114.016 E0.01730
G1 X74.761 Y113.012 E0.07237
G1 X75.765 Y112.341 E0.07237
G1 X76.048 Y112.285 E0.01730
G1 X92.662 Y95.671 E1.40802
G1 X92.979 Y95.671 E0.01901
G1 X92.979 Y96.033 E0.02171
G1 X76.896 Y112.116 E1.36302
G1 X76.950 Y112.105 E0.00325
G1 X77.481 Y112.211 E0.03246
G1 X92.979 Y96.713 E1.31349
G1 X92.979 Y97.392 E0.04072
G1 X78.048 Y112.324 E1.26545
G1 X78.134 Y112.341 E0.00529
G1 X78.479 Y112.572 E0.02488
G1 X93.380 Y97.671 E1.26284
G1 X94.059 Y97.671 E0.04072
G1 X78.886 Y112.844 E1.28591
G1 X79.138 Y113.012 E0.01813
G1 X79.242 Y113.168 E0.01122
G1 X94.739 Y97.671 E1.31336
G1 X95.418 Y97.671 E0.04072
G1 X79.514 Y113.575 E1.34787
G1 X79.787 Y113.982 E0.02936
G1 X96.098 Y97.671 E1.38239
G1 X96.777 Y97.671 E0.04072
G1 X79.912 Y114.536 E1.42931
G1 X80.025 Y115.103 E0.03463
G1 X97.457 Y97.671 E1.47734
G1 X98.136 Y97.671 E0.04072
G1 X79.905 Y115.902 E1.54510
G1 X79.809 Y116.385 E0.02951
G1 X79.219 Y117.267 E0.06360
G1 X98.816 Y97.671 E1.66081
G1 X99.495 Y97.671 E0.04072
G1 X67.521 Y129.645 E2.70985
G1 X67.521 Y130.325 E0.04072
G1 X100.175 Y97.671 E2.76744
G1 X100.854 Y97.671 E0.04072
G1 X80.196 Y118.329 E1.75080
G1 X80.875 Y118.329 E0.04072
G1 X101.534 Y97.671 E1.75080
G1 X102.213 Y97.671 E0.04072
G1 X81.555 Y118.329 E1.75080
G1 X82.234 Y118.329 E0.04072
G1 X102.893 Y97.671 E1.75080
G1 X103.572 Y97.671 E0.04072
G1 X82.914 Y118.329 E1.75080
G1 X83.593 Y118.329 E0.04072
G1 X104.252 Y97.671 E1.75080
G1 X104.695 Y97.671 E0.02653
G1 X104.813 Y97.789 E0.01003
G1 X84.273 Y118.329 E1.74077
G1 X84.952 Y118.329 E0.04072
G1 X105.153 Y98.129 E1.71198
G1 X105.492 Y98.469 E0.02879
G1 X85.632 Y118.329 E1.68318
G1 X86.311 Y118.329 E0.04072
G1 X105.832 Y98.808 E1.65439
G1 X106.172 Y99.148 E0.02879
G1 X86.991 Y118.329 E1.62560
G1 X87.670 Y118.329 E0.04072
G1 X106.512 Y99.488 E1.59680
G1 X106.851 Y99.828 E0.02879
G1 X88.350 Y118.329 E1.56801
G1 X89.029 Y118.329 E0.04072
G1 X107.191 Y100.167 E1.53922
G1 X107.531 Y100.507 E0.02879
G1 X89.709 Y118.329 E1.51042
G1 X90.388 Y118.329 E0.04072
G1 X107.871 Y100.847 E1.48163
G1 X108.210 Y101.187 E0.02879
G1 X91.068 Y118.329 E1.45284
G1 X91.747 Y118.329 E0.04072
G1 X108.550 Y101.526 E1.42404
G1 X108.890 Y101.866 E0.02879
G1 X92.427 Y118.329 E1.39525
G1 X93.106 Y118.329 E0.04072
G1 X109.230 Y102.206 E1.36646
G1 X109.569 Y102.546 E0.02879
G1 X93.786 Y118.329 E1.33766
G1 X94.465 Y118.329 E0.04072
G1 X109.909 Y102.885 E1.30887
G1 X110.249 Y103.225 E0.02879
G1 X95.145 Y118.329 E1.28008
G1 X95.824 Y118.329 E0.04072
G1 X110.589 Y103.565 E1.25128
G1 X110.928 Y103.905 E0.02879
G1 X96.504 Y118.329 E1.22249
G1 X97.183 Y118.329 E0.04072
G1 X111.268 Y104.244 E1.19370
G1 X111.608 Y104.584 E0.02879
G1 X97.863 Y118.329 E1.16490
G1 X98.542 Y118.329 E0.04072
G1 X111.948 Y104.924 E1.13611
G1 X112.287 Y105.264 E0.02879
G1 X99.222 Y118.329 E1.10731
G1 X99.901 Y118.329 E0.04072
G1 X112.479 Y105.751 E1.06599
G1 X112.479 Y106.431 E0.04072
G1 X106.174 Y112.736 E0.53436
G1 X106.765 Y112.341 E0.04259
G1 X107.369 Y112.221 E0.03688
G1 X112.479 Y107.110 E0.43313
G1 X112.479 Y107.790 E0.04072
G1 X108.128 Y112.141 E0.36876
G1 X108.695 Y112.254 E0.03463
G1 X112.479 Y108.469 E0.32072
G1 X112.479 Y109.149 E0.04072
G1 X109.226 Y112.402 E0.27573
G1 X109.633 Y112.674 E0.02936
G1 X112.479 Y109.828 E0.24122
G1 X112.479 Y110.508 E0.04072
G1 X110.040 Y112.947 E0.20670
G1 X110.138 Y113.012 E0.00705
G1 X110.345 Y113.321 E0.02231
G1 X112.479 Y111.187 E0.18088
G1 X112.479 Y111.867 E0.04072
G1 X110.617 Y113.729 E0.15781
G1 X110.809 Y114.016 E0.02070
G1 X110.842 Y114.183 E0.01021
G1 X112.479 Y112.546 E0.13873
G1 X112.479 Y113.226 E0.04072
G1 X110.955 Y114.750 E0.12917
G1 X111.045 Y115.200 E0.02754
G1 X111.010 Y115.374 E0.01062
G1 X112.479 Y113.905 E0.12451
G1 X112.479 Y114.585 E0.04072
G1 X110.841 Y116.222 E0.13880
G1 X110.809 Y116.385 E0.00994
G1 X110.138 Y117.389 E0.07237
G1 X109.269 Y117.970 E0.06265
G1 X109.304 Y118.329 E0.02164
G1 X109.414 Y118.329 E0.00658
G1 X112.479 Y115.264 E0.25977
G1 X112.479 Y115.944 E0.04072
G1 X110.094 Y118.329 E0.20218
G1 F6240.000
G1 X111.687 Y116.736 E-1.23500
G1 E-0.06500 F3600.00000
G1 X106.017 Y118.329 F7800.000
G1 E1.30000 F3600.00000
G1 F1620.000
G1 X106.579 Y117.767 E0.04764
G1 X106.171 Y117.495 E0.02936
G1 X105.337 Y118.329 E0.07071
G1 X104.658 Y118.329 E0.04072
G1 X105.797 Y117.190 E0.09652
G1 X105.524 Y116.783 E0.02936
G1 X103.978 Y118.329 E0.13104
G1 X103.299 Y118.329 E0.04072
G1 X105.252 Y116.376 E0.16556
G1 X105.191 Y116.284 E0.00660
G1 X105.104 Y115.845 E0.02684
G1 X102.619 Y118.329 E0.21055
G1 X101.940 Y118.329 E0.04072
G1 X104.991 Y115.278 E0.25858
