; generated by Slic3r 1.2.9 on 2020-05-14 at 22:51:41

; external perimeters extrusion width = 0.40mm
; perimeters extrusion width = 0.56mm
; infill extrusion width = 0.56mm
; solid infill extrusion width = 0.56mm
; top infill extrusion width = 0.56mm

M107
M190 S60 ; set bed temperature
M104 S215 ; set temperature
G28 ; home all axes
G92 E0.0 ; reset extruder
M109 S215 ; wait for temperature to be reached
G21 ; set units to millimeters
G90 ; use absolute coordinates
M83 ; use relative distances for extrusion
G1 E-1.30000 F3600.00000
G1 Z0.300 F7800.000
G1 X24.722 Y34.029 F7800.000
G1 E1.30000 F3600.00000
M204 S500
G1 X25.808 Y33.277 E0.07834 F2160.000
G1 X27.088 Y32.495 E0.08899
G1 X29.809 Y31.348 E0.17519
G1 X32.663 Y30.970 E0.17075
G1 X167.337 Y30.970 E7.98916
G1 X170.264 Y31.368 E0.17519 F2160.000
G1 X172.912 Y32.495 E0.17076
G1 X174.192 Y33.277 E0.08899
G1 X174.972 Y33.807 E0.05590
G1 X175.529 Y34.212 E0.04087
G1 X176.274 Y34.789 E0.05590
G1 X176.804 Y35.228 E0.04083
G1 X177.511 Y35.851 E0.05590
G1 X178.679 Y36.988 E0.09670
G1 X179.773 Y38.197 E0.09674
G1 X180.788 Y39.471 E0.09662
G1 X181.193 Y40.028 E0.04086
G1 X181.723 Y40.808 E0.05590
G1 X182.547 Y42.158 E0.09386
G1 X182.902 Y42.802 E0.04362
G1 X183.330 Y43.642 E0.05590
G1 X183.623 Y44.264 E0.04083
G1 X183.998 Y45.131 E0.05599
G1 X184.570 Y46.657 E0.09670
G1 X185.045 Y48.214 E0.09659
G1 X185.422 Y49.801 E0.09678
G1 X185.698 Y51.407 E0.09666
G1 X185.869 Y52.980 E0.09385
G1 X185.916 Y53.714 E0.04363
G1 X185.946 Y55.342 E0.09661
G1 X185.873 Y56.972 E0.09677
G1 X185.784 Y57.911 E0.05596
G1 X185.551 Y59.523 E0.09664
G1 X185.422 Y60.199 E0.04077
G1 X185.216 Y61.120 E0.05600
G1 X184.782 Y62.691 E0.09668
G1 X184.570 Y63.343 E0.04070
G1 X184.250 Y64.231 E0.05599
G1 X183.998 Y64.869 E0.04070
G1 X183.623 Y65.736 E0.05600
G1 X183.330 Y66.358 E0.04083
G1 X182.571 Y67.801 E0.09670
G1 X181.777 Y69.112 E0.09092
G1 X121.777 Y159.112 E6.41664
G1 X121.193 Y159.972 E0.06164
G1 X120.788 Y160.529 E0.04086
G1 X120.211 Y161.274 E0.05593
G1 X119.771 Y161.805 E0.04092
G1 X119.148 Y162.512 E0.05589
G1 X118.016 Y163.675 E0.09626
G1 X117.509 Y164.151 E0.04124
G1 X116.802 Y164.774 E0.05590
G1 X116.269 Y165.214 E0.04103
G1 X114.976 Y166.190 E0.09613
G1 X113.615 Y167.089 E0.09676
G1 X112.804 Y167.570 E0.05592
G1 X112.191 Y167.906 E0.04150
G1 X111.351 Y168.333 E0.05589
G1 X109.879 Y168.994 E0.09574
G1 X109.230 Y169.251 E0.04137
G1 X108.343 Y169.571 E0.05594
G1 X106.787 Y170.045 E0.09651
G1 X106.113 Y170.218 E0.04125
G1 X104.531 Y170.549 E0.09592
G1 X103.600 Y170.697 E0.05591
G1 X102.903 Y170.785 E0.04168
G1 X101.965 Y170.873 E0.05590
G1 X100.349 Y170.946 E0.09596
G1 X99.652 Y170.946 E0.04131
G1 X98.709 Y170.916 E0.05596
G1 X97.097 Y170.785 E0.09595
G1 X96.400 Y170.697 E0.04168
G1 X94.807 Y170.423 E0.09590
G1 X93.887 Y170.218 E0.05592
G1 X93.213 Y170.045 E0.04125
G1 X91.657 Y169.571 E0.09651
G1 X90.771 Y169.252 E0.05590
G1 X90.121 Y168.994 E0.04142
G1 X89.257 Y168.619 E0.05592
G1 X87.809 Y167.906 E0.09570
G1 X87.196 Y167.570 E0.04151
G1 X86.385 Y167.090 E0.05591
G1 X85.025 Y166.191 E0.09671
G1 X83.731 Y165.214 E0.09618
G1 X83.198 Y164.774 E0.04104
G1 X82.491 Y164.151 E0.05589
G1 X81.984 Y163.675 E0.04124
G1 X80.852 Y162.512 E0.09624
G1 X80.229 Y161.805 E0.05591
G1 X79.789 Y161.274 E0.04091
G1 X79.212 Y160.529 E0.05590
G1 X78.807 Y159.972 E0.04087
G1 X78.223 Y159.112 E0.06165
G1 X18.223 Y69.112 E6.41664
G1 X17.429 Y67.801 E0.09091
G1 X17.098 Y67.198 E0.04083
G1 X16.670 Y66.358 E0.05590
G1 X16.377 Y65.736 E0.04083
G1 X15.750 Y64.232 E0.09667
G1 X15.430 Y63.345 E0.05592
G1 X15.205 Y62.645 E0.04359
G1 X14.784 Y61.120 E0.09389
G1 X14.578 Y60.200 E0.05590
G1 X14.442 Y59.477 E0.04363
G1 X14.216 Y57.911 E0.09387
G1 X14.127 Y56.973 E0.05592
G1 X14.082 Y56.239 E0.04361
G1 X14.054 Y54.656 E0.09392
G1 X14.084 Y53.714 E0.05592
G1 X14.216 Y52.089 E0.09673
G1 X14.442 Y50.523 E0.09387
G1 X14.578 Y49.800 E0.04363
G1 X14.784 Y48.880 E0.05590
G1 X15.218 Y47.309 E0.09670
G1 X15.750 Y45.769 E0.09667
G1 X16.003 Y45.129 E0.04080
G1 X16.377 Y44.264 E0.05590
G1 X16.670 Y43.642 E0.04083
G1 X17.098 Y42.802 E0.05590
G1 X17.429 Y42.199 E0.04083
G1 X18.277 Y40.808 E0.09665
G1 X18.807 Y40.028 E0.05590
G1 X19.212 Y39.471 E0.04087
G1 X19.789 Y38.726 E0.05591
G1 X20.228 Y38.196 E0.04081
G1 X21.322 Y36.988 E0.09667
G1 X22.489 Y35.851 E0.09667
G1 X23.196 Y35.228 E0.05591
G1 X23.726 Y34.789 E0.04082
G1 X24.674 Y34.064 E0.07076
G1 X25.002 Y34.414 F7800.000
G1 X26.075 Y33.670 E0.07745 F2160.000
G1 X27.330 Y32.904 E0.08722
G1 X29.995 Y31.791 E0.17132
G1 X32.663 Y31.445 E0.15959
G1 X167.337 Y31.445 E7.98916
G1 X170.198 Y31.844 E0.17132 F2160.000
G1 X172.670 Y32.904 E0.15959
G1 X173.925 Y33.670 E0.08722
G1 X174.704 Y34.200 E0.05590
G1 X175.982 Y35.165 E0.09499
G1 X177.196 Y36.208 E0.09495
G1 X178.342 Y37.325 E0.09493
G1 X179.416 Y38.512 E0.09496
G1 X180.413 Y39.762 E0.09485
G1 X181.329 Y41.075 E0.09498
G1 X182.137 Y42.400 E0.09209
G1 X182.478 Y43.018 E0.04184
G1 X183.187 Y44.453 E0.09494
G1 X183.561 Y45.319 E0.05599
G1 X184.123 Y46.818 E0.09493
G1 X184.588 Y48.347 E0.09482
G1 X184.958 Y49.905 E0.09500
G1 X185.228 Y51.482 E0.09488
G1 X185.395 Y53.026 E0.09214
G1 X185.441 Y53.729 E0.04180
G1 X185.470 Y55.327 E0.09484
G1 X185.400 Y56.927 E0.09499
G1 X185.311 Y57.866 E0.05596
G1 X185.081 Y59.449 E0.09488
G1 X184.752 Y61.016 E0.09498
G1 X184.325 Y62.558 E0.09491
G1 X183.803 Y64.070 E0.09491
G1 X183.187 Y65.547 E0.09492
G1 X182.906 Y66.143 E0.03905
G1 X182.161 Y67.559 E0.09493
G1 X181.381 Y68.848 E0.08940
G1 X121.381 Y158.848 E6.41664
G1 X120.800 Y159.704 E0.06139
G1 X119.835 Y160.982 E0.09500
G1 X118.791 Y162.197 E0.09502
G1 X117.680 Y163.338 E0.09450
G1 X117.195 Y163.794 E0.03945
G1 X115.978 Y164.838 E0.09513
G1 X114.708 Y165.797 E0.09438
G1 X113.373 Y166.680 E0.09498
G1 X112.562 Y167.160 E0.05592
G1 X111.975 Y167.482 E0.03970
G1 X111.135 Y167.910 E0.05589
G1 X109.689 Y168.558 E0.09401
G1 X108.182 Y169.123 E0.09551
G1 X106.654 Y169.588 E0.09475
G1 X106.010 Y169.754 E0.03946
G1 X104.456 Y170.080 E0.09418
G1 X103.525 Y170.228 E0.05591
G1 X102.858 Y170.312 E0.03987
G1 X101.275 Y170.440 E0.09422
G1 X100.333 Y170.470 E0.05590
G1 X98.725 Y170.440 E0.09546
G1 X97.142 Y170.312 E0.09421
G1 X96.475 Y170.228 E0.03987
G1 X94.910 Y169.959 E0.09417
G1 X93.346 Y169.588 E0.09537
G1 X91.818 Y169.123 E0.09474
G1 X90.311 Y168.558 E0.09551
G1 X89.446 Y168.183 E0.05592
G1 X88.025 Y167.483 E0.09397
G1 X87.438 Y167.160 E0.03970
G1 X86.627 Y166.680 E0.05591
G1 X85.292 Y165.797 E0.09494
G1 X84.022 Y164.838 E0.09443
G1 X82.805 Y163.794 E0.09514
G1 X82.320 Y163.338 E0.03945
G1 X81.209 Y162.197 E0.09449
G1 X80.165 Y160.982 E0.09504
G1 X79.200 Y159.705 E0.09498
G1 X78.619 Y158.848 E0.06140
G1 X18.619 Y68.848 E6.41664
G1 X17.839 Y67.559 E0.08939
G1 X17.522 Y66.982 E0.03906
G1 X16.813 Y65.547 E0.09494
G1 X16.439 Y64.682 E0.05590
G1 X16.181 Y64.026 E0.04182
G1 X15.675 Y62.558 E0.09212
G1 X15.412 Y61.653 E0.05590
G1 X15.042 Y60.096 E0.09491
G1 X14.919 Y59.450 E0.03906
G1 X14.689 Y57.866 E0.09489
G1 X14.600 Y56.928 E0.05592
G1 X14.558 Y56.224 E0.04184
G1 X14.530 Y54.671 E0.09214
G1 X14.559 Y53.729 E0.05592
G1 X14.689 Y52.134 E0.09495
G1 X14.912 Y50.597 E0.09210
G1 X15.042 Y49.904 E0.04185
G1 X15.412 Y48.347 E0.09491
G1 X15.675 Y47.442 E0.05592
G1 X16.197 Y45.930 E0.09490
G1 X16.439 Y45.318 E0.03903
G1 X16.813 Y44.453 E0.05590
G1 X17.522 Y43.018 E0.09495
G1 X17.839 Y42.441 E0.03906
G1 X18.671 Y41.075 E0.09488
G1 X19.588 Y39.762 E0.09498
G1 X20.165 Y39.018 E0.05591
G1 X20.585 Y38.511 E0.03904
G1 X21.658 Y37.324 E0.09490
G1 X22.804 Y36.208 E0.09490
G1 X23.511 Y35.585 E0.05591
G1 X24.018 Y35.165 E0.03905
G1 X24.953 Y34.449 E0.06988
G1 F6240
G1 X26.075 Y33.670 E-0.74846
G1 F6240
G1 X26.833 Y33.208 E-0.48654
G1 E-0.06500 F3600.00000
G1 X97.750 Y141.633 F7800.000
G1 E1.30000 F3600.00000
G1 X98.450 Y141.259 E0.04709 F1080.000
G1 X99.210 Y141.029 E0.04709
G1 X99.964 Y140.954 E0.04496 F1080.000
G1 X100.787 Y141.028 E0.04897
G1 X101.550 Y141.259 E0.04730
G1 X102.250 Y141.633 E0.04709
G1 X102.863 Y142.137 E0.04708
G1 X103.367 Y142.750 E0.04709
G1 X103.741 Y143.450 E0.04709
G1 X103.971 Y144.210 E0.04709
G1 X104.049 Y145.000 E0.04709
G1 X103.971 Y145.790 E0.04709
G1 X103.741 Y146.550 E0.04709
G1 X103.367 Y147.250 E0.04709
G1 X102.863 Y147.863 E0.04709
G1 X102.250 Y148.367 E0.04708
G1 X101.550 Y148.741 E0.04709
G1 X100.790 Y148.971 E0.04709
G1 X100.000 Y149.049 E0.04709
G1 X99.210 Y148.971 E0.04709
G1 X98.450 Y148.741 E0.04709
G1 X97.750 Y148.367 E0.04709
G1 X97.137 Y147.863 E0.04708
G1 X96.633 Y147.250 E0.04709
G1 X96.259 Y146.550 E0.04709
G1 X96.029 Y145.790 E0.04709
G1 X95.951 Y145.000 E0.04709
G1 X96.029 Y144.210 E0.04709
G1 X96.259 Y143.450 E0.04709
G1 X96.633 Y142.750 E0.04709
G1 X97.137 Y142.137 E0.04709
G1 X97.704 Y141.671 E0.04352
G1 X98.016 Y142.031 F7800.000
G1 X98.633 Y141.701 E0.04153 F1080.000
G1 X99.303 Y141.497 E0.04153
G1 X99.967 Y141.432 E0.03954 F1080.000
G1 X100.696 Y141.497 E0.04342
G1 X101.367 Y141.701 E0.04161
G1 X101.984 Y142.031 E0.04153
G1 X102.525 Y142.475 E0.04153
G1 X102.969 Y143.016 E0.04153
G1 X103.299 Y143.633 E0.04153
G1 X103.503 Y144.303 E0.04153
G1 X103.571 Y145.000 E0.04153
G1 X103.503 Y145.697 E0.04153
G1 X103.299 Y146.367 E0.04153
G1 X102.969 Y146.984 E0.04153
G1 X102.525 Y147.525 E0.04153
G1 X101.984 Y147.969 E0.04153
G1 X101.367 Y148.299 E0.04153
G1 X100.697 Y148.503 E0.04153
G1 X100.000 Y148.571 E0.04153
G1 X99.303 Y148.503 E0.04153
G1 X98.633 Y148.299 E0.04153
G1 X98.016 Y147.969 E0.04153
G1 X97.475 Y147.525 E0.04153
G1 X97.031 Y146.984 E0.04153
G1 X96.701 Y146.367 E0.04153
G1 X96.497 Y145.697 E0.04153
G1 X96.429 Y145.000 E0.04153
G1 X96.497 Y144.303 E0.04153
G1 X96.701 Y143.633 E0.04153
G1 X97.031 Y143.016 E0.04153
G1 X97.475 Y142.475 E0.04153
G1 X97.970 Y142.069 E0.03797
G1 X98.003 Y141.631 F7800.000
G1 X100.000 Y119.049 F7800.000
G1 X99.210 Y118.971 E0.04709 F1080.000
G1 X98.450 Y118.741 E0.04709
G1 X97.750 Y118.367 E0.04709
G1 X97.137 Y117.863 E0.04708
G1 X96.633 Y117.250 E0.04709
G1 X96.259 Y116.550 E0.04709
G1 X96.029 Y115.790 E0.04709
G1 X95.951 Y115.000 E0.04709
G1 X96.029 Y114.210 E0.04709
G1 X96.259 Y113.450 E0.04709
G1 X96.633 Y112.750 E0.04709
G1 X97.137 Y112.137 E0.04709
G1 X97.750 Y111.633 E0.04709
G1 X98.450 Y111.259 E0.04709
G1 X99.210 Y111.029 E0.04709
G1 X99.964 Y110.954 E0.04496 F1080.000
G1 X100.787 Y111.028 E0.04897
G1 X101.550 Y111.259 E0.04730
G1 X102.250 Y111.633 E0.04709
G1 X102.863 Y112.137 E0.04708
G1 X103.367 Y112.750 E0.04709
G1 X103.741 Y113.450 E0.04709
G1 X103.971 Y114.210 E0.04709
G1 X104.049 Y115.000 E0.04709
G1 X103.971 Y115.790 E0.04709
G1 X103.741 Y116.550 E0.04709
G1 X103.367 Y117.250 E0.04709
G1 X102.863 Y117.863 E0.04709
G1 X102.250 Y118.367 E0.04708
G1 X101.550 Y118.741 E0.04709
G1 X100.790 Y118.971 E0.04709
G1 X100.060 Y119.043 E0.04353
G1 X100.000 Y118.571 F7800.000
G1 X99.303 Y118.503 E0.04153 F1080.000
G1 X98.633 Y118.299 E0.04153
G1 X98.016 Y117.969 E0.04153
G1 X97.475 Y117.525 E0.04153
G1 X97.031 Y116.984 E0.04153
G1 X96.701 Y116.367 E0.04153
G1 X96.497 Y115.697 E0.04153
G1 X96.429 Y115.000 E0.04153
G1 X96.497 Y114.303 E0.04153
G1 X96.701 Y113.633 E0.04153
G1 X97.031 Y113.016 E0.04153
G1 X97.475 Y112.475 E0.04153
G1 X98.016 Y112.031 E0.04153
G1 X98.633 Y111.701 E0.04153
G1 X99.303 Y111.497 E0.04153
G1 X99.967 Y111.432 E0.03954 F1080.000
G1 X100.696 Y111.497 E0.04342
G1 X101.367 Y111.701 E0.04161
G1 X101.984 Y112.031 E0.04153
G1 X102.525 Y112.475 E0.04153
G1 X102.969 Y113.016 E0.04153
G1 X103.299 Y113.633 E0.04153
G1 X103.503 Y114.303 E0.04153
G1 X103.571 Y115.000 E0.04153
G1 X103.503 Y115.697 E0.04153
G1 X103.299 Y116.367 E0.04153
G1 X102.969 Y116.984 E0.04153
G1 X102.525 Y117.525 E0.04153
G1 X101.984 Y117.969 E0.04153
G1 X101.367 Y118.299 E0.04153
G1 X100.697 Y118.503 E0.04153
G1 X100.060 Y118.565 E0.03797
G1 X99.789 Y118.911 F7800.000
G1 F6240
G1 X99.303 Y118.503 E-0.41601
G1 F6240
G1 X98.633 Y118.299 E-0.38371
G1 F6240
G1 X98.016 Y117.969 E-0.38371
G1 F6240
G1 X97.943 Y117.910 E-0.05157
G1 E-0.06500 F3600.00000
G1 X100.000 Y89.049 F7800.000
G1 E1.30000 F3600.00000
G1 X99.210 Y88.971 E0.04709 F1080.000
G1 X98.450 Y88.741 E0.04709
G1 X97.750 Y88.367 E0.04709
G1 X97.137 Y87.863 E0.04708
G1 X96.633 Y87.250 E0.04709
G1 X96.259 Y86.550 E0.04709
G1 X96.029 Y85.790 E0.04709
G1 X95.951 Y85.000 E0.04709
G1 X96.029 Y84.210 E0.04709
G1 X96.259 Y83.450 E0.04709
G1 X96.633 Y82.750 E0.04709
G1 X97.137 Y82.137 E0.04709
G1 X97.750 Y81.633 E0.04708
G1 X98.450 Y81.259 E0.04709
G1 X99.210 Y81.029 E0.04709
G1 X99.964 Y80.954 E0.04496 F1080.000
G1 X100.787 Y81.028 E0.04897
G1 X101.550 Y81.259 E0.04730
G1 X102.250 Y81.633 E0.04709
G1 X102.863 Y82.137 E0.04708
G1 X103.367 Y82.750 E0.04709
G1 X103.741 Y83.450 E0.04709
G1 X103.971 Y84.210 E0.04709
G1 X104.049 Y85.000 E0.04709
G1 X103.971 Y85.790 E0.04709
G1 X103.741 Y86.550 E0.04709
G1 X103.367 Y87.250 E0.04709
G1 X102.863 Y87.863 E0.04709
G1 X102.250 Y88.367 E0.04708
G1 X101.550 Y88.741 E0.04709
G1 X100.790 Y88.971 E0.04709
G1 X100.060 Y89.043 E0.04353
G1 X100.000 Y88.571 F7800.000
G1 X99.303 Y88.503 E0.04153 F1080.000
G1 X98.633 Y88.299 E0.04153
G1 X98.016 Y87.969 E0.04153
G1 X97.475 Y87.525 E0.04153
G1 X97.031 Y86.984 E0.04153
G1 X96.701 Y86.367 E0.04153
G1 X96.497 Y85.697 E0.04153
G1 X96.429 Y85.000 E0.04153
G1 X96.497 Y84.303 E0.04153
G1 X96.701 Y83.633 E0.04153
G1 X97.031 Y83.016 E0.04153
G1 X97.475 Y82.475 E0.04153
G1 X98.016 Y82.031 E0.04153
G1 X98.633 Y81.701 E0.04153
G1 X99.303 Y81.497 E0.04153
G1 X99.967 Y81.432 E0.03954 F1080.000
G1 X100.696 Y81.497 E0.04342
G1 X101.367 Y81.701 E0.04161
G1 X101.984 Y82.031 E0.04153
G1 X102.525 Y82.475 E0.04153
G1 X102.969 Y83.016 E0.04153
G1 X103.299 Y83.633 E0.04153
G1 X103.503 Y84.303 E0.04153
G1 X103.571 Y85.000 E0.04153
G1 X103.503 Y85.697 E0.04153
G1 X103.299 Y86.367 E0.04153
G1 X102.969 Y86.984 E0.04153
G1 X102.525 Y87.525 E0.04153
G1 X101.984 Y87.969 E0.04153
G1 X101.367 Y88.299 E0.04153
G1 X100.697 Y88.503 E0.04153
G1 X100.060 Y88.565 E0.03797
G1 X99.789 Y88.911 F7800.000
G1 F6240
G1 X99.303 Y88.503 E-0.41601
G1 F6240
G1 X98.633 Y88.299 E-0.38371
G1 F6240
G1 X98.016 Y87.969 E-0.38371
G1 F6240
G1 X97.943 Y87.910 E-0.05156
G1 E-0.06500 F3600.00000
G1 X119.752 Y63.431 F7800.000
G1 E1.30000 F3600.00000
G1 X108.055 Y63.431 E0.69389 F1620.000
G1 X102.890 Y58.267 E0.43328
G1 X102.890 Y46.569 E0.69389
G1 X119.752 Y46.569 E1.00030
G1 X119.752 Y63.371 E0.99667
G1 X119.277 Y62.955 F7800.000
G1 X108.252 Y62.955 E0.65399 F1458.000
G1 X103.366 Y58.070 E0.40990
G1 X103.366 Y47.045 E0.65399
G1 X119.277 Y47.045 E0.94387
G1 X119.277 Y62.895 E0.94024
G1 X119.277 Y63.355 F7800.000
G1 F6240
G1 X117.023 Y62.907 E-1.23500
G1 E-0.06500 F3600.00000
G1 X100.800 Y58.109 F7800.000
G1 E1.30000 F3600.00000
G1 X98.506 Y58.109 E0.13608 F1620.000
G1 X98.493 Y58.052 E0.00343
G1 X98.180 Y58.161 E0.01964
G1 X97.850 Y58.223 E0.01993
G1 X97.510 Y58.242 E0.02024
G1 X97.207 Y58.226 E0.01798
G1 X96.914 Y58.174 E0.01763
G1 X96.632 Y58.081 E0.01765
G1 X96.361 Y57.940 E0.01810
G1 X96.246 Y57.849 E0.00870
G1 X95.886 Y58.057 E0.02467
G1 X95.584 Y58.162 E0.01901
G1 X95.268 Y58.223 E0.01904
G1 X94.942 Y58.242 E0.01942
G1 X94.469 Y58.212 E0.02808
G1 X94.011 Y58.106 E0.02791
G1 X93.576 Y57.883 E0.02899
G1 X93.050 Y57.366 E0.04375
G1 X93.050 Y60.025 E0.15773
G1 X90.350 Y60.025 E0.16021
G1 X90.350 Y57.720 E0.13675
G1 X89.708 Y57.956 E0.04057
G1 X89.147 Y58.092 E0.03424
G1 X88.545 Y58.176 E0.03608
G1 X87.915 Y58.204 E0.03741
G1 X87.360 Y58.167 E0.03297
G1 X86.850 Y58.045 E0.03109
G1 X86.398 Y57.827 E0.02978
G1 X85.943 Y57.443 E0.03533
G1 X85.943 Y59.995 E0.15137
G1 X83.226 Y59.995 E0.16115
G1 X83.226 Y58.180 E0.10765
G1 X82.756 Y58.223 E0.02802
G1 X82.445 Y58.209 E0.01845
G1 X81.933 Y58.110 E0.03095
G1 X81.466 Y57.902 E0.03030
G1 X81.208 Y57.723 E0.01865
G1 X80.847 Y57.356 E0.03055
G1 X80.566 Y56.885 E0.03252
G1 X80.381 Y56.352 E0.03346
G1 X80.279 Y55.768 E0.03518
G1 X80.247 Y55.136 E0.03757
G1 X80.259 Y54.771 E0.02168
G1 X80.295 Y54.410 E0.02148
G1 X80.434 Y53.793 E0.03754
G1 X80.555 Y53.475 E0.02020
G1 X80.700 Y53.189 E0.01901
