; generated by Slic3r 1.3.1-dev (Build 2d100c4) on 2020-05-15 at 13:15:44

; external perimeters extrusion width = 0.44mm (3.91mm^3/s)
; perimeters extrusion width = 0.56mm (5.65mm^3/s)
; infill extrusion width = 0.50mm (5.02mm^3/s)
; solid infill extrusion width = 0.56mm (5.65mm^3/s)
; top infill extrusion width = 0.56mm (5.65mm^3/s)

M107
M190 S60 ; set bed temperature and wait for it to be reached
M104 S215 ; set temperature
G28 ; home all axes
G92 E0.0 ; reset extruder
; Filament gcode

M109 S215 ; set temperature and wait for it to be reached
G21 ; set units to millimeters
G90 ; use absolute coordinates
M83 ; use relative distances for extrusion
G1 E-1.30000 F3600.00000
G1 Z0.300 F7800.000
G1 X15.808 Y23.277 F7800.000
G1 E1.30000 F3600.00000
M201 X500 Y500
M204 P500 T500
G1 F2160.000
G1 X17.088 Y22.495 E0.08899
G1 X19.809 Y21.348 E0.17519
G1 X22.663 Y20.970 E0.17075
G1 X157.337 Y20.970 E7.98916
G1 X160.264 Y21.368 E0.17519
G1 X162.912 Y22.495 E0.17076
G1 X163.612 Y22.909 E0.04825
G1 X164.972 Y23.807 E0.09663
G1 X165.529 Y24.212 E0.04087
G1 X166.274 Y24.789 E0.05590
G1 X166.804 Y25.228 E0.04084
G1 X167.511 Y25.851 E0.05590
G1 X168.678 Y26.988 E0.09666
G1 X169.149 Y27.489 E0.04079
G1 X169.772 Y28.196 E0.05590
G1 X170.788 Y29.471 E0.09671
G1 X171.193 Y30.028 E0.04086
G1 X171.723 Y30.808 E0.05590
G1 X172.571 Y32.199 E0.09665
G1 X172.902 Y32.802 E0.04082
G1 X173.330 Y33.642 E0.05590
G1 X173.623 Y34.265 E0.04084
G1 X173.997 Y35.129 E0.05590
G1 X174.570 Y36.655 E0.09666
G1 X174.782 Y37.309 E0.04082
G1 X175.216 Y38.880 E0.09667
G1 X175.422 Y39.800 E0.05590
G1 X175.551 Y40.476 E0.04085
G1 X175.784 Y42.089 E0.09667
G1 X175.873 Y43.027 E0.05590
G1 X175.946 Y44.656 E0.09672
G1 X175.916 Y46.286 E0.09670
G1 X175.873 Y46.973 E0.04083
G1 X175.784 Y47.911 E0.05590
G1 X175.551 Y49.524 E0.09667
G1 X175.422 Y50.200 E0.04085
G1 X175.045 Y51.786 E0.09667
G1 X174.570 Y53.345 E0.09671
G1 X174.250 Y54.232 E0.05590
G1 X173.623 Y55.735 E0.09666
G1 X173.330 Y56.358 E0.04084
G1 X172.571 Y57.801 E0.09671
G1 X171.777 Y59.112 E0.09091
G1 X111.777 Y149.112 E6.41664
G1 X111.193 Y149.972 E0.06164
G1 X110.788 Y150.529 E0.04086
G1 X110.211 Y151.274 E0.05590
G1 X109.771 Y151.805 E0.04093
G1 X109.148 Y152.512 E0.05589
G1 X108.016 Y153.675 E0.09626
G1 X107.509 Y154.151 E0.04124
G1 X106.802 Y154.774 E0.05589
G1 X106.269 Y155.214 E0.04103
G1 X105.525 Y155.791 E0.05588
G1 X104.196 Y156.721 E0.09622
G1 X102.804 Y157.570 E0.09671
G1 X102.191 Y157.906 E0.04150
G1 X101.351 Y158.333 E0.05588
G1 X99.879 Y158.994 E0.09574
G1 X99.229 Y159.252 E0.04142
G1 X97.692 Y159.782 E0.09650
G1 X96.787 Y160.045 E0.05590
G1 X96.113 Y160.218 E0.04125
G1 X94.531 Y160.549 E0.09592
G1 X93.600 Y160.697 E0.05591
G1 X92.903 Y160.785 E0.04168
G1 X91.290 Y160.916 E0.09595
G1 X90.349 Y160.946 E0.05590
G1 X89.651 Y160.946 E0.04136
G1 X88.710 Y160.916 E0.05590
G1 X87.097 Y160.785 E0.09595
G1 X86.400 Y160.697 E0.04168
G1 X85.469 Y160.549 E0.05591
G1 X83.887 Y160.218 E0.09592
G1 X83.213 Y160.045 E0.04125
G1 X82.308 Y159.782 E0.05590
G1 X80.771 Y159.252 E0.09650
G1 X80.121 Y158.994 E0.04142
G1 X78.649 Y158.333 E0.09574
G1 X77.809 Y157.906 E0.05588
G1 X77.196 Y157.570 E0.04150
G1 X76.385 Y157.090 E0.05591
G1 X75.804 Y156.721 E0.04081
G1 X74.475 Y155.791 E0.09622
G1 X73.731 Y155.214 E0.05588
G1 X73.198 Y154.774 E0.04103
G1 X72.491 Y154.151 E0.05589
G1 X71.984 Y153.675 E0.04124
G1 X70.852 Y152.512 E0.09626
G1 X70.229 Y151.805 E0.05589
G1 X69.789 Y151.274 E0.04092
G1 X69.212 Y150.529 E0.05590
G1 X68.807 Y149.972 E0.04087
G1 X68.223 Y149.112 E0.06164
G1 X8.223 Y59.112 E6.41664
G1 X7.429 Y57.801 E0.09091
G1 X6.670 Y56.358 E0.09672
G1 X6.377 Y55.736 E0.04084
G1 X5.750 Y54.231 E0.09668
G1 X5.430 Y53.345 E0.05590
G1 X4.955 Y51.786 E0.09670
G1 X4.578 Y50.200 E0.09668
G1 X4.449 Y49.524 E0.04084
G1 X4.302 Y48.593 E0.05590
G1 X4.127 Y46.973 E0.09668
G1 X4.054 Y45.344 E0.09671
G1 X4.084 Y43.714 E0.09670
G1 X4.127 Y43.027 E0.04082
G1 X4.216 Y42.089 E0.05590
G1 X4.449 Y40.476 E0.09668
G1 X4.578 Y39.800 E0.04084
G1 X4.955 Y38.214 E0.09668
G1 X5.218 Y37.309 E0.05590
G1 X5.750 Y35.769 E0.09670
G1 X6.377 Y34.264 E0.09668
G1 X6.670 Y33.642 E0.04084
G1 X7.429 Y32.199 E0.09672
G1 X7.909 Y31.388 E0.05590
G1 X8.807 Y30.028 E0.09665
G1 X9.212 Y29.471 E0.04087
G1 X10.228 Y28.196 E0.09670
G1 X10.851 Y27.489 E0.05590
G1 X11.988 Y26.322 E0.09668
G1 X13.196 Y25.228 E0.09666
G1 X13.726 Y24.789 E0.04083
G1 X14.471 Y24.212 E0.05590
G1 X15.758 Y23.311 E0.09320
G1 X16.075 Y23.670 F7800.000
G1 F2160.000
G1 X17.330 Y22.904 E0.08722
G1 X19.995 Y21.791 E0.17132
G1 X22.663 Y21.445 E0.15959
G1 X157.337 Y21.445 E7.98916
G1 X160.198 Y21.844 E0.17132
G1 X162.670 Y22.904 E0.15960
G1 X163.370 Y23.318 E0.04825
G1 X164.704 Y24.200 E0.09487
G1 X165.238 Y24.587 E0.03910
G1 X165.982 Y25.165 E0.05590
G1 X167.196 Y26.208 E0.09495
G1 X168.342 Y27.324 E0.09489
G1 X168.792 Y27.804 E0.03902
G1 X169.415 Y28.511 E0.05590
G1 X170.413 Y29.762 E0.09493
G1 X171.329 Y31.075 E0.09498
G1 X172.161 Y32.441 E0.09488
G1 X172.478 Y33.018 E0.03905
G1 X173.187 Y34.453 E0.09496
G1 X173.561 Y35.318 E0.05590
G1 X174.122 Y36.816 E0.09489
G1 X174.325 Y37.442 E0.03905
G1 X174.752 Y38.984 E0.09490
G1 X175.081 Y40.551 E0.09497
G1 X175.311 Y42.134 E0.09490
G1 X175.400 Y43.072 E0.05590
G1 X175.470 Y44.671 E0.09494
G1 X175.441 Y46.271 E0.09493
G1 X175.400 Y46.928 E0.03905
G1 X175.311 Y47.866 E0.05590
G1 X175.081 Y49.449 E0.09490
G1 X174.958 Y50.096 E0.03908
G1 X174.588 Y51.653 E0.09490
G1 X174.325 Y52.558 E0.05590
G1 X173.803 Y54.070 E0.09494
G1 X173.187 Y55.547 E0.09489
G1 X172.906 Y56.143 E0.03907
G1 X172.161 Y57.559 E0.09494
G1 X171.381 Y58.848 E0.08939
G1 X111.381 Y148.848 E6.41664
G1 X110.800 Y149.704 E0.06139
G1 X109.835 Y150.982 E0.09498
G1 X108.791 Y152.197 E0.09503
G1 X107.679 Y153.339 E0.09451
G1 X106.488 Y154.417 E0.09533
G1 X105.234 Y155.415 E0.09511
G1 X103.928 Y156.327 E0.09447
G1 X102.562 Y157.160 E0.09493
G1 X101.135 Y157.909 E0.09557
G1 X99.689 Y158.558 E0.09401
G1 X99.068 Y158.804 E0.03962
G1 X97.559 Y159.325 E0.09474
G1 X96.010 Y159.754 E0.09535
G1 X94.456 Y160.080 E0.09418
G1 X93.525 Y160.228 E0.05591
G1 X92.858 Y160.312 E0.03987
G1 X91.275 Y160.440 E0.09421
G1 X89.666 Y160.470 E0.09546
G1 X88.725 Y160.440 E0.05590
G1 X87.142 Y160.312 E0.09421
G1 X86.475 Y160.228 E0.03987
G1 X85.544 Y160.080 E0.05591
G1 X83.990 Y159.754 E0.09418
G1 X83.346 Y159.588 E0.03946
G1 X82.441 Y159.325 E0.05590
G1 X80.932 Y158.804 E0.09474
G1 X80.311 Y158.558 E0.03962
G1 X78.865 Y157.909 E0.09401
G1 X77.438 Y157.160 E0.09557
G1 X76.627 Y156.680 E0.05591
G1 X76.072 Y156.327 E0.03904
G1 X74.767 Y155.415 E0.09447
G1 X73.512 Y154.417 E0.09512
G1 X72.805 Y153.794 E0.05589
G1 X72.321 Y153.338 E0.03945
G1 X71.209 Y152.197 E0.09451
G1 X70.165 Y150.982 E0.09503
G1 X69.587 Y150.238 E0.05590
G1 X69.200 Y149.704 E0.03910
G1 X68.619 Y148.848 E0.06139
G1 X8.619 Y58.848 E6.41664
G1 X7.839 Y57.559 E0.08939
G1 X7.522 Y56.982 E0.03905
G1 X7.094 Y56.142 E0.05590
G1 X6.439 Y54.682 E0.09495
G1 X5.878 Y53.184 E0.09491
G1 X5.675 Y52.558 E0.03904
G1 X5.248 Y51.016 E0.09491
G1 X5.042 Y50.096 E0.05590
G1 X4.919 Y49.449 E0.03907
G1 X4.689 Y47.866 E0.09491
G1 X4.559 Y46.271 E0.09494
G1 X4.530 Y45.329 E0.05590
G1 X4.559 Y43.729 E0.09493
G1 X4.600 Y43.072 E0.03905
G1 X4.772 Y41.481 E0.09491
G1 X4.919 Y40.551 E0.05590
G1 X5.248 Y38.984 E0.09496
G1 X5.675 Y37.442 E0.09491
G1 X5.878 Y36.816 E0.03904
G1 X6.197 Y35.930 E0.05590
G1 X6.813 Y34.453 E0.09490
G1 X7.094 Y33.858 E0.03906
G1 X7.839 Y32.441 E0.09494
G1 X8.318 Y31.630 E0.05590
G1 X9.200 Y30.296 E0.09488
G1 X9.588 Y29.762 E0.03910
G1 X10.585 Y28.511 E0.09493
G1 X11.208 Y27.804 E0.05590
G1 X12.324 Y26.658 E0.09491
G1 X13.511 Y25.585 E0.09489
G1 X14.018 Y25.165 E0.03906
G1 X14.762 Y24.587 E0.05590
G1 X16.025 Y23.704 E0.09143
G1 F6240.000
G1 X16.630 Y23.318 E-0.39306
G1 F6240.000
G1 X17.330 Y22.904 E-0.44576
G1 F6240.000
G1 X17.997 Y22.626 E-0.39618
G1 E-0.06500 F3600.00000
G1 X87.750 Y131.633 F7800.000
G1 E1.30000 F3600.00000
G1 F1080.000
G1 X88.450 Y131.259 E0.04709
G1 X89.210 Y131.029 E0.04709
G1 X90.000 Y130.951 E0.04709
G1 X90.790 Y131.029 E0.04709
G1 X91.550 Y131.259 E0.04709
G1 X92.250 Y131.633 E0.04709
G1 X92.863 Y132.137 E0.04708
G1 X93.367 Y132.750 E0.04709
G1 X93.741 Y133.450 E0.04709
G1 X93.971 Y134.210 E0.04709
G1 X94.049 Y135.000 E0.04709
G1 X93.971 Y135.790 E0.04709
G1 X93.741 Y136.550 E0.04709
G1 X93.367 Y137.250 E0.04709
G1 X92.863 Y137.863 E0.04709
G1 X92.250 Y138.367 E0.04708
G1 X91.550 Y138.741 E0.04709
G1 X90.790 Y138.971 E0.04709
G1 X90.000 Y139.049 E0.04709
G1 X89.210 Y138.971 E0.04709
G1 X88.450 Y138.741 E0.04709
G1 X87.750 Y138.367 E0.04709
G1 X87.137 Y137.863 E0.04708
G1 X86.633 Y137.250 E0.04709
G1 X86.259 Y136.550 E0.04709
G1 X86.029 Y135.790 E0.04709
G1 X85.951 Y135.000 E0.04709
G1 X86.029 Y134.210 E0.04709
G1 X86.259 Y133.450 E0.04709
G1 X86.633 Y132.750 E0.04709
G1 X87.137 Y132.137 E0.04709
G1 X87.704 Y131.671 E0.04352
G1 X88.016 Y132.031 F7800.000
G1 F1080.000
G1 X88.633 Y131.701 E0.04153
G1 X89.303 Y131.497 E0.04153
G1 X90.000 Y131.429 E0.04153
G1 X90.697 Y131.497 E0.04153
G1 X91.367 Y131.701 E0.04153
G1 X91.984 Y132.031 E0.04153
G1 X92.525 Y132.475 E0.04153
G1 X92.969 Y133.016 E0.04153
G1 X93.299 Y133.633 E0.04153
G1 X93.503 Y134.303 E0.04153
G1 X93.571 Y135.000 E0.04153
G1 X93.503 Y135.697 E0.04153
G1 X93.299 Y136.367 E0.04153
G1 X92.969 Y136.984 E0.04153
G1 X92.525 Y137.525 E0.04153
G1 X91.984 Y137.969 E0.04153
G1 X91.367 Y138.299 E0.04153
G1 X90.697 Y138.503 E0.04153
G1 X90.000 Y138.571 E0.04153
G1 X89.303 Y138.503 E0.04153
G1 X88.633 Y138.299 E0.04153
G1 X88.016 Y137.969 E0.04153
G1 X87.475 Y137.525 E0.04153
G1 X87.031 Y136.984 E0.04153
G1 X86.701 Y136.367 E0.04153
G1 X86.497 Y135.697 E0.04153
G1 X86.429 Y135.000 E0.04153
G1 X86.497 Y134.303 E0.04153
G1 X86.701 Y133.633 E0.04153
G1 X87.031 Y133.016 E0.04153
G1 X87.475 Y132.475 E0.04153
G1 X87.970 Y132.069 E0.03797
G1 X88.016 Y132.031 F7800.000
G1 F6240.000
G1 X88.016 Y132.031 E-0.03288
G1 F6240.000
G1 X88.633 Y131.701 E-0.38371
G1 F6240.000
G1 X89.303 Y131.497 E-0.38371
G1 F6240.000
G1 X90.000 Y131.429 E-0.38371
G1 F6240.000
G1 X90.093 Y131.438 E-0.05098
G1 E-0.06500 F3600.00000
G1 X90.000 Y109.049 F7800.000
G1 E1.30000 F3600.00000
G1 F1080.000
G1 X89.210 Y108.971 E0.04709
G1 X88.450 Y108.741 E0.04709
G1 X87.750 Y108.367 E0.04709
G1 X87.137 Y107.863 E0.04708
G1 X86.633 Y107.250 E0.04709
G1 X86.259 Y106.550 E0.04709
G1 X86.029 Y105.790 E0.04709
G1 X85.951 Y105.000 E0.04709
G1 X86.029 Y104.210 E0.04709
G1 X86.259 Y103.450 E0.04709
G1 X86.633 Y102.750 E0.04709
G1 X87.137 Y102.137 E0.04709
G1 X87.750 Y101.633 E0.04708
G1 X88.450 Y101.259 E0.04709
G1 X89.210 Y101.029 E0.04709
G1 X90.000 Y100.951 E0.04709
G1 X90.790 Y101.029 E0.04709
G1 X91.550 Y101.259 E0.04709
G1 X92.250 Y101.633 E0.04709
G1 X92.863 Y102.137 E0.04708
G1 X93.367 Y102.750 E0.04709
G1 X93.741 Y103.450 E0.04709
G1 X93.971 Y104.210 E0.04709
G1 X94.049 Y105.000 E0.04709
G1 X93.971 Y105.790 E0.04709
G1 X93.741 Y106.550 E0.04709
G1 X93.367 Y107.250 E0.04709
G1 X92.863 Y107.863 E0.04709
G1 X92.250 Y108.367 E0.04708
G1 X91.550 Y108.741 E0.04709
G1 X90.790 Y108.971 E0.04709
G1 X90.060 Y109.043 E0.04353
G1 X90.000 Y108.571 F7800.000
G1 F1080.000
G1 X89.303 Y108.503 E0.04153
G1 X88.633 Y108.299 E0.04153
G1 X88.016 Y107.969 E0.04153
G1 X87.475 Y107.525 E0.04153
G1 X87.031 Y106.984 E0.04153
G1 X86.701 Y106.367 E0.04153
G1 X86.497 Y105.697 E0.04153
G1 X86.429 Y105.000 E0.04153
G1 X86.497 Y104.303 E0.04153
G1 X86.701 Y103.633 E0.04153
G1 X87.031 Y103.016 E0.04153
G1 X87.475 Y102.475 E0.04153
G1 X88.016 Y102.031 E0.04153
G1 X88.633 Y101.701 E0.04153
G1 X89.303 Y101.497 E0.04153
G1 X90.000 Y101.429 E0.04153
G1 X90.697 Y101.497 E0.04153
G1 X91.367 Y101.701 E0.04153
G1 X91.984 Y102.031 E0.04153
G1 X92.525 Y102.475 E0.04153
G1 X92.969 Y103.016 E0.04153
G1 X93.299 Y103.633 E0.04153
G1 X93.503 Y104.303 E0.04153
G1 X93.571 Y105.000 E0.04153
G1 X93.503 Y105.697 E0.04153
G1 X93.299 Y106.367 E0.04153
G1 X92.969 Y106.984 E0.04153
G1 X92.525 Y107.525 E0.04153
G1 X91.984 Y107.969 E0.04153
G1 X91.367 Y108.299 E0.04153
G1 X90.697 Y108.503 E0.04153
G1 X90.060 Y108.565 E0.03797
G1 X90.000 Y108.571 F7800.000
G1 F6240.000
G1 X90.000 Y108.571 E-0.03288
G1 F6240.000
G1 X89.303 Y108.503 E-0.38371
G1 F6240.000
G1 X88.633 Y108.299 E-0.38371
G1 F6240.000
G1 X88.016 Y107.969 E-0.38371
G1 F6240.000
G1 X87.944 Y107.910 E-0.05098
G1 E-0.06500 F3600.00000
G1 X90.000 Y79.049 F7800.000
G1 E1.30000 F3600.00000
G1 F1080.000
G1 X89.210 Y78.971 E0.04709
G1 X88.450 Y78.741 E0.04709
G1 X87.750 Y78.367 E0.04709
G1 X87.137 Y77.863 E0.04708
G1 X86.633 Y77.250 E0.04709
G1 X86.259 Y76.550 E0.04709
G1 X86.029 Y75.790 E0.04709
G1 X85.951 Y75.000 E0.04709
G1 X86.029 Y74.210 E0.04709
G1 X86.259 Y73.450 E0.04709
G1 X86.633 Y72.750 E0.04709
G1 X87.137 Y72.137 E0.04709
G1 X87.750 Y71.633 E0.04708
G1 X88.450 Y71.259 E0.04709
G1 X89.210 Y71.029 E0.04709
G1 X90.000 Y70.951 E0.04709
G1 X90.790 Y71.029 E0.04709
G1 X91.550 Y71.259 E0.04709
G1 X92.250 Y71.633 E0.04709
G1 X92.863 Y72.137 E0.04708
G1 X93.367 Y72.750 E0.04709
G1 X93.741 Y73.450 E0.04709
G1 X93.971 Y74.210 E0.04709
G1 X94.049 Y75.000 E0.04709
G1 X93.971 Y75.790 E0.04709
G1 X93.741 Y76.550 E0.04709
G1 X93.367 Y77.250 E0.04709
G1 X92.863 Y77.863 E0.04709
G1 X92.250 Y78.367 E0.04708
G1 X91.550 Y78.741 E0.04709
G1 X90.790 Y78.971 E0.04709
G1 X90.060 Y79.043 E0.04353
G1 X90.000 Y78.571 F7800.000
G1 F1080.000
G1 X89.303 Y78.503 E0.04153
G1 X88.633 Y78.299 E0.04153
G1 X88.016 Y77.969 E0.04153
G1 X87.475 Y77.525 E0.04153
G1 X87.031 Y76.984 E0.04153
G1 X86.701 Y76.367 E0.04153
G1 X86.497 Y75.697 E0.04153
G1 X86.429 Y75.000 E0.04153
G1 X86.497 Y74.303 E0.04153
G1 X86.701 Y73.633 E0.04153
G1 X87.031 Y73.016 E0.04153
G1 X87.475 Y72.475 E0.04153
G1 X88.016 Y72.031 E0.04153
G1 X88.633 Y71.701 E0.04153
G1 X89.303 Y71.497 E0.04153
G1 X90.000 Y71.429 E0.04153
G1 X90.697 Y71.497 E0.04153
G1 X91.367 Y71.701 E0.04153
G1 X91.984 Y72.031 E0.04153
G1 X92.525 Y72.475 E0.04153
G1 X92.969 Y73.016 E0.04153
G1 X93.299 Y73.633 E0.04153
G1 X93.503 Y74.303 E0.04153
G1 X93.571 Y75.000 E0.04153
G1 X93.503 Y75.697 E0.04153
G1 X93.299 Y76.367 E0.04153
G1 X92.969 Y76.984 E0.04153
G1 X92.525 Y77.525 E0.04153
G1 X91.984 Y77.969 E0.04153
G1 X91.367 Y78.299 E0.04153
G1 X90.697 Y78.503 E0.04153
G1 X90.060 Y78.565 E0.03797
G1 X90.000 Y78.571 F7800.000
G1 F6240.000
G1 X90.000 Y78.571 E-0.03288
G1 F6240.000
G1 X89.303 Y78.503 E-0.38371
G1 F6240.000
G1 X88.633 Y78.299 E-0.38371
G1 F6240.000
G1 X88.016 Y77.969 E-0.38371
G1 F6240.000
G1 X87.944 Y77.910 E-0.05098
G1 E-0.06500 F3600.00000
G1 X83.050 Y50.025 F7800.000
G1 E1.30000 F3600.00000
G1 F1620.000
G1 X80.350 Y50.025 E0.16021
G1 X80.350 Y47.720 E0.13675
G1 X79.708 Y47.956 E0.04057
G1 X79.147 Y48.092 E0.03424
G1 X78.545 Y48.176 E0.03608
G1 X77.915 Y48.204 E0.03741
G1 X77.378 Y48.168 E0.03190
G1 X77.083 Y48.112 E0.01783
G1 X76.616 Y47.948 E0.02933
G1 X76.198 Y47.680 E0.02946
G1 X75.943 Y47.397 E0.02262
G1 X75.943 Y49.995 E0.15410
G1 X73.226 Y49.995 E0.16115
G1 X73.226 Y48.180 E0.10764
G1 X72.739 Y48.224 E0.02905
G1 X72.194 Y48.175 E0.03247
G1 X71.705 Y48.023 E0.03037
G1 X71.426 Y47.878 E0.01861
G1 X71.025 Y47.560 E0.03040
G1 X70.694 Y47.130 E0.03220
G1 X70.469 Y46.640 E0.03201
G1 X70.378 Y46.336 E0.01878
G1 X70.279 Y45.768 E0.03420
G1 X70.246 Y45.123 E0.03831
G1 X70.292 Y44.423 E0.04161
G1 X70.434 Y43.793 E0.03833
G1 X70.555 Y43.475 E0.02020
G1 X70.700 Y43.189 E0.01901
G1 X70.875 Y42.923 E0.01889
G1 X71.078 Y42.683 E0.01865
G1 X71.303 Y42.470 E0.01836
G1 X71.566 Y42.273 E0.01948
G1 X72.077 Y42.011 E0.03406
G1 X72.408 Y41.903 E0.02068
G1 X72.997 Y41.804 E0.03545
G1 X73.341 Y41.791 E0.02041
G1 X73.986 Y41.818 E0.03827
G1 X74.582 Y41.901 E0.03567
G1 X75.195 Y42.047 E0.03743
G1 X75.155 Y41.894 E0.00941
G1 X77.674 Y41.894 E0.14943
G1 X77.713 Y42.024 E0.00807
G1 X78.093 Y41.901 E0.02365
G1 X78.416 Y41.845 E0.01948
G1 X78.762 Y41.827 E0.02054
G1 X79.191 Y41.860 E0.02551
G1 X79.607 Y41.970 E0.02556
G1 X79.989 Y42.157 E0.02524
G1 X80.350 Y42.439 E0.02712
G1 X80.350 Y41.803 E0.03770
