; generated by Slic3r 1.3.1-dev (Build 2d100c4) on 2020-05-15 at 06:23:47

; external perimeters extrusion width = 0.44mm (3.91mm^3/s)
; perimeters extrusion width = 0.56mm (5.65mm^3/s)
; infill extrusion width = 0.50mm (5.02mm^3/s)
; solid infill extrusion width = 0.56mm (5.65mm^3/s)
; top infill extrusion width = 0.56mm (5.65mm^3/s)

M107
M190 S60 ; set bed temperature and wait for it to be reached
M104 S215 ; set temperature
G28 ; home all axes
G92 E0.0 ; reset extruder
; Filament gcode

M109 S215 ; set temperature and wait for it to be reached
G21 ; set units to millimeters
G90 ; use absolute coordinates
M83 ; use relative distances for extrusion
G1 E-1.30000 F3600.00000
G1 Z0.300 F7800.000
G1 X55.926 Y52.237 F7800.000
G1 E1.30000 F3600.00000
M201 X500 Y500
M204 P500 T500
G1 F2160.000
G1 X66.043 Y42.040 E0.85211
G1 X67.059 Y41.023 E0.08529
G1 X67.561 Y40.552 E0.04080
G1 X68.607 Y39.630 E0.08273
G1 X69.137 Y39.191 E0.04083
G1 X70.239 Y38.337 E0.08273
G1 X70.795 Y37.932 E0.04079
G1 X71.949 Y37.149 E0.08273
G1 X72.530 Y36.779 E0.04086
G1 X73.731 Y36.070 E0.08274
G1 X74.333 Y35.739 E0.04076
G1 X75.576 Y35.105 E0.08273
G1 X76.199 Y34.812 E0.04087
G1 X77.479 Y34.258 E0.08273
G1 X78.117 Y34.005 E0.04074
G1 X79.430 Y33.533 E0.08273
G1 X80.085 Y33.320 E0.04089
G1 X81.424 Y32.931 E0.08273
G1 X82.090 Y32.760 E0.04074
G1 X83.451 Y32.456 E0.08273
G1 X84.128 Y32.327 E0.04087
G1 X85.505 Y32.109 E0.08273
G1 X86.187 Y32.023 E0.04076
G1 X87.575 Y31.891 E0.08273
G1 X88.262 Y31.848 E0.04084
G1 X89.656 Y31.804 E0.08273
G1 X90.344 Y31.804 E0.04080
G1 X91.738 Y31.848 E0.08273
G1 X92.425 Y31.891 E0.04084
G1 X93.813 Y32.023 E0.08273
G1 X94.495 Y32.109 E0.04076
G1 X95.872 Y32.327 E0.08273
G1 X96.549 Y32.456 E0.04087
G1 X97.910 Y32.760 E0.08273
G1 X98.576 Y32.931 E0.04074
G1 X99.915 Y33.320 E0.08273
G1 X100.570 Y33.533 E0.04089
G1 X101.883 Y34.005 E0.08273
G1 X102.521 Y34.258 E0.04074
G1 X103.801 Y34.812 E0.08273
G1 X104.424 Y35.105 E0.04087
G1 X105.667 Y35.739 E0.08273
G1 X106.269 Y36.070 E0.04076
G1 X107.470 Y36.779 E0.08274
G1 X108.051 Y37.149 E0.04086
G1 X109.205 Y37.932 E0.08273
G1 X109.761 Y38.337 E0.04079
G1 X110.863 Y39.191 E0.08273
G1 X111.393 Y39.630 E0.04083
G1 X112.439 Y40.552 E0.08273
G1 X112.941 Y41.023 E0.04080
G1 X124.074 Y52.237 E0.93740
G1 X125.852 Y54.595 E0.17519
G1 X126.936 Y57.342 E0.17519
G1 X127.251 Y59.950 E0.15586
G1 X127.251 Y69.950 E0.59322
G1 X127.210 Y70.901 E0.05646
G1 X123.027 Y118.775 E2.85082
G1 X122.941 Y119.458 E0.04085
G1 X122.721 Y120.842 E0.08311
G1 X122.593 Y121.517 E0.04079
G1 X122.287 Y122.885 E0.08311
G1 X122.116 Y123.551 E0.04079
G1 X121.725 Y124.896 E0.08311
G1 X121.512 Y125.551 E0.04086
G1 X121.038 Y126.869 E0.08311
G1 X120.784 Y127.509 E0.04080
G1 X120.228 Y128.794 E0.08311
G1 X119.935 Y129.417 E0.04081
G1 X119.299 Y130.665 E0.08310
G1 X118.968 Y131.268 E0.04080
G1 X118.255 Y132.473 E0.08310
G1 X117.886 Y133.054 E0.04079
G1 X117.099 Y134.213 E0.08311
G1 X116.694 Y134.770 E0.04084
G1 X115.835 Y135.877 E0.08311
G1 X115.397 Y136.407 E0.04080
G1 X114.471 Y137.458 E0.08310
G1 X114.000 Y137.959 E0.04082
G1 X113.009 Y138.950 E0.08310
G1 X112.508 Y139.421 E0.04081
G1 X111.457 Y140.347 E0.08310
G1 X110.927 Y140.786 E0.04081
G1 X109.820 Y141.644 E0.08311
G1 X109.263 Y142.049 E0.04084
G1 X108.104 Y142.836 E0.08311
G1 X107.524 Y143.205 E0.04079
G1 X106.318 Y143.918 E0.08310
G1 X105.715 Y144.249 E0.04081
G1 X104.467 Y144.885 E0.08310
G1 X103.844 Y145.178 E0.04079
G1 X102.559 Y145.734 E0.08311
G1 X101.919 Y145.988 E0.04080
G1 X100.601 Y146.462 E0.08311
G1 X99.946 Y146.675 E0.04086
G1 X98.601 Y147.066 E0.08310
G1 X97.935 Y147.237 E0.04080
G1 X96.567 Y147.543 E0.08311
G1 X95.892 Y147.671 E0.04079
G1 X94.508 Y147.891 E0.08311
G1 X93.825 Y147.977 E0.04085
G1 X92.431 Y148.109 E0.08310
G1 X91.744 Y148.152 E0.04079
G1 X90.344 Y148.196 E0.08311
G1 X89.656 Y148.196 E0.04082
G1 X88.256 Y148.152 E0.08311
G1 X87.569 Y148.109 E0.04079
G1 X86.175 Y147.977 E0.08310
G1 X85.492 Y147.891 E0.04085
G1 X84.108 Y147.671 E0.08311
G1 X83.433 Y147.542 E0.04079
G1 X82.065 Y147.237 E0.08310
G1 X81.399 Y147.066 E0.04079
G1 X80.054 Y146.675 E0.08310
G1 X79.399 Y146.462 E0.04086
G1 X78.081 Y145.988 E0.08311
G1 X77.441 Y145.734 E0.04080
G1 X76.156 Y145.178 E0.08311
G1 X75.533 Y144.885 E0.04079
G1 X74.285 Y144.249 E0.08310
G1 X73.682 Y143.918 E0.04081
G1 X72.476 Y143.205 E0.08310
G1 X71.896 Y142.836 E0.04079
G1 X70.737 Y142.049 E0.08311
G1 X70.180 Y141.644 E0.04084
G1 X69.073 Y140.785 E0.08311
G1 X68.543 Y140.347 E0.04081
G1 X67.492 Y139.421 E0.08310
G1 X66.991 Y138.950 E0.04081
G1 X66.000 Y137.959 E0.08310
G1 X65.529 Y137.458 E0.04082
G1 X64.603 Y136.407 E0.08310
G1 X64.165 Y135.877 E0.04080
G1 X63.306 Y134.770 E0.08311
G1 X62.901 Y134.213 E0.04084
G1 X62.114 Y133.054 E0.08311
G1 X61.745 Y132.473 E0.04080
G1 X61.032 Y131.268 E0.08310
G1 X60.701 Y130.665 E0.04080
G1 X60.065 Y129.417 E0.08310
G1 X59.772 Y128.794 E0.04081
G1 X59.216 Y127.509 E0.08311
G1 X58.962 Y126.869 E0.04080
G1 X58.488 Y125.551 E0.08311
G1 X58.275 Y124.896 E0.04086
G1 X57.884 Y123.551 E0.08311
G1 X57.713 Y122.885 E0.04079
G1 X57.407 Y121.518 E0.08311
G1 X57.279 Y120.842 E0.04079
G1 X57.059 Y119.458 E0.08311
G1 X56.973 Y118.775 E0.04085
G1 X56.834 Y117.301 E0.08784
G1 X52.790 Y70.901 E2.76298
G1 X52.749 Y69.950 E0.05646
G1 X52.749 Y59.950 E0.59322
G1 X53.147 Y57.024 E0.17519
G1 X54.313 Y54.310 E0.17519
G1 X55.889 Y52.284 E0.15230
G1 X56.264 Y52.572 F7800.000
G1 F2160.000
G1 X66.380 Y42.375 E0.85211
G1 X67.396 Y41.360 E0.08518
G1 X67.875 Y40.909 E0.03903
G1 X68.921 Y39.987 E0.08273
G1 X69.429 Y39.567 E0.03905
G1 X70.531 Y38.712 E0.08273
G1 X71.063 Y38.326 E0.03902
G1 X72.216 Y37.542 E0.08273
G1 X72.772 Y37.189 E0.03909
G1 X73.973 Y36.479 E0.08274
G1 X74.549 Y36.162 E0.03899
G1 X75.791 Y35.529 E0.08273
G1 X76.388 Y35.249 E0.03910
G1 X77.668 Y34.695 E0.08273
G1 X78.279 Y34.453 E0.03897
G1 X79.591 Y33.980 E0.08273
G1 X80.218 Y33.777 E0.03911
G1 X81.557 Y33.388 E0.08273
G1 X82.193 Y33.224 E0.03897
G1 X83.554 Y32.920 E0.08273
G1 X84.202 Y32.796 E0.03910
G1 X85.579 Y32.578 E0.08273
G1 X86.231 Y32.496 E0.03899
G1 X87.620 Y32.365 E0.08273
G1 X88.277 Y32.323 E0.03907
G1 X89.671 Y32.280 E0.08273
G1 X90.329 Y32.280 E0.03903
G1 X91.723 Y32.323 E0.08273
G1 X92.380 Y32.365 E0.03907
G1 X93.769 Y32.496 E0.08273
G1 X94.421 Y32.578 E0.03899
G1 X95.798 Y32.796 E0.08273
G1 X96.446 Y32.920 E0.03910
G1 X97.807 Y33.224 E0.08273
G1 X98.443 Y33.388 E0.03897
G1 X99.782 Y33.777 E0.08273
G1 X100.409 Y33.980 E0.03911
G1 X101.721 Y34.453 E0.08273
G1 X102.332 Y34.695 E0.03897
G1 X103.612 Y35.249 E0.08273
G1 X104.209 Y35.529 E0.03910
G1 X105.451 Y36.162 E0.08273
G1 X106.027 Y36.479 E0.03899
G1 X107.228 Y37.189 E0.08274
G1 X107.784 Y37.542 E0.03909
G1 X108.937 Y38.326 E0.08273
G1 X109.469 Y38.712 E0.03902
G1 X110.571 Y39.567 E0.08273
G1 X111.079 Y39.987 E0.03905
G1 X112.125 Y40.909 E0.08273
G1 X112.604 Y41.360 E0.03903
G1 X123.736 Y52.572 E0.93729
G1 X125.469 Y54.883 E0.17132
G1 X126.504 Y57.579 E0.17132
G1 X126.776 Y59.950 E0.14158
G1 X126.776 Y69.950 E0.59322
G1 X126.736 Y70.860 E0.05401
G1 X122.553 Y118.730 E2.85061
G1 X122.471 Y119.384 E0.03907
G1 X122.252 Y120.768 E0.08311
G1 X122.128 Y121.414 E0.03902
G1 X121.823 Y122.781 E0.08311
G1 X121.659 Y123.418 E0.03902
G1 X121.268 Y124.763 E0.08311
G1 X121.065 Y125.390 E0.03908
G1 X120.590 Y126.708 E0.08311
G1 X120.348 Y127.320 E0.03902
G1 X119.792 Y128.605 E0.08311
G1 X119.511 Y129.201 E0.03904
G1 X118.875 Y130.449 E0.08310
G1 X118.558 Y131.026 E0.03903
G1 X117.845 Y132.231 E0.08310
G1 X117.493 Y132.787 E0.03902
G1 X116.705 Y133.945 E0.08311
G1 X116.318 Y134.478 E0.03907
G1 X115.460 Y135.585 E0.08311
G1 X115.040 Y136.092 E0.03903
G1 X114.114 Y137.143 E0.08310
G1 X113.663 Y137.623 E0.03904
G1 X112.673 Y138.613 E0.08310
G1 X112.193 Y139.064 E0.03904
G1 X111.142 Y139.990 E0.08310
G1 X110.635 Y140.410 E0.03903
G1 X109.528 Y141.268 E0.08311
G1 X108.995 Y141.655 E0.03907
G1 X107.837 Y142.443 E0.08311
G1 X107.281 Y142.795 E0.03902
G1 X106.076 Y143.508 E0.08310
G1 X105.499 Y143.825 E0.03904
G1 X104.251 Y144.461 E0.08310
G1 X103.655 Y144.742 E0.03902
G1 X102.370 Y145.298 E0.08311
G1 X101.758 Y145.540 E0.03903
G1 X100.440 Y146.015 E0.08311
G1 X99.813 Y146.218 E0.03908
G1 X98.468 Y146.609 E0.08310
G1 X97.831 Y146.773 E0.03902
G1 X96.464 Y147.078 E0.08311
G1 X95.818 Y147.202 E0.03901
G1 X94.434 Y147.421 E0.08311
G1 X93.780 Y147.503 E0.03908
G1 X92.386 Y147.635 E0.08310
G1 X91.729 Y147.676 E0.03902
G1 X90.329 Y147.720 E0.08311
G1 X89.671 Y147.720 E0.03904
G1 X88.271 Y147.676 E0.08311
G1 X87.614 Y147.635 E0.03902
G1 X86.220 Y147.503 E0.08310
G1 X85.566 Y147.421 E0.03908
G1 X84.182 Y147.202 E0.08311
G1 X83.536 Y147.078 E0.03902
G1 X82.169 Y146.773 E0.08310
G1 X81.532 Y146.609 E0.03902
G1 X80.187 Y146.218 E0.08310
G1 X79.560 Y146.015 E0.03908
G1 X78.242 Y145.540 E0.08311
G1 X77.630 Y145.298 E0.03903
G1 X76.345 Y144.742 E0.08311
G1 X75.749 Y144.461 E0.03902
G1 X74.501 Y143.825 E0.08310
G1 X73.924 Y143.508 E0.03904
G1 X72.719 Y142.795 E0.08310
G1 X72.163 Y142.443 E0.03902
G1 X71.004 Y141.655 E0.08311
G1 X70.472 Y141.268 E0.03907
G1 X69.365 Y140.410 E0.08311
G1 X68.858 Y139.990 E0.03903
G1 X67.807 Y139.064 E0.08310
G1 X67.327 Y138.613 E0.03904
G1 X66.337 Y137.623 E0.08310
G1 X65.886 Y137.143 E0.03904
G1 X64.960 Y136.092 E0.08310
G1 X64.540 Y135.585 E0.03903
G1 X63.682 Y134.478 E0.08311
G1 X63.295 Y133.945 E0.03907
G1 X62.507 Y132.787 E0.08311
G1 X62.155 Y132.231 E0.03902
G1 X61.442 Y131.026 E0.08310
G1 X61.125 Y130.449 E0.03903
G1 X60.489 Y129.201 E0.08310
G1 X60.208 Y128.605 E0.03904
G1 X59.652 Y127.320 E0.08311
G1 X59.410 Y126.708 E0.03903
G1 X58.935 Y125.390 E0.08311
G1 X58.732 Y124.763 E0.03908
G1 X58.341 Y123.418 E0.08311
G1 X58.177 Y122.781 E0.03902
G1 X57.872 Y121.414 E0.08311
G1 X57.748 Y120.768 E0.03902
G1 X57.529 Y119.384 E0.08311
G1 X57.447 Y118.730 E0.03908
G1 X57.308 Y117.260 E0.08763
G1 X53.264 Y70.860 E2.76298
G1 X53.224 Y69.950 E0.05401
G1 X53.224 Y59.950 E0.59322
G1 X53.622 Y57.090 E0.17132
G1 X54.786 Y54.447 E0.17132
G1 X56.226 Y52.619 E0.13802
G1 F6240.000
G1 X57.813 Y51.019 E-1.23500
G1 E-0.06500 F3600.00000
G1 X104.139 Y105.977 F7800.000
G1 E1.30000 F3600.00000
G1 F1620.000
G1 X104.675 Y106.882 E0.06240
G1 X105.152 Y107.820 E0.06241
G1 X105.570 Y108.785 E0.06241
G1 X105.926 Y109.775 E0.06241
G1 X106.220 Y110.785 E0.06241
G1 X106.449 Y111.812 E0.06241
G1 X106.614 Y112.851 E0.06241
G1 X106.713 Y113.899 E0.06241
G1 X106.746 Y114.950 E0.06241
G1 X106.713 Y116.001 E0.06241
G1 X106.614 Y117.049 E0.06241
G1 X106.449 Y118.088 E0.06241
G1 X106.220 Y119.115 E0.06241
G1 X105.926 Y120.125 E0.06241
G1 X105.570 Y121.115 E0.06241
G1 X105.152 Y122.080 E0.06241
G1 X104.675 Y123.017 E0.06241
G1 X104.139 Y123.923 E0.06240
G1 X103.548 Y124.793 E0.06241
G1 X102.903 Y125.624 E0.06241
G1 X102.207 Y126.413 E0.06241
G1 X101.463 Y127.157 E0.06240
G1 X100.674 Y127.853 E0.06241
G1 X99.843 Y128.498 E0.06241
G1 X98.973 Y129.089 E0.06240
G1 X98.067 Y129.625 E0.06241
G1 X97.130 Y130.102 E0.06241
G1 X96.165 Y130.520 E0.06241
G1 X95.175 Y130.876 E0.06241
G1 X94.165 Y131.170 E0.06241
G1 X93.138 Y131.399 E0.06241
G1 X92.099 Y131.564 E0.06241
G1 X91.052 Y131.663 E0.06241
G1 X90.000 Y131.696 E0.06241
G1 X88.948 Y131.663 E0.06241
G1 X87.901 Y131.564 E0.06241
G1 X86.862 Y131.399 E0.06241
G1 X85.835 Y131.170 E0.06241
G1 X84.825 Y130.876 E0.06241
G1 X83.835 Y130.520 E0.06241
G1 X82.870 Y130.102 E0.06241
G1 X81.933 Y129.625 E0.06241
G1 X81.027 Y129.089 E0.06241
G1 X80.157 Y128.498 E0.06240
G1 X79.326 Y127.853 E0.06241
G1 X78.537 Y127.157 E0.06241
G1 X77.793 Y126.413 E0.06240
G1 X77.097 Y125.624 E0.06241
G1 X76.452 Y124.793 E0.06241
G1 X75.861 Y123.923 E0.06241
G1 X75.325 Y123.017 E0.06240
G1 X74.848 Y122.080 E0.06241
G1 X74.430 Y121.115 E0.06241
G1 X74.074 Y120.125 E0.06241
G1 X73.780 Y119.115 E0.06241
G1 X73.551 Y118.088 E0.06241
G1 X73.386 Y117.049 E0.06241
G1 X73.287 Y116.001 E0.06241
G1 X73.254 Y114.950 E0.06240
G1 X73.287 Y113.899 E0.06241
G1 X73.386 Y112.851 E0.06241
G1 X73.551 Y111.812 E0.06241
G1 X73.780 Y110.785 E0.06241
G1 X74.074 Y109.775 E0.06241
G1 X74.430 Y108.785 E0.06241
G1 X74.848 Y107.820 E0.06241
G1 X75.325 Y106.882 E0.06241
G1 X75.861 Y105.977 E0.06240
G1 X76.452 Y105.107 E0.06241
G1 X77.097 Y104.276 E0.06241
G1 X77.793 Y103.487 E0.06241
G1 X78.537 Y102.743 E0.06240
G1 X79.326 Y102.047 E0.06241
G1 X80.157 Y101.402 E0.06241
G1 X81.027 Y100.811 E0.06240
G1 X81.933 Y100.275 E0.06241
G1 X82.870 Y99.798 E0.06241
G1 X83.835 Y99.380 E0.06241
G1 X84.825 Y99.024 E0.06241
G1 X85.835 Y98.730 E0.06241
G1 X86.862 Y98.501 E0.06241
G1 X87.901 Y98.336 E0.06241
G1 X88.948 Y98.237 E0.06241
G1 X90.000 Y98.204 E0.06241
G1 X91.052 Y98.237 E0.06241
G1 X92.099 Y98.336 E0.06241
G1 X93.138 Y98.501 E0.06241
G1 X94.165 Y98.730 E0.06241
G1 X95.175 Y99.024 E0.06241
G1 X96.165 Y99.380 E0.06241
G1 X97.130 Y99.798 E0.06241
G1 X98.067 Y100.275 E0.06241
G1 X98.973 Y100.811 E0.06241
G1 X99.843 Y101.402 E0.06240
G1 X100.674 Y102.047 E0.06241
G1 X101.463 Y102.743 E0.06241
G1 X102.207 Y103.487 E0.06240
G1 X102.903 Y104.276 E0.06241
G1 X103.548 Y105.107 E0.06241
G1 X104.105 Y105.927 E0.05885
G1 X103.737 Y106.232 F7800.000
G1 F1458.000
G1 X104.258 Y107.112 E0.06063
G1 X104.722 Y108.022 E0.06063
G1 X105.128 Y108.961 E0.06063
G1 X105.474 Y109.922 E0.06063
G1 X105.759 Y110.904 E0.06064
G1 X105.982 Y111.901 E0.06063
G1 X106.142 Y112.911 E0.06064
G1 X106.238 Y113.928 E0.06063
G1 X106.270 Y114.950 E0.06063
G1 X106.238 Y115.972 E0.06063
G1 X106.142 Y116.989 E0.06063
G1 X105.982 Y117.999 E0.06064
G1 X105.759 Y118.996 E0.06063
G1 X105.474 Y119.978 E0.06064
G1 X105.128 Y120.939 E0.06063
G1 X104.722 Y121.878 E0.06063
G1 X104.258 Y122.788 E0.06063
G1 X103.737 Y123.668 E0.06063
G1 X103.163 Y124.513 E0.06063
G1 X102.536 Y125.321 E0.06063
G1 X101.860 Y126.088 E0.06063
G1 X101.138 Y126.810 E0.06063
G1 X100.371 Y127.486 E0.06063
G1 X99.563 Y128.113 E0.06064
G1 X98.718 Y128.687 E0.06063
G1 X97.838 Y129.208 E0.06063
G1 X96.927 Y129.672 E0.06063
G1 X95.989 Y130.078 E0.06063
G1 X95.028 Y130.424 E0.06063
G1 X94.046 Y130.709 E0.06063
G1 X93.049 Y130.932 E0.06063
G1 X92.039 Y131.092 E0.06063
G1 X91.022 Y131.188 E0.06063
G1 X90.000 Y131.220 E0.06063
G1 X88.978 Y131.188 E0.06063
G1 X87.961 Y131.092 E0.06063
G1 X86.951 Y130.932 E0.06063
G1 X85.954 Y130.709 E0.06063
G1 X84.972 Y130.424 E0.06063
G1 X84.011 Y130.078 E0.06063
G1 X83.073 Y129.672 E0.06063
G1 X82.162 Y129.208 E0.06063
G1 X81.282 Y128.687 E0.06063
G1 X80.437 Y128.113 E0.06063
G1 X79.629 Y127.486 E0.06064
G1 X78.862 Y126.810 E0.06063
G1 X78.140 Y126.088 E0.06063
G1 X77.464 Y125.321 E0.06063
G1 X76.837 Y124.513 E0.06063
G1 X76.263 Y123.668 E0.06063
G1 X75.742 Y122.788 E0.06063
G1 X75.278 Y121.878 E0.06063
G1 X74.872 Y120.939 E0.06063
G1 X74.526 Y119.978 E0.06063
G1 X74.241 Y118.996 E0.06064
G1 X74.018 Y117.999 E0.06063
G1 X73.858 Y116.989 E0.06064
G1 X73.762 Y115.972 E0.06063
G1 X73.730 Y114.950 E0.06063
G1 X73.762 Y113.928 E0.06063
G1 X73.858 Y112.911 E0.06063
G1 X74.018 Y111.901 E0.06064
G1 X74.241 Y110.904 E0.06063
G1 X74.526 Y109.922 E0.06064
G1 X74.872 Y108.961 E0.06063
G1 X75.278 Y108.022 E0.06063
G1 X75.742 Y107.112 E0.06063
G1 X76.263 Y106.232 E0.06063
G1 X76.837 Y105.387 E0.06063
G1 X77.464 Y104.579 E0.06063
G1 X78.140 Y103.812 E0.06063
G1 X78.862 Y103.090 E0.06063
G1 X79.629 Y102.414 E0.06063
G1 X80.437 Y101.787 E0.06064
G1 X81.282 Y101.213 E0.06063
G1 X82.162 Y100.692 E0.06063
G1 X83.073 Y100.228 E0.06063
G1 X84.011 Y99.822 E0.06063
G1 X84.972 Y99.476 E0.06063
G1 X85.954 Y99.191 E0.06063
G1 X86.951 Y98.968 E0.06063
G1 X87.961 Y98.808 E0.06063
G1 X88.978 Y98.712 E0.06063
G1 X90.000 Y98.680 E0.06063
G1 X91.022 Y98.712 E0.06063
G1 X92.039 Y98.808 E0.06063
G1 X93.049 Y98.968 E0.06063
G1 X94.046 Y99.191 E0.06063
G1 X95.028 Y99.476 E0.06063
G1 X95.989 Y99.822 E0.06063
G1 X96.927 Y100.228 E0.06063
G1 X97.838 Y100.692 E0.06063
G1 X98.718 Y101.213 E0.06063
G1 X99.563 Y101.787 E0.06063
G1 X100.371 Y102.414 E0.06064
G1 X101.138 Y103.090 E0.06063
G1 X101.860 Y103.812 E0.06063
G1 X102.536 Y104.579 E0.06063
G1 X103.163 Y105.387 E0.06063
