; generated by Slic3r 1.2.9 on 2020-05-14 at 22:52:12

; external perimeters extrusion width = 0.40mm
; perimeters extrusion width = 0.56mm
; infill extrusion width = 0.56mm
; solid infill extrusion width = 0.56mm
; top infill extrusion width = 0.56mm

M107
M190 S60 ; set bed temperature
M104 S215 ; set temperature
G28 ; home all axes
G92 E0.0 ; reset extruder
M109 S215 ; wait for temperature to be reached
G21 ; set units to millimeters
G90 ; use absolute coordinates
M83 ; use relative distances for extrusion
G1 E-1.30000 F3600.00000
G1 Z0.300 F7800.000
G1 X84.461 Y78.557 F7800.000
G1 E1.30000 F3600.00000
M204 S500
G1 X86.857 Y76.831 E0.17519 F2081.433
G1 X89.628 Y75.809 E0.17519
G1 X92.000 Y75.549 E0.14157
G1 X108.000 Y75.549 E0.94915
G1 X110.926 Y75.947 E0.17519
G1 X113.640 Y77.113 E0.17519 F2081.433
G1 X115.943 Y78.961 E0.17519
G1 X117.669 Y81.357 E0.17519
G1 X118.691 Y84.128 E0.17519
G1 X118.951 Y86.500 E0.14158
G1 X118.951 Y107.500 E1.24576
G1 X118.553 Y110.426 E0.17519
G1 X117.387 Y113.140 E0.17519
G1 X115.539 Y115.443 E0.17519
G1 X113.136 Y117.172 E0.17566
G1 X101.836 Y123.172 E0.75897
G1 X99.065 Y124.193 E0.17519
G1 X96.700 Y124.451 E0.14111
G1 X92.000 Y124.451 E0.27881
G1 X89.074 Y124.053 E0.17519
G1 X86.360 Y122.887 E0.17519
G1 X84.057 Y121.039 E0.17519
G1 X82.331 Y118.643 E0.17519
G1 X81.309 Y115.872 E0.17519
G1 X81.049 Y113.500 E0.14158
G1 X81.049 Y86.500 E1.60170
G1 X81.447 Y83.574 E0.17519
G1 X82.613 Y80.860 E0.17519
G1 X84.423 Y78.604 E0.17163
G1 X84.844 Y78.874 F7800.000
G1 X84.928 Y78.772 E0.00787 F2081.433
G1 X87.307 Y77.134 E0.17132
G1 X90.043 Y76.209 E0.17132
G1 X92.000 Y76.024 E0.11663
G1 X108.000 Y76.024 E0.94915
G1 X110.860 Y76.422 E0.17132
G1 X113.503 Y77.586 E0.17132 F2081.433
G1 X115.728 Y79.428 E0.17132
G1 X117.366 Y81.807 E0.17132
G1 X118.291 Y84.543 E0.17132
G1 X118.476 Y86.500 E0.11663
G1 X118.476 Y107.500 E1.24576
G1 X118.078 Y110.360 E0.17132
G1 X116.914 Y113.003 E0.17132
G1 X115.072 Y115.228 E0.17132
G1 X112.913 Y116.752 E0.15679
G1 X101.613 Y122.752 E0.75897
G1 X98.900 Y123.742 E0.17132
G1 X96.700 Y123.976 E0.13122
G1 X92.000 Y123.976 E0.27881
G1 X89.140 Y123.578 E0.17132
G1 X86.497 Y122.414 E0.17132
G1 X84.272 Y120.572 E0.17132
G1 X82.634 Y118.193 E0.17132
G1 X81.709 Y115.457 E0.17132
G1 X81.524 Y113.500 E0.11663
G1 X81.524 Y86.500 E1.60170
G1 X81.923 Y83.639 E0.17132
G1 X83.087 Y80.996 E0.17132
G1 X84.805 Y78.920 E0.15990
G1 F6240
G1 X84.928 Y78.772 E-0.10555
G1 F6240
G1 X86.626 Y77.603 E-1.12945
G1 E-0.06500 F3600.00000
G1 X107.254 Y106.754 F7800.000
G1 E1.30000 F3600.00000
G1 X104.688 Y106.754 E0.15223 F1561.075
G1 X104.177 Y97.010 E0.57884
G1 X104.476 Y96.493 E0.03543
G1 X104.793 Y95.519 E0.06077
G1 X104.900 Y94.500 E0.06076
G1 X104.793 Y93.481 E0.06076
G1 X104.476 Y92.507 E0.06077
G1 X103.964 Y91.620 E0.06076
G1 X103.279 Y90.859 E0.06076
G1 X102.450 Y90.257 E0.06077
G1 X101.514 Y89.840 E0.06076
G1 X100.512 Y89.627 E0.06076
G1 X99.488 Y89.627 E0.06076
G1 X98.485 Y89.840 E0.06080
G1 X97.544 Y90.261 E0.06118
G1 X96.721 Y90.859 E0.06030
G1 X96.036 Y91.620 E0.06076
G1 X95.524 Y92.507 E0.06076
G1 X95.207 Y93.481 E0.06077
G1 X95.100 Y94.500 E0.06076
G1 X95.207 Y95.519 E0.06076
G1 X95.524 Y96.493 E0.06076
G1 X95.954 Y97.239 E0.05108
G1 X95.954 Y112.754 E0.92043
G1 X92.746 Y112.754 E0.19035
G1 X92.746 Y87.246 E1.51323
G1 X107.254 Y87.246 E0.86069
G1 X107.254 Y106.694 E1.15374
G1 X107.730 Y107.230 F7800.000
G1 X104.237 Y107.230 E0.20722 F1404.967
G1 X103.695 Y96.894 E0.61397
G1 X104.039 Y96.298 E0.04082
G1 X104.325 Y95.419 E0.05483
G1 X104.421 Y94.500 E0.05483
G1 X104.325 Y93.581 E0.05483
G1 X104.039 Y92.702 E0.05483
G1 X103.577 Y91.901 E0.05483
G1 X102.959 Y91.214 E0.05483
G1 X102.211 Y90.671 E0.05483
G1 X101.366 Y90.295 E0.05483
G1 X100.462 Y90.103 E0.05483
G1 X99.538 Y90.103 E0.05483
G1 X98.633 Y90.295 E0.05485
G1 X97.783 Y90.675 E0.05525
G1 X97.041 Y91.214 E0.05439
G1 X96.423 Y91.901 E0.05483
G1 X95.961 Y92.702 E0.05483
G1 X95.675 Y93.581 E0.05483
G1 X95.579 Y94.500 E0.05483
G1 X95.675 Y95.419 E0.05483
G1 X95.961 Y96.298 E0.05483
G1 X96.430 Y97.111 E0.05567
G1 X96.430 Y113.230 E0.95620
G1 X92.270 Y113.230 E0.24678
G1 X92.270 Y86.770 E1.56966
G1 X107.730 Y86.770 E0.91712
G1 X107.730 Y107.170 E1.21017
G1 X107.384 Y107.030 F7800.000
G1 X104.935 Y105.946 F7800.000
G1 X105.460 Y106.471 E0.04416 F1561.075
G1 X106.134 Y106.471 E0.04003
G1 X104.898 Y105.235 E0.10390
G1 X104.860 Y104.524 E0.04230
G1 X106.808 Y106.471 E0.16364
G1 X106.971 Y105.960 E0.03184
G1 X104.823 Y103.813 E0.18048
G1 X104.786 Y103.102 E0.04230
G1 X106.971 Y105.287 E0.18361
G1 X106.971 Y104.613 E0.04003
G1 X104.749 Y102.391 E0.18674
G1 X104.711 Y101.680 E0.04230
G1 X106.971 Y103.939 E0.18987
G1 X106.971 Y103.266 E0.04003
G1 X104.674 Y100.969 E0.19300
G1 X104.637 Y100.258 E0.04230
G1 X106.971 Y102.592 E0.19613
G1 X106.971 Y101.918 E0.04003
G1 X104.600 Y99.547 E0.19926
G1 X104.562 Y98.836 E0.04230
G1 X106.971 Y101.245 E0.20239
G1 X106.971 Y100.571 E0.04003
G1 X104.525 Y98.125 E0.20553
G1 X104.488 Y97.414 E0.04230
G1 X106.971 Y99.897 E0.20866
G1 X106.971 Y99.224 E0.04003
G1 X104.570 Y96.823 E0.20173
G1 X104.788 Y96.366 E0.03003
G1 X106.971 Y98.550 E0.18347
G1 X106.971 Y97.876 E0.04003
G1 X104.953 Y95.858 E0.16959
G1 X105.088 Y95.320 E0.03297
G1 X106.971 Y97.202 E0.15819
G1 X106.971 Y96.529 E0.04003
G1 X105.152 Y94.710 E0.15280
G1 X105.146 Y94.031 E0.04039
G1 X106.971 Y95.855 E0.15331
G1 X106.971 Y95.181 E0.04003
G1 X105.060 Y93.270 E0.16057
G1 X104.736 Y92.272 E0.06235
G1 X106.971 Y94.508 E0.18782
G1 X106.971 Y93.834 E0.04003
G1 X100.666 Y87.529 E0.52979
G1 X101.340 Y87.529 E0.04003
G1 X106.971 Y93.160 E0.47318
G1 X106.971 Y92.487 E0.04003
G1 X102.013 Y87.529 E0.41657
G1 X102.687 Y87.529 E0.04003
G1 X106.971 Y91.813 E0.35997
G1 X106.971 Y91.139 E0.04003
G1 X103.361 Y87.529 E0.30336
G1 X104.034 Y87.529 E0.04003
G1 X106.971 Y90.466 E0.24675
G1 X106.971 Y89.792 E0.04003
G1 X104.708 Y87.529 E0.19014
G1 X105.382 Y87.529 E0.04003
G1 X106.971 Y89.118 E0.13353
G1 X106.971 Y88.444 E0.04003
G1 X106.056 Y87.529 E0.07693
G1 X106.729 Y87.529 E0.04003
G1 X106.971 Y87.771 E0.02032
G1 X102.280 Y89.816 F7800.000
G1 X99.992 Y87.529 E0.19219 F1561.075
G1 X99.319 Y87.529 E0.04003
G1 X101.263 Y89.473 E0.16337
G1 X100.460 Y89.344 E0.04834
G1 X98.645 Y87.529 E0.15249
G1 X97.971 Y87.529 E0.04003
G1 X99.786 Y89.344 E0.15249
G1 X99.189 Y89.420 E0.03578
G1 X97.298 Y87.529 E0.15891
G1 X96.624 Y87.529 E0.04003
G1 X98.633 Y89.538 E0.16884
G1 X98.141 Y89.719 E0.03118
G1 X95.950 Y87.529 E0.18406
G1 X95.276 Y87.529 E0.04003
G1 X97.675 Y89.928 E0.20155
G1 X97.249 Y90.175 E0.02929
G1 X94.603 Y87.529 E0.22233
G1 X93.929 Y87.529 E0.04003
G1 X96.859 Y90.458 E0.24615
G1 X96.486 Y90.759 E0.02847
G1 X93.255 Y87.529 E0.27143
G1 X93.029 Y87.976 E0.02979
G1 X96.166 Y91.114 E0.26364
G1 X95.847 Y91.468 E0.02834
G1 X93.029 Y88.650 E0.23681
G1 X93.029 Y89.324 E0.04003
G1 X95.595 Y91.890 E0.21566
G1 X95.349 Y92.317 E0.02930
G1 X93.029 Y89.997 E0.19494
G1 X93.029 Y90.671 E0.04003
G1 X95.158 Y92.800 E0.17892
G1 X94.993 Y93.309 E0.03177
G1 X93.029 Y91.345 E0.16503
G1 X93.029 Y92.018 E0.04003
G1 X94.891 Y93.880 E0.15642
G1 X94.826 Y94.490 E0.03642
G1 X93.029 Y92.692 E0.15104
G1 X93.029 Y93.366 E0.04003
G1 X94.879 Y95.216 E0.15549
G1 X95.046 Y96.057 E0.05091
G1 X93.029 Y94.040 E0.16951
G1 X93.029 Y94.713 E0.04003
G1 X95.552 Y97.236 E0.21200
G1 X95.671 Y98.029 E0.04763
G1 X93.029 Y95.387 E0.22200
G1 X93.029 Y96.061 E0.04003
G1 X95.671 Y98.703 E0.22200
G1 X95.671 Y99.376 E0.04003
G1 X93.029 Y96.734 E0.22200
G1 X93.029 Y97.408 E0.04003
G1 X95.671 Y100.050 E0.22200
G1 X95.671 Y100.724 E0.04003
G1 X93.029 Y98.082 E0.22200
G1 X93.029 Y98.755 E0.04003
G1 X95.671 Y101.397 E0.22200
G1 X95.671 Y102.071 E0.04003
G1 X93.029 Y99.429 E0.22200
G1 X93.029 Y100.103 E0.04003
G1 X95.671 Y102.745 E0.22200
G1 X95.671 Y103.419 E0.04003
G1 X93.029 Y100.776 E0.22200
G1 X93.029 Y101.450 E0.04003
G1 X95.671 Y104.092 E0.22200
G1 X95.671 Y104.766 E0.04003
G1 X93.029 Y102.124 E0.22200
G1 X93.029 Y102.798 E0.04003
G1 X95.671 Y105.440 E0.22200
G1 X95.671 Y106.113 F7800.000
G1 X93.029 Y103.471 E0.22200 F1561.075
G1 X93.029 Y104.145 E0.04003
G1 X95.671 Y106.787 E0.22200
G1 X95.671 Y107.461 E0.04003
G1 X93.029 Y104.819 E0.22200
G1 X93.029 Y105.492 E0.04003
G1 X95.671 Y108.134 E0.22200
G1 X95.671 Y108.808 E0.04003
G1 X93.029 Y106.166 E0.22200
G1 X93.029 Y106.840 E0.04003
G1 X95.671 Y109.482 E0.22200
G1 X95.671 Y110.155 E0.04003
G1 X93.029 Y107.513 E0.22200
G1 X93.029 Y108.187 E0.04003
G1 X95.671 Y110.829 E0.22200
G1 X95.671 Y111.503 E0.04003
G1 X93.029 Y108.861 E0.22200
G1 X93.029 Y109.534 E0.04003
G1 X95.671 Y112.177 E0.22200
G1 X95.292 Y112.471 E0.02853
G1 X93.029 Y110.208 E0.19014
G1 X93.029 Y110.882 E0.04003
G1 X94.618 Y112.471 E0.13353
G1 X93.944 Y112.471 E0.04003
G1 X93.029 Y111.556 E0.07692
G1 X93.029 Y112.229 E0.04003
G1 X93.271 Y112.471 E0.02031
M106 S255
M140 S50 ; wait for bed temperature to be reached
G1 F6240
G1 X93.029 Y112.229 E-0.18738
G1 F6240
G1 X93.029 Y111.556 E-0.36924
G1 F6240
G1 X93.904 Y112.431 E-0.67838
G1 E-0.06500 F3600.00000
G1 Z0.550 F7800.000
G1 X107.375 Y106.875 F7800.000
G1 E1.30000 F3600.00000
G1 X104.573 Y106.875 E0.14640 F1137.684
G1 X104.055 Y96.981 E0.51766
G1 X104.365 Y96.443 E0.03241
G1 X104.674 Y95.493 E0.05219
G1 X104.778 Y94.500 E0.05219
G1 X104.674 Y93.507 E0.05219
G1 X104.365 Y92.557 E0.05219
G1 X103.865 Y91.692 E0.05219
G1 X103.197 Y90.949 E0.05218
G1 X102.389 Y90.362 E0.05219
G1 X101.476 Y89.956 E0.05219
G1 X100.499 Y89.748 E0.05219
G1 X99.501 Y89.748 E0.05219
G1 X98.522 Y89.956 E0.05226
G1 X97.593 Y90.375 E0.05323
G1 X96.803 Y90.949 E0.05104
G1 X96.135 Y91.692 E0.05219
G1 X95.635 Y92.557 E0.05219
G1 X95.326 Y93.507 E0.05219
G1 X95.222 Y94.500 E0.05219
G1 X95.326 Y95.493 E0.05219
G1 X95.635 Y96.443 E0.05219
G1 X96.075 Y97.206 E0.04601
G1 X96.075 Y112.875 E0.81865
G1 X92.624 Y112.875 E0.18030
G1 X92.625 Y87.125 E1.34536
G1 X107.375 Y87.125 E0.77066
G1 X107.375 Y106.815 E1.02875
G1 X107.800 Y107.300 F7800.000
G1 X104.170 Y107.300 E0.13066 F1023.915
G1 X103.624 Y96.877 E0.37572
G1 X103.975 Y96.270 E0.02525
G1 X104.256 Y95.405 E0.03275
G1 X104.351 Y94.500 E0.03275
G1 X104.256 Y93.595 E0.03275
G1 X103.975 Y92.730 E0.03275
G1 X103.520 Y91.942 E0.03275
G1 X102.911 Y91.267 E0.03274
G1 X102.176 Y90.732 E0.03275
G1 X101.345 Y90.362 E0.03275
G1 X100.455 Y90.173 E0.03275
G1 X99.545 Y90.173 E0.03275
G1 X98.655 Y90.362 E0.03276
G1 X97.807 Y90.744 E0.03347
G1 X97.089 Y91.267 E0.03199
G1 X96.480 Y91.942 E0.03275
G1 X96.025 Y92.730 E0.03275
G1 X95.744 Y93.595 E0.03275
G1 X95.649 Y94.500 E0.03275
G1 X95.744 Y95.405 E0.03275
G1 X96.025 Y96.270 E0.03275
G1 X96.500 Y97.092 E0.03419
G1 X96.500 Y113.300 E0.58346
G1 X92.200 Y113.300 E0.15480
G1 X92.200 Y86.700 E0.95757
G1 X107.800 Y86.700 E0.56158
G1 X107.800 Y107.240 E0.73942
G1 X107.454 Y107.100 F7800.000
G1 X106.822 Y106.575 F7800.000
G1 X107.075 Y106.322 E0.01877 F1137.684
G1 X107.075 Y105.609 E0.03735
G1 X106.109 Y106.575 E0.07159
G1 X105.396 Y106.575 E0.03735
G1 X107.075 Y104.896 E0.12441
G1 X107.075 Y104.183 E0.03735
G1 X104.845 Y106.413 E0.16526
G1 X104.809 Y105.736 E0.03554
G1 X107.075 Y103.470 E0.16789
G1 X107.075 Y102.757 E0.03735
G1 X104.774 Y105.058 E0.17052
G1 X104.738 Y104.381 E0.03554
G1 X107.075 Y102.044 E0.17315
G1 X107.075 Y101.331 E0.03735
G1 X104.703 Y103.704 E0.17578
G1 X104.667 Y103.026 E0.03554
G1 X107.075 Y100.618 E0.17841
G1 X107.075 Y99.906 E0.03735
G1 X104.632 Y102.349 E0.18104
G1 X104.596 Y101.672 E0.03554
G1 X107.075 Y99.193 E0.18367
G1 X107.075 Y98.480 E0.03735
G1 X104.561 Y100.994 E0.18630
G1 X104.525 Y100.317 E0.03554
G1 X107.075 Y97.767 E0.18893
G1 X107.075 Y97.054 E0.03735
G1 X104.490 Y99.639 E0.19157
G1 X104.454 Y98.962 E0.03554
G1 X107.075 Y96.341 E0.19420
G1 X107.075 Y95.628 E0.03735
G1 X104.419 Y98.285 E0.19683
G1 X104.383 Y97.607 E0.03554
G1 X107.075 Y94.915 E0.19946
G1 X107.075 Y94.202 E0.03735
G1 X104.667 Y96.611 E0.17844
G1 X104.978 Y95.587 E0.05607
G1 X107.075 Y93.490 E0.15539
G1 X107.075 Y92.777 E0.03735
G1 X105.062 Y94.790 E0.14918
G1 X105.029 Y94.110 E0.03567
G1 X107.075 Y92.064 E0.15162
G1 X107.075 Y91.351 E0.03735
G1 X104.950 Y93.475 E0.15742
G1 X104.775 Y92.937 E0.02964
G1 X107.075 Y90.638 E0.17038
G1 X107.075 Y89.925 E0.03735
G1 X104.585 Y92.415 E0.18449
G1 X104.324 Y91.963 E0.02734
G1 X107.075 Y89.212 E0.20382
G1 X107.075 Y88.499 E0.03735
G1 X104.055 Y91.519 E0.22374
G1 X103.718 Y91.144 E0.02645
G1 X107.075 Y87.786 E0.24877
G1 X106.723 Y87.425 E0.02641
G1 X103.380 Y90.769 E0.24774
G1 X102.970 Y90.465 E0.02670
G1 X106.010 Y87.425 E0.22526
G1 X105.297 Y87.425 E0.03735
G1 X102.557 Y90.165 E0.20304
G1 X102.078 Y89.932 E0.02794
G1 X104.585 Y87.425 E0.18575
G1 X103.872 Y87.425 E0.03735
G1 X101.584 Y89.712 E0.16948
G1 X101.013 Y89.570 E0.03083
G1 X103.159 Y87.425 E0.15896
G1 X102.446 Y87.425 E0.03735
G1 X100.423 Y89.448 E0.14986
G1 X99.711 Y89.448 E0.03735
G1 X101.733 Y87.425 E0.14986
G1 X101.020 Y87.425 E0.03735
G1 X98.902 Y89.543 E0.15693
G1 X97.870 Y89.862 E0.05658
G1 X100.307 Y87.425 E0.18056
G1 X99.594 Y87.425 E0.03735
G1 X92.925 Y94.094 E0.49417
G1 X92.925 Y93.381 E0.03735
G1 X98.881 Y87.425 E0.44135
G1 X98.169 Y87.425 E0.03735
G1 X92.925 Y92.669 E0.38852
G1 X92.925 Y91.956 E0.03735
G1 X97.456 Y87.425 E0.33570
G1 X96.743 Y87.425 E0.03735
G1 X92.925 Y91.243 E0.28288
G1 X92.925 Y90.530 E0.03735
G1 X96.030 Y87.425 E0.23005
G1 X95.317 Y87.425 E0.03735
G1 X92.925 Y89.817 E0.17723
G1 X92.925 Y89.104 E0.03735
G1 X94.604 Y87.425 E0.12441
G1 X93.891 Y87.425 E0.03735
G1 X92.925 Y88.391 E0.07158
G1 X92.925 Y87.678 E0.03735
G1 X93.178 Y87.425 E0.01876
G1 X95.329 Y92.404 F7800.000
G1 X92.925 Y94.807 E0.17809 F1137.684
G1 X92.925 Y95.520 E0.03735
G1 X95.021 Y93.424 E0.15530
G1 X94.937 Y94.221 E0.04197
G1 X92.925 Y96.233 E0.14910
G1 X92.925 Y96.946 E0.03735
G1 X94.972 Y94.899 E0.15169
G1 X95.052 Y95.532 E0.03344
G1 X92.925 Y97.659 E0.15760
G1 X92.925 Y98.372 E0.03735
G1 X95.227 Y96.070 E0.17055
G1 X95.418 Y96.591 E0.02910
G1 X92.925 Y99.085 E0.18475
G1 X92.925 Y99.798 E0.03735
G1 X95.679 Y97.043 E0.20408
G1 X95.775 Y97.661 E0.03273
G1 X92.925 Y100.510 E0.21116
G1 X92.925 Y101.223 E0.03735
G1 X95.775 Y98.374 E0.21116
G1 X95.775 Y99.086 E0.03735
G1 X92.925 Y101.936 E0.21116
G1 X92.925 Y102.649 E0.03735
G1 X95.775 Y99.799 E0.21116
G1 X95.775 Y100.512 E0.03735
G1 X92.925 Y103.362 E0.21116
G1 X92.925 Y104.075 E0.03735
G1 X95.775 Y101.225 E0.21116
G1 X95.775 Y101.938 E0.03735
G1 X92.925 Y104.788 E0.21116
G1 X92.925 Y105.501 E0.03735
G1 X95.775 Y102.651 E0.21116
G1 X95.775 Y103.364 E0.03735
G1 X92.925 Y106.214 E0.21116
G1 X92.925 Y106.926 E0.03735
G1 X95.775 Y104.077 E0.21116
G1 X95.775 Y104.790 E0.03735
G1 X92.925 Y107.639 E0.21116
G1 X92.925 Y108.352 E0.03735
G1 X95.775 Y105.502 E0.21116
G1 X95.775 Y106.215 E0.03735
G1 X92.925 Y109.065 E0.21116
G1 X92.925 Y109.778 E0.03735
G1 X95.775 Y106.928 E0.21116
G1 X95.775 Y107.641 E0.03735
G1 X92.925 Y110.491 E0.21116
G1 X92.925 Y111.204 E0.03735
G1 X95.775 Y108.354 E0.21116
G1 X95.775 Y109.067 E0.03735
G1 X92.925 Y111.917 E0.21116
G1 X92.980 Y112.575 E0.03460
G1 X95.775 Y109.780 E0.20711
G1 X95.775 Y110.493 E0.03735
G1 X93.693 Y112.575 E0.15428
G1 X94.406 Y112.575 E0.03735
G1 X95.775 Y111.206 E0.10146
G1 X95.775 Y111.918 E0.03735
G1 X95.118 Y112.575 E0.04864
G1 F6240
G1 X95.775 Y111.918 E-0.50878
G1 F6240
G1 X95.775 Y111.206 E-0.39072
G1 F6240
G1 X95.342 Y111.638 E-0.33550
G1 E-0.06500 F3600.00000
G1 Z0.800 F7800.000
G1 X107.375 Y106.875 F7800.000
G1 E1.30000 F3600.00000
G1 X104.573 Y106.875 E0.14640 F1132.804
G1 X104.055 Y96.981 E0.51766
G1 X104.365 Y96.443 E0.03241
G1 X104.674 Y95.493 E0.05219
G1 X104.778 Y94.500 E0.05219
G1 X104.674 Y93.507 E0.05219
G1 X104.365 Y92.557 E0.05219
G1 X103.865 Y91.692 E0.05219
G1 X103.197 Y90.949 E0.05218
G1 X102.389 Y90.362 E0.05219
G1 X101.476 Y89.956 E0.05219
G1 X100.499 Y89.748 E0.05219
G1 X99.504 Y89.748 E0.05200
G1 X98.567 Y89.936 E0.04992
G1 X97.611 Y90.362 E0.05468
G1 X96.803 Y90.949 E0.05219
G1 X96.135 Y91.692 E0.05219
G1 X95.635 Y92.557 E0.05219
G1 X95.326 Y93.507 E0.05219
G1 X95.222 Y94.500 E0.05219
