; generated by Slic3r 1.3.1-dev (Build 2d100c4) on 2020-05-07 at 12:46:42

; external perimeters extrusion width = 0.44mm (3.91mm^3/s)
; perimeters extrusion width = 0.56mm (5.65mm^3/s)
; infill extrusion width = 0.50mm (5.02mm^3/s)
; solid infill extrusion width = 0.56mm (5.65mm^3/s)
; top infill extrusion width = 0.56mm (5.65mm^3/s)

M107
M190 S60 ; set bed temperature and wait for it to be reached
M104 S215 ; set temperature
G28 ; home all axes
G92 E0.0 ; reset extruder
; Filament gcode

M109 S215 ; set temperature and wait for it to be reached
G21 ; set units to millimeters
G90 ; use absolute coordinates
M83 ; use relative distances for extrusion
G1 E-1.30000 F3600.00000
G1 Z0.300 F7800.000
G1 X74.461 Y68.557 F7800.000
G1 E1.30000 F3600.00000
M201 X500 Y500
M204 P500 T500
G1 F1959.397
G1 X76.857 Y66.831 E0.17519
G1 X79.628 Y65.809 E0.17519
G1 X82.000 Y65.549 E0.14158
G1 X98.000 Y65.549 E0.94915
G1 X100.926 Y65.947 E0.17519
G1 X103.640 Y67.113 E0.17519
G1 X105.943 Y68.961 E0.17519
G1 X107.669 Y71.357 E0.17519
G1 X108.691 Y74.128 E0.17519
G1 X108.951 Y76.500 E0.14158
G1 X108.951 Y97.500 E1.24576
G1 X108.553 Y100.426 E0.17519
G1 X107.387 Y103.140 E0.17519
G1 X105.539 Y105.443 E0.17519
G1 X103.136 Y107.172 E0.17566
G1 X91.836 Y113.172 E0.75897
G1 X89.065 Y114.193 E0.17519
G1 X86.700 Y114.451 E0.14111
G1 X82.000 Y114.451 E0.27881
G1 X79.074 Y114.053 E0.17519
G1 X76.360 Y112.887 E0.17519
G1 X74.057 Y111.039 E0.17519
G1 X72.331 Y108.643 E0.17519
G1 X71.309 Y105.872 E0.17519
G1 X71.049 Y103.500 E0.14158
G1 X71.049 Y76.500 E1.60169
G1 X71.447 Y73.574 E0.17519
G1 X72.613 Y70.860 E0.17519
G1 X74.423 Y68.604 E0.17163
G1 X74.928 Y68.772 F7800.000
G1 F1959.397
G1 X77.307 Y67.134 E0.17132
G1 X80.043 Y66.209 E0.17132
G1 X82.000 Y66.024 E0.11663
G1 X98.000 Y66.024 E0.94915
G1 X100.860 Y66.422 E0.17132
G1 X103.503 Y67.586 E0.17132
G1 X105.728 Y69.428 E0.17132
G1 X107.366 Y71.807 E0.17132
G1 X108.291 Y74.543 E0.17132
G1 X108.476 Y76.500 E0.11663
G1 X108.476 Y97.500 E1.24576
G1 X108.078 Y100.360 E0.17132
G1 X106.914 Y103.003 E0.17132
G1 X105.072 Y105.228 E0.17132
G1 X102.913 Y106.752 E0.15679
G1 X91.613 Y112.752 E0.75897
G1 X88.900 Y113.742 E0.17132
G1 X86.700 Y113.976 E0.13122
G1 X82.000 Y113.976 E0.27881
G1 X79.140 Y113.578 E0.17132
G1 X76.497 Y112.414 E0.17132
G1 X74.272 Y110.572 E0.17132
G1 X72.634 Y108.193 E0.17132
G1 X71.709 Y105.457 E0.17132
G1 X71.524 Y103.500 E0.11663
G1 X71.524 Y76.500 E1.60169
G1 X71.922 Y73.640 E0.17132
G1 X73.086 Y70.997 E0.17132
G1 X74.890 Y68.818 E0.16776
G1 F6240.000
G1 X76.739 Y67.530 E-1.23500
G1 E-0.06500 F3600.00000
G1 X97.254 Y96.754 F7800.000
G1 E1.30000 F3600.00000
G1 F1469.548
G1 X94.688 Y96.754 E0.15223
G1 X94.177 Y87.010 E0.57884
G1 X94.476 Y86.493 E0.03543
G1 X94.793 Y85.519 E0.06077
G1 X94.900 Y84.500 E0.06076
G1 X94.793 Y83.481 E0.06076
G1 X94.476 Y82.507 E0.06076
G1 X93.964 Y81.620 E0.06076
G1 X93.279 Y80.859 E0.06076
G1 X92.450 Y80.257 E0.06077
G1 X91.514 Y79.840 E0.06076
G1 X90.512 Y79.627 E0.06076
G1 X89.488 Y79.627 E0.06076
G1 X88.486 Y79.840 E0.06076
G1 X87.550 Y80.257 E0.06076
G1 X86.721 Y80.859 E0.06076
G1 X86.036 Y81.620 E0.06076
G1 X85.524 Y82.507 E0.06076
G1 X85.207 Y83.481 E0.06076
G1 X85.100 Y84.500 E0.06076
G1 X85.207 Y85.519 E0.06076
G1 X85.524 Y86.493 E0.06077
G1 X85.954 Y87.239 E0.05108
G1 X85.954 Y102.754 E0.92043
G1 X82.746 Y102.754 E0.19035
G1 X82.746 Y77.246 E1.51323
G1 X97.254 Y77.246 E0.86069
G1 X97.254 Y96.694 E1.15374
G1 X97.730 Y97.230 F7800.000
G1 F1458.000
G1 X94.237 Y97.230 E0.20722
G1 X93.695 Y86.894 E0.61397
G1 X94.039 Y86.298 E0.04082
G1 X94.325 Y85.419 E0.05483
G1 X94.421 Y84.500 E0.05483
G1 X94.325 Y83.581 E0.05483
G1 X94.039 Y82.702 E0.05483
G1 X93.577 Y81.901 E0.05483
G1 X92.959 Y81.214 E0.05483
G1 X92.211 Y80.671 E0.05483
G1 X91.366 Y80.295 E0.05483
G1 X90.462 Y80.103 E0.05483
G1 X89.538 Y80.103 E0.05483
G1 X88.634 Y80.295 E0.05483
G1 X87.789 Y80.671 E0.05483
G1 X87.041 Y81.214 E0.05483
G1 X86.423 Y81.901 E0.05483
G1 X85.961 Y82.702 E0.05483
G1 X85.675 Y83.581 E0.05483
G1 X85.579 Y84.500 E0.05483
G1 X85.675 Y85.419 E0.05483
G1 X85.961 Y86.298 E0.05483
G1 X86.430 Y87.111 E0.05567
G1 X86.430 Y103.230 E0.95620
G1 X82.270 Y103.230 E0.24678
G1 X82.270 Y76.770 E1.56966
G1 X97.730 Y76.770 E0.91712
G1 X97.730 Y97.170 E1.21017
G1 X97.349 Y97.109 F7800.000
G1 X96.728 Y96.329 F7800.000
G1 F1469.548
G1 X96.829 Y96.228 E0.00861
G1 X96.829 Y95.545 E0.04118
G1 X96.045 Y96.329 E0.06684
G1 X95.362 Y96.329 E0.04118
G1 X96.829 Y94.862 E0.12508
G1 X96.829 Y94.178 E0.04118
G1 X95.069 Y95.939 E0.15005
G1 X95.035 Y95.290 E0.03918
G1 X96.829 Y93.495 E0.15295
G1 X96.829 Y92.812 E0.04118
G1 X95.001 Y94.640 E0.15585
G1 X94.966 Y93.991 E0.03918
G1 X96.829 Y92.128 E0.15875
G1 X96.829 Y91.445 E0.04118
G1 X94.932 Y93.342 E0.16165
G1 X94.898 Y92.693 E0.03918
G1 X96.829 Y90.762 E0.16455
G1 X96.829 Y90.079 E0.04118
G1 X94.864 Y92.043 E0.16745
G1 X94.830 Y91.394 E0.03918
G1 X96.829 Y89.395 E0.17035
G1 X96.829 Y88.712 E0.04118
G1 X94.796 Y90.745 E0.17325
G1 X94.762 Y90.096 E0.03918
G1 X96.829 Y88.029 E0.17615
G1 X96.829 Y87.345 E0.04118
G1 X94.728 Y89.446 E0.17905
G1 X94.694 Y88.797 E0.03918
G1 X96.829 Y86.662 E0.18195
G1 X96.829 Y85.979 E0.04118
G1 X94.660 Y88.148 E0.18485
G1 X94.626 Y87.499 E0.03918
G1 X96.829 Y85.295 E0.18775
G1 X96.829 Y84.612 E0.04118
G1 X94.939 Y86.502 E0.16109
G1 X95.210 Y85.669 E0.05283
G1 X95.224 Y85.534 E0.00815
G1 X96.829 Y83.929 E0.13680
G1 X96.829 Y83.246 E0.04118
G1 X95.304 Y84.770 E0.12996
G1 X95.327 Y84.550 E0.01333
G1 X95.281 Y84.110 E0.02667
G1 X96.829 Y82.562 E0.13193
G1 X96.829 Y81.879 E0.04118
G1 X95.216 Y83.492 E0.13747
G1 X95.059 Y82.966 E0.03307
G1 X96.829 Y81.196 E0.15090
G1 X96.829 Y80.512 E0.04118
G1 X94.891 Y82.451 E0.16518
G1 X94.863 Y82.363 E0.00555
G1 X94.655 Y82.003 E0.02502
G1 X96.829 Y79.829 E0.18530
G1 X96.829 Y79.146 E0.04118
G1 X94.405 Y81.570 E0.20662
G1 X94.300 Y81.389 E0.01259
G1 X94.112 Y81.180 E0.01698
G1 X96.829 Y78.463 E0.23159
G1 X96.829 Y77.779 E0.04118
G1 X93.788 Y80.820 E0.25918
G1 X93.548 Y80.554 E0.02161
G1 X93.446 Y80.479 E0.00763
G1 X96.254 Y77.671 E0.23937
G1 X95.571 Y77.671 E0.04118
G1 X93.050 Y80.192 E0.21486
G1 X92.654 Y79.904 E0.02948
G1 X94.888 Y77.671 E0.19036
G1 X94.205 Y77.671 E0.04118
G1 X92.184 Y79.691 E0.17216
G1 X91.712 Y79.480 E0.03119
G1 X93.521 Y77.671 E0.15422
G1 X92.838 Y77.671 E0.04118
G1 X91.167 Y79.341 E0.14237
G1 X90.604 Y79.222 E0.03472
G1 X92.155 Y77.671 E0.13216
G1 X91.471 Y77.671 E0.04118
G1 X89.940 Y79.202 E0.13049
G1 X89.387 Y79.202 E0.03331
G1 X89.222 Y79.237 E0.01021
G1 X90.788 Y77.671 E0.13350
G1 X90.105 Y77.671 E0.04118
G1 X88.354 Y79.422 E0.14922
G1 X88.288 Y79.436 E0.00408
G1 X87.261 Y79.893 E0.06775
G1 X87.036 Y80.056 E0.01671
G1 X89.421 Y77.671 E0.20328
G1 X88.738 Y77.671 E0.04118
G1 X83.171 Y83.238 E0.47448
G1 X83.171 Y82.555 E0.04118
G1 X88.055 Y77.671 E0.41624
G1 X87.372 Y77.671 E0.04118
G1 X83.171 Y81.872 E0.35801
G1 X83.171 Y81.188 E0.04118
G1 X86.688 Y77.671 E0.29978
G1 X86.005 Y77.671 E0.04118
G1 X83.171 Y80.505 E0.24155
G1 X83.171 Y79.822 E0.04118
G1 X85.322 Y77.671 E0.18331
G1 X84.638 Y77.671 E0.04118
G1 X83.171 Y79.138 E0.12508
G1 X83.171 Y78.455 E0.04118
G1 X83.955 Y77.671 E0.06685
G1 X83.272 Y77.671 E0.04118
G1 X83.171 Y77.772 E0.00860
G1 F6240.000
G1 X83.272 Y77.671 E-0.07820
G1 F6240.000
G1 X83.955 Y77.671 E-0.37450
G1 F6240.000
G1 X83.171 Y78.455 E-0.60795
G1 F6240.000
G1 X83.171 Y78.773 E-0.17435
G1 E-0.06500 F3600.00000
G1 X85.557 Y81.535 F7800.000
G1 E1.30000 F3600.00000
G1 F1469.548
G1 X83.171 Y83.921 E0.20339
G1 X83.171 Y84.605 E0.04118
G1 X84.957 Y82.819 E0.15219
G1 X84.790 Y83.331 E0.03247
G1 X84.750 Y83.708 E0.02285
G1 X83.171 Y85.288 E0.13462
G1 X83.171 Y85.971 E0.04118
G1 X84.674 Y84.468 E0.12815
G1 X84.739 Y85.086 E0.03747
G1 X83.171 Y86.655 E0.13368
G1 X83.171 Y87.338 E0.04118
G1 X84.827 Y85.682 E0.14116
G1 X84.995 Y86.197 E0.03268
G1 X83.171 Y88.021 E0.15544
G1 X83.171 Y88.705 E0.04118
G1 X85.174 Y86.701 E0.17076
G1 X85.424 Y87.134 E0.03014
G1 X83.171 Y89.388 E0.19207
G1 X83.171 Y90.071 E0.04118
G1 X85.529 Y87.713 E0.20100
G1 X85.529 Y88.396 E0.04118
G1 X83.171 Y90.754 E0.20100
G1 X83.171 Y91.438 E0.04118
G1 X85.529 Y89.079 E0.20100
G1 X85.529 Y89.763 E0.04118
G1 X83.171 Y92.121 E0.20100
G1 X83.171 Y92.804 E0.04118
G1 X85.529 Y90.446 E0.20100
G1 X85.529 Y91.129 E0.04118
G1 X83.171 Y93.488 E0.20100
G1 X83.171 Y94.171 E0.04118
G1 X85.529 Y91.812 E0.20100
G1 X85.529 Y92.496 E0.04118
G1 X83.171 Y94.854 E0.20100
G1 X83.171 Y95.537 E0.04118
G1 X85.529 Y93.179 E0.20100
G1 X85.529 Y93.862 E0.04118
G1 X83.171 Y96.221 E0.20100
G1 X83.171 Y96.904 E0.04118
G1 X85.529 Y94.546 E0.20100
G1 X85.529 Y95.229 E0.04118
G1 X83.171 Y97.587 E0.20100
G1 X83.171 Y98.271 E0.04118
G1 X85.529 Y95.912 E0.20100
G1 X85.529 Y96.595 E0.04118
G1 X83.171 Y98.954 E0.20100
G1 X83.171 Y99.637 E0.04118
G1 X85.529 Y97.279 E0.20100
G1 X85.529 Y97.962 E0.04118
G1 X83.171 Y100.321 E0.20100
G1 X83.171 Y101.004 E0.04118
G1 X85.529 Y98.645 E0.20100
G1 X85.529 Y99.329 E0.04118
G1 X83.171 Y101.687 E0.20100
G1 X83.171 Y102.329 E0.03870
G1 X83.212 Y102.329 E0.00248
G1 X85.529 Y100.012 E0.19749
G1 X85.529 Y100.695 E0.04118
G1 X83.895 Y102.329 E0.13925
G1 X84.579 Y102.329 E0.04118
G1 X85.529 Y101.379 E0.08102
G1 X85.529 Y102.062 E0.04118
G1 X85.262 Y102.329 E0.02279
M106 S255
M140 S50 ; set bed temperature
G1 F6240.000
G1 X85.529 Y102.062 E-0.20725
G1 F6240.000
G1 X85.529 Y101.379 E-0.37450
G1 F6240.000
G1 X84.686 Y102.221 E-0.65325
G1 E-0.06500 F3600.00000
G1 Z0.550 F7800.000
G1 X97.335 Y96.835 F7800.000
G1 E1.30000 F3600.00000
G1 F875.347
G1 X94.611 Y96.835 E0.14233
G1 X94.095 Y86.990 E0.51506
G1 X94.402 Y86.460 E0.03201
G1 X94.713 Y85.502 E0.05263
G1 X94.818 Y84.500 E0.05262
G1 X94.713 Y83.498 E0.05262
G1 X94.402 Y82.540 E0.05262
G1 X93.898 Y81.668 E0.05262
G1 X93.224 Y80.919 E0.05262
G1 X92.409 Y80.327 E0.05263
G1 X91.489 Y79.918 E0.05262
G1 X90.504 Y79.708 E0.05262
G1 X89.496 Y79.708 E0.05262
G1 X88.511 Y79.918 E0.05262
G1 X87.591 Y80.327 E0.05262
G1 X86.776 Y80.919 E0.05262
G1 X86.102 Y81.668 E0.05262
G1 X85.598 Y82.540 E0.05262
G1 X85.287 Y83.498 E0.05262
G1 X85.182 Y84.500 E0.05262
G1 X85.287 Y85.502 E0.05262
G1 X85.598 Y86.460 E0.05263
G1 X86.035 Y87.217 E0.04567
G1 X86.035 Y102.835 E0.81600
G1 X82.665 Y102.835 E0.17612
G1 X82.665 Y77.165 E1.34118
G1 X97.335 Y77.165 E0.76648
G1 X97.335 Y96.775 E1.02457
G1 X97.780 Y97.280 F7800.000
G1 F2430.000
G1 X94.189 Y97.280 E0.14419
G1 X93.644 Y86.882 E0.41811
G1 X93.993 Y86.278 E0.02802
G1 X94.276 Y85.409 E0.03670
G1 X94.371 Y84.500 E0.03670
G1 X94.276 Y83.591 E0.03670
G1 X93.993 Y82.722 E0.03670
G1 X93.536 Y81.931 E0.03670
G1 X92.925 Y81.252 E0.03670
G1 X92.186 Y80.714 E0.03670
G1 X91.351 Y80.343 E0.03670
G1 X90.457 Y80.153 E0.03670
G1 X89.543 Y80.153 E0.03670
G1 X88.649 Y80.343 E0.03670
G1 X87.814 Y80.714 E0.03670
G1 X87.075 Y81.252 E0.03670
G1 X86.464 Y81.931 E0.03670
G1 X86.007 Y82.722 E0.03670
G1 X85.724 Y83.591 E0.03670
G1 X85.629 Y84.500 E0.03670
G1 X85.724 Y85.409 E0.03670
G1 X86.007 Y86.278 E0.03670
G1 X86.480 Y87.098 E0.03801
G1 X86.480 Y103.280 E0.64982
G1 X82.220 Y103.280 E0.17107
G1 X82.220 Y76.720 E1.06655
G1 X97.780 Y76.720 E0.62483
G1 X97.780 Y97.220 E0.82321
G1 X97.399 Y97.159 F7800.000
G1 X95.133 Y96.217 F7800.000
G1 F875.347
G1 X95.141 Y96.386 E0.00898
G1 X95.301 Y96.386 E0.00850
G1 X95.026 Y96.111 E0.02070
G1 X94.986 Y95.348 E0.04062
G1 X96.025 Y96.386 E0.07807
G1 X96.748 Y96.386 E0.03844
G1 X94.946 Y94.584 E0.13544
G1 X94.906 Y93.821 E0.04062
G1 X96.886 Y95.801 E0.14885
G1 X96.886 Y95.078 E0.03844
G1 X94.866 Y93.058 E0.15186
G1 X94.826 Y92.295 E0.04062
G1 X96.886 Y94.355 E0.15487
G1 X96.886 Y93.632 E0.03844
G1 X94.786 Y91.531 E0.15787
G1 X94.746 Y90.768 E0.04062
G1 X96.886 Y92.908 E0.16088
G1 X96.886 Y92.185 E0.03844
G1 X94.706 Y90.005 E0.16389
G1 X94.666 Y89.242 E0.04062
G1 X96.886 Y91.462 E0.16689
G1 X96.886 Y90.739 E0.03844
G1 X94.626 Y88.479 E0.16990
G1 X94.586 Y87.715 E0.04062
G1 X96.886 Y90.015 E0.17291
G1 X96.886 Y89.292 E0.03844
G1 X94.589 Y86.995 E0.17269
G1 X94.810 Y86.612 E0.02350
G1 X94.839 Y86.522 E0.00503
G1 X96.886 Y88.569 E0.15387
G1 X96.886 Y87.846 E0.03844
G1 X95.017 Y85.976 E0.14054
G1 X95.154 Y85.554 E0.02362
G1 X95.169 Y85.406 E0.00789
G1 X96.886 Y87.123 E0.12905
G1 X96.886 Y86.399 E0.03844
G1 X95.238 Y84.751 E0.12388
G1 X95.270 Y84.447 E0.01628
G1 X95.225 Y84.015 E0.02308
G1 X96.886 Y85.676 E0.12488
G1 X96.886 Y84.953 E0.03844
G1 X95.097 Y83.163 E0.13453
G1 X94.810 Y82.281 E0.04928
G1 X94.635 Y81.979 E0.01858
G1 X96.886 Y84.230 E0.16921
G1 X96.886 Y77.721 F7800.000
G1 F875.347
G1 X96.779 Y77.614 E0.00803
G1 X96.056 Y77.614 E0.03844
G1 X96.886 Y78.444 E0.06239
G1 X96.886 Y79.167 E0.03844
G1 X95.333 Y77.614 E0.11676
G1 X94.610 Y77.614 E0.03844
G1 X96.886 Y79.890 E0.17112
G1 X96.886 Y80.614 E0.03844
G1 X93.886 Y77.614 E0.22549
G1 X93.163 Y77.614 E0.03844
G1 X96.886 Y81.337 E0.27985
G1 X96.886 Y82.060 E0.03844
G1 X92.440 Y77.614 E0.33422
G1 X91.717 Y77.614 E0.03844
G1 X96.886 Y82.783 E0.38859
G1 X96.886 Y83.506 E0.03844
G1 X90.994 Y77.614 E0.44295
G1 X90.270 Y77.614 E0.03844
G1 X92.507 Y79.850 E0.16811
G1 X91.698 Y79.490 E0.04703
G1 X91.349 Y79.416 E0.01896
G1 X89.547 Y77.614 E0.13548
G1 X88.824 Y77.614 E0.03844
G1 X90.469 Y79.259 E0.12366
G1 X89.746 Y79.259 E0.03844
G1 X88.101 Y77.614 E0.12366
G1 X87.377 Y77.614 E0.03844
G1 X89.106 Y79.342 E0.12991
G1 X88.509 Y79.469 E0.03241
G1 X86.654 Y77.614 E0.13944
G1 X85.931 Y77.614 E0.03844
G1 X87.993 Y79.675 E0.15497
G1 X87.492 Y79.898 E0.02912
G1 X85.208 Y77.614 E0.17172
G1 X84.485 Y77.614 E0.03844
G1 X87.057 Y80.186 E0.19336
G1 X86.638 Y80.490 E0.02752
G1 X83.761 Y77.614 E0.21624
G1 X83.114 Y77.614 E0.03442
G1 X83.114 Y77.690 E0.00403
G1 X86.269 Y80.844 E0.23715
G1 X85.926 Y81.225 E0.02722
G1 X83.114 Y78.413 E0.21139
G1 X83.114 Y79.136 E0.03844
G1 X85.620 Y81.643 E0.18842
G1 X85.356 Y82.101 E0.02814
G1 X83.114 Y79.859 E0.16852
G1 X83.114 Y80.582 E0.03844
G1 X85.124 Y82.592 E0.15108
G1 X84.946 Y83.138 E0.03051
G1 X83.114 Y81.306 E0.13775
G1 X83.114 Y82.029 E0.03844
G1 X84.816 Y83.731 E0.12797
G1 X84.747 Y84.386 E0.03498
G1 X83.114 Y82.752 E0.12279
G1 X83.114 Y83.475 E0.03844
G1 X84.793 Y85.155 E0.12622
G1 X84.846 Y85.660 E0.02702
G1 X84.976 Y86.061 E0.02242
G1 X83.114 Y84.199 E0.14001
G1 X83.114 Y84.922 E0.03844
G1 X85.586 Y87.405 E0.18625
G1 X85.586 Y88.117 E0.03788
G1 X83.114 Y85.645 E0.18585
G1 X83.114 Y86.368 E0.03844
G1 X85.586 Y88.841 E0.18585
G1 X85.586 Y89.564 E0.03844
G1 X83.114 Y87.092 E0.18585
G1 X83.114 Y87.815 E0.03844
G1 X85.586 Y90.287 E0.18585
G1 X85.586 Y91.010 E0.03844
G1 X83.114 Y88.538 E0.18585
G1 X83.114 Y89.261 E0.03844
G1 X85.586 Y91.734 E0.18585
G1 X85.586 Y92.457 E0.03844
G1 X83.114 Y89.984 E0.18585
G1 X83.114 Y90.708 E0.03844
G1 X85.586 Y93.180 E0.18585
G1 X85.586 Y93.903 E0.03844
G1 X83.114 Y91.431 E0.18585
G1 X83.114 Y92.154 E0.03844
G1 X85.586 Y94.627 E0.18585
G1 X85.586 Y95.350 E0.03844
G1 X83.114 Y92.877 E0.18585
G1 X83.114 Y93.601 E0.03844
G1 X85.586 Y96.073 E0.18585
G1 X85.586 Y96.796 E0.03844
G1 X83.114 Y94.324 E0.18585
G1 X83.114 Y95.047 E0.03844
G1 X85.586 Y97.519 E0.18585
G1 X85.586 Y98.243 E0.03844
G1 X83.114 Y95.770 E0.18585
G1 X83.114 Y96.494 E0.03844
G1 X85.586 Y98.966 E0.18585
G1 X85.586 Y99.689 E0.03844
G1 X83.114 Y97.217 E0.18585
G1 X83.114 Y97.940 E0.03844
G1 X85.586 Y100.412 E0.18585
G1 X85.586 Y101.136 E0.03844
G1 X83.114 Y98.663 E0.18585
G1 X83.114 Y99.386 E0.03844
G1 X85.586 Y101.859 E0.18585
G1 X85.586 Y102.386 E0.02803
G1 X85.390 Y102.386 E0.01041
G1 X83.114 Y100.110 E0.17113
G1 X83.114 Y100.833 E0.03844
G1 X84.667 Y102.386 E0.11676
G1 X83.944 Y102.386 E0.03844
G1 X83.114 Y101.556 E0.06240
G1 X83.114 Y102.279 E0.03844
G1 X83.220 Y102.386 E0.00802
G1 F6240.000
G1 X83.114 Y102.279 E-0.08265
G1 F6240.000
G1 X83.114 Y101.556 E-0.39639
G1 F6240.000
G1 X83.944 Y102.386 E-0.64337
G1 F6240.000
G1 X84.149 Y102.386 E-0.11260
G1 E-0.06500 F3600.00000
G1 Z0.800 F7800.000
G1 X97.335 Y96.835 F7800.000
G1 E1.30000 F3600.00000
G1 F876.715
G1 X94.611 Y96.835 E0.14233
G1 X94.095 Y86.990 E0.51506
