; generated by Slic3r 1.2.9 on 2020-05-25 at 12:27:28

; external perimeters extrusion width = 0.40mm
; perimeters extrusion width = 0.56mm
; infill extrusion width = 0.56mm
; solid infill extrusion width = 0.56mm
; top infill extrusion width = 0.56mm

M107
M190 S60 ; set bed temperature
M104 S215 ; set temperature
G28 ; home all axes
G92 E0.0 ; reset extruder
M109 S215 ; wait for temperature to be reached
G21 ; set units to millimeters
G90 ; use absolute coordinates
M83 ; use relative distances for extrusion
G1 E-1.30000 F3600.00000
G1 Z0.300 F7800.000
G1 X65.926 Y62.237 F7800.000
G1 E1.30000 F3600.00000
M204 S500
G1 X76.043 Y52.040 E0.85211 F2160.000
G1 X77.059 Y51.023 E0.08530
G1 X77.561 Y50.552 E0.04080
G1 X78.607 Y49.630 E0.08273
G1 X79.137 Y49.191 E0.04082
G1 X80.239 Y48.337 E0.08273
G1 X80.795 Y47.932 E0.04079
G1 X81.949 Y47.149 E0.08273
G1 X82.530 Y46.779 E0.04086
G1 X83.731 Y46.070 E0.08274
G1 X84.333 Y45.739 E0.04075
G1 X85.576 Y45.105 E0.08274
G1 X86.199 Y44.812 E0.04087
G1 X87.479 Y44.258 E0.08273
G1 X88.117 Y44.005 E0.04074
G1 X89.430 Y43.533 E0.08274
G1 X90.085 Y43.320 E0.04089
G1 X91.425 Y42.931 E0.08274
G1 X92.090 Y42.760 E0.04073
G1 X93.451 Y42.456 E0.08274
G1 X94.128 Y42.327 E0.04087
G1 X95.505 Y42.109 E0.08274
G1 X96.187 Y42.023 E0.04075
G1 X97.575 Y41.891 E0.08273
G1 X98.262 Y41.848 E0.04084
G1 X99.656 Y41.804 E0.08274
G1 X100.344 Y41.804 E0.04080
G1 X101.738 Y41.848 E0.08273 F2160.000
G1 X102.425 Y41.891 E0.04084
G1 X103.813 Y42.023 E0.08273
G1 X104.495 Y42.109 E0.04076
G1 X105.872 Y42.327 E0.08273
G1 X106.549 Y42.456 E0.04087
G1 X107.910 Y42.760 E0.08273
G1 X108.576 Y42.931 E0.04074
G1 X109.915 Y43.320 E0.08273
G1 X110.570 Y43.533 E0.04089
G1 X111.883 Y44.005 E0.08274
G1 X112.521 Y44.258 E0.04074
G1 X113.801 Y44.812 E0.08274
G1 X114.424 Y45.105 E0.04086
G1 X115.667 Y45.739 E0.08273
G1 X116.269 Y46.070 E0.04076
G1 X117.470 Y46.779 E0.08274
G1 X118.051 Y47.149 E0.04086
G1 X119.205 Y47.932 E0.08273
G1 X119.761 Y48.337 E0.04079
G1 X120.863 Y49.191 E0.08273
G1 X121.393 Y49.630 E0.04083
G1 X122.439 Y50.552 E0.08273
G1 X122.941 Y51.023 E0.04080
G1 X134.074 Y62.237 E0.93740
G1 X135.852 Y64.595 E0.17519
G1 X136.936 Y67.342 E0.17519
G1 X137.251 Y69.950 E0.15586
G1 X137.251 Y79.950 E0.59322
G1 X137.210 Y80.901 E0.05646
G1 X133.027 Y128.775 E2.85082
G1 X132.941 Y129.458 E0.04085
G1 X132.721 Y130.842 E0.08311
G1 X132.593 Y131.517 E0.04079
G1 X132.287 Y132.885 E0.08311
G1 X132.116 Y133.551 E0.04079
G1 X131.725 Y134.896 E0.08311
G1 X131.512 Y135.551 E0.04086
G1 X131.038 Y136.869 E0.08311
G1 X130.785 Y137.508 E0.04078
G1 X130.228 Y138.794 E0.08312
G1 X129.935 Y139.417 E0.04080
G1 X129.299 Y140.665 E0.08310
G1 X128.968 Y141.267 E0.04078
G1 X128.255 Y142.473 E0.08313
G1 X127.886 Y143.054 E0.04080
G1 X127.099 Y144.213 E0.08310
G1 X126.683 Y144.784 E0.04188
G1 X125.835 Y145.877 E0.08207
G1 X125.397 Y146.407 E0.04080
G1 X124.471 Y147.458 E0.08310
G1 X124.000 Y147.959 E0.04081
G1 X123.009 Y148.950 E0.08311
G1 X122.508 Y149.421 E0.04081
G1 X121.457 Y150.347 E0.08310
G1 X120.927 Y150.785 E0.04080
G1 X119.820 Y151.644 E0.08311
G1 X119.249 Y152.058 E0.04184
G1 X118.104 Y152.836 E0.08211
G1 X117.525 Y153.204 E0.04070
G1 X116.318 Y153.918 E0.08319
G1 X115.716 Y154.249 E0.04076
G1 X114.467 Y154.885 E0.08316
G1 X113.844 Y155.178 E0.04079
G1 X112.559 Y155.734 E0.08311
G1 X111.920 Y155.987 E0.04072
G1 X110.601 Y156.462 E0.08319
G1 X109.946 Y156.675 E0.04085
G1 X108.601 Y157.066 E0.08310
G1 X107.935 Y157.237 E0.04080
G1 X106.567 Y157.543 E0.08311
G1 X105.892 Y157.671 E0.04078
G1 X104.509 Y157.891 E0.08311
G1 X103.807 Y157.979 E0.04194
G1 X102.430 Y158.109 E0.08202
G1 X101.745 Y158.152 E0.04075
G1 X100.344 Y158.196 E0.08314
G1 X99.656 Y158.196 E0.04081
G1 X98.256 Y158.152 E0.08311
G1 X97.570 Y158.109 E0.04079
G1 X96.175 Y157.977 E0.08310
G1 X95.475 Y157.888 E0.04183
G1 X94.108 Y157.671 E0.08214
G1 X93.434 Y157.543 E0.04072
G1 X92.065 Y157.237 E0.08316
G1 X91.400 Y157.066 E0.04077
G1 X90.054 Y156.675 E0.08314
G1 X89.399 Y156.462 E0.04085
G1 X88.081 Y155.988 E0.08311
G1 X87.442 Y155.735 E0.04074
G1 X86.156 Y155.178 E0.08318
G1 X85.534 Y154.885 E0.04077
G1 X84.285 Y154.249 E0.08312
G1 X83.682 Y153.918 E0.04082
G1 X82.477 Y153.205 E0.08310
G1 X81.896 Y152.836 E0.04079
G1 X80.737 Y152.049 E0.08311
G1 X80.180 Y151.644 E0.04084
G1 X79.073 Y150.785 E0.08312
G1 X78.544 Y150.348 E0.04071
G1 X77.492 Y149.421 E0.08320
G1 X76.991 Y148.950 E0.04078
G1 X76.000 Y147.959 E0.08312
G1 X75.518 Y147.444 E0.04187
G1 X74.603 Y146.407 E0.08206
G1 X74.165 Y145.877 E0.04080
G1 X73.306 Y144.770 E0.08311
G1 X72.902 Y144.214 E0.04079
G1 X72.114 Y143.054 E0.08316
G1 X71.745 Y142.473 E0.04080
G1 X71.032 Y141.268 E0.08311
G1 X70.701 Y140.666 E0.04076
G1 X70.065 Y139.417 E0.08314
G1 X69.772 Y138.795 E0.04077
G1 X69.216 Y137.509 E0.08314
G1 X68.962 Y136.870 E0.04077
G1 X68.488 Y135.551 E0.08313
G1 X68.275 Y134.897 E0.04083
G1 X67.884 Y133.551 E0.08314
G1 X67.709 Y132.867 E0.04184
G1 X67.407 Y131.518 E0.08205
G1 X67.279 Y130.842 E0.04079
G1 X67.059 Y129.458 E0.08311
G1 X66.973 Y128.775 E0.04085
G1 X66.834 Y127.301 E0.08784
G1 X62.790 Y80.901 E2.76298
G1 X62.749 Y79.950 E0.05646
G1 X62.749 Y69.950 E0.59322
G1 X63.147 Y67.024 E0.17519
G1 X64.313 Y64.310 E0.17519
G1 X65.889 Y62.284 E0.15230
G1 X66.264 Y62.572 F7800.000
G1 X76.380 Y52.375 E0.85211 F2160.000
G1 X77.396 Y51.359 E0.08519
G1 X77.875 Y50.909 E0.03902
G1 X78.921 Y49.987 E0.08273
G1 X79.429 Y49.567 E0.03905
G1 X80.531 Y48.712 E0.08273
G1 X81.063 Y48.326 E0.03902
G1 X82.216 Y47.542 E0.08273
G1 X82.772 Y47.189 E0.03909
G1 X83.973 Y46.479 E0.08274
G1 X84.549 Y46.162 E0.03898
G1 X85.792 Y45.529 E0.08274
G1 X86.388 Y45.249 E0.03909
G1 X87.668 Y44.695 E0.08273
G1 X88.279 Y44.453 E0.03897
G1 X89.591 Y43.980 E0.08274
G1 X90.218 Y43.777 E0.03911
G1 X91.557 Y43.388 E0.08274
G1 X92.193 Y43.224 E0.03897
G1 X93.555 Y42.920 E0.08274
G1 X94.202 Y42.796 E0.03910
G1 X95.579 Y42.578 E0.08274
G1 X96.231 Y42.496 E0.03898
G1 X97.620 Y42.365 E0.08273
G1 X98.277 Y42.323 E0.03906
G1 X99.671 Y42.280 E0.08274
G1 X100.329 Y42.280 E0.03903
G1 X101.723 Y42.323 E0.08273 F2160.000
G1 X102.380 Y42.365 E0.03906
G1 X103.769 Y42.496 E0.08273
G1 X104.421 Y42.578 E0.03899
G1 X105.798 Y42.796 E0.08273
G1 X106.446 Y42.920 E0.03910
G1 X107.807 Y43.224 E0.08273
G1 X108.443 Y43.388 E0.03897
G1 X109.782 Y43.777 E0.08273
G1 X110.409 Y43.980 E0.03911
G1 X111.721 Y44.453 E0.08274
G1 X112.332 Y44.695 E0.03897
G1 X113.612 Y45.249 E0.08274
G1 X114.208 Y45.529 E0.03909
G1 X115.451 Y46.162 E0.08273
G1 X116.027 Y46.479 E0.03899
G1 X117.228 Y47.189 E0.08274
G1 X117.784 Y47.542 E0.03909
G1 X118.937 Y48.326 E0.08273
G1 X119.469 Y48.712 E0.03902
G1 X120.571 Y49.567 E0.08273
G1 X121.079 Y49.987 E0.03905
G1 X122.125 Y50.909 E0.08273
G1 X122.604 Y51.360 E0.03903
G1 X133.736 Y62.572 E0.93729
G1 X135.469 Y64.883 E0.17132
G1 X136.504 Y67.579 E0.17132
G1 X136.776 Y69.950 E0.14158
G1 X136.776 Y79.950 E0.59322
G1 X136.736 Y80.860 E0.05401
G1 X132.553 Y128.730 E2.85061
G1 X132.471 Y129.384 E0.03908
G1 X132.252 Y130.768 E0.08311
G1 X132.128 Y131.414 E0.03902
G1 X131.823 Y132.781 E0.08311
G1 X131.659 Y133.418 E0.03902
G1 X131.268 Y134.763 E0.08311
G1 X131.065 Y135.390 E0.03908
G1 X130.590 Y136.708 E0.08311
G1 X130.348 Y137.319 E0.03901
G1 X129.792 Y138.605 E0.08312
G1 X129.511 Y139.201 E0.03903
G1 X128.875 Y140.449 E0.08310
G1 X128.559 Y141.025 E0.03901
G1 X127.845 Y142.231 E0.08313
G1 X127.493 Y142.787 E0.03903
G1 X126.705 Y143.946 E0.08310
G1 X126.308 Y144.492 E0.04011
G1 X125.460 Y145.585 E0.08207
G1 X125.040 Y146.092 E0.03903
G1 X124.114 Y147.143 E0.08310
G1 X123.663 Y147.623 E0.03904
G1 X122.673 Y148.613 E0.08311
G1 X122.193 Y149.064 E0.03904
G1 X121.142 Y149.990 E0.08310
G1 X120.635 Y150.410 E0.03903
G1 X119.528 Y151.268 E0.08311
G1 X118.980 Y151.666 E0.04015
G1 X117.837 Y152.443 E0.08202
G1 X117.283 Y152.795 E0.03893
G1 X116.076 Y153.508 E0.08319
G1 X115.500 Y153.825 E0.03899
G1 X114.251 Y154.461 E0.08315
G1 X113.656 Y154.742 E0.03902
G1 X112.370 Y155.298 E0.08311
G1 X111.759 Y155.540 E0.03896
G1 X110.440 Y156.015 E0.08319
G1 X109.813 Y156.218 E0.03907
G1 X108.468 Y156.609 E0.08310
G1 X107.831 Y156.773 E0.03903
G1 X106.464 Y157.078 E0.08311
G1 X105.818 Y157.202 E0.03901
G1 X104.434 Y157.421 E0.08311
G1 X103.763 Y157.505 E0.04014
G1 X102.386 Y157.635 E0.08205
G1 X101.730 Y157.676 E0.03898
G1 X100.329 Y157.720 E0.08314
G1 X99.671 Y157.720 E0.03904
G1 X98.271 Y157.676 E0.08311
G1 X97.614 Y157.635 E0.03902
G1 X96.220 Y157.503 E0.08310
G1 X95.550 Y157.418 E0.04006
G1 X94.182 Y157.202 E0.08213
G1 X93.537 Y157.079 E0.03895
G1 X92.169 Y156.773 E0.08316
G1 X91.532 Y156.609 E0.03900
G1 X90.187 Y156.218 E0.08314
G1 X89.560 Y156.015 E0.03907
G1 X88.242 Y155.540 E0.08311
G1 X87.631 Y155.298 E0.03897
G1 X86.344 Y154.742 E0.08317
G1 X85.750 Y154.462 E0.03900
G1 X84.501 Y153.825 E0.08312
G1 X83.924 Y153.508 E0.03904
G1 X82.719 Y152.795 E0.08310
G1 X82.163 Y152.443 E0.03902
G1 X81.004 Y151.655 E0.08311
G1 X80.472 Y151.268 E0.03906
G1 X79.365 Y150.410 E0.08312
G1 X78.859 Y149.991 E0.03894
G1 X77.807 Y149.064 E0.08320
G1 X77.328 Y148.614 E0.03901
G1 X76.337 Y147.623 E0.08312
G1 X75.874 Y147.130 E0.04009
G1 X74.960 Y146.092 E0.08206
G1 X74.540 Y145.585 E0.03902
G1 X73.682 Y144.478 E0.08311
G1 X73.295 Y143.946 E0.03901
G1 X72.507 Y142.787 E0.08316
G1 X72.155 Y142.231 E0.03902
G1 X71.442 Y141.026 E0.08311
G1 X71.125 Y140.450 E0.03899
G1 X70.489 Y139.201 E0.08314
G1 X70.209 Y138.606 E0.03900
G1 X69.652 Y137.320 E0.08314
G1 X69.410 Y136.708 E0.03900
G1 X68.935 Y135.390 E0.08313
G1 X68.732 Y134.764 E0.03905
G1 X68.341 Y133.418 E0.08313
G1 X68.173 Y132.764 E0.04007
G1 X67.872 Y131.414 E0.08205
G1 X67.748 Y130.768 E0.03902
G1 X67.529 Y129.384 E0.08311
G1 X67.447 Y128.730 E0.03908
G1 X67.308 Y127.260 E0.08763
G1 X63.264 Y80.860 E2.76298
G1 X63.224 Y79.950 E0.05401
G1 X63.224 Y69.950 E0.59322
G1 X63.622 Y67.090 E0.17132
G1 X64.786 Y64.447 E0.17132
G1 X66.226 Y62.619 E0.13802
G1 F6240
G1 X67.813 Y61.019 E-1.23500
G1 E-0.06500 F3600.00000
G1 X116.220 Y120.785 F7800.000
G1 E1.30000 F3600.00000
G1 X116.449 Y121.812 E0.06241 F1620.000
G1 X116.614 Y122.851 E0.06241
G1 X116.713 Y123.899 E0.06241
G1 X116.746 Y124.950 E0.06240
G1 X116.713 Y126.001 E0.06241
G1 X116.614 Y127.049 E0.06241
G1 X116.449 Y128.088 E0.06241
G1 X116.220 Y129.115 E0.06241
G1 X115.926 Y130.127 E0.06255
G1 X115.523 Y131.223 E0.06927
G1 X115.152 Y132.080 E0.05538
G1 X114.675 Y133.017 E0.06241
G1 X114.139 Y133.923 E0.06240
G1 X113.548 Y134.793 E0.06241
G1 X112.903 Y135.624 E0.06241
G1 X112.207 Y136.413 E0.06241
G1 X111.463 Y137.157 E0.06240
G1 X110.674 Y137.853 E0.06241
G1 X109.843 Y138.498 E0.06241
G1 X108.973 Y139.089 E0.06240
G1 X108.067 Y139.625 E0.06241
G1 X107.130 Y140.102 E0.06241
G1 X106.165 Y140.520 E0.06241
G1 X105.175 Y140.876 E0.06241
G1 X104.165 Y141.170 E0.06241
G1 X103.138 Y141.399 E0.06241
G1 X102.099 Y141.564 E0.06241
G1 X101.052 Y141.663 E0.06241
G1 X100.000 Y141.696 E0.06241
G1 X98.948 Y141.663 E0.06241
G1 X97.901 Y141.564 E0.06241
G1 X96.862 Y141.399 E0.06241
G1 X95.835 Y141.170 E0.06241
G1 X94.825 Y140.876 E0.06241
G1 X93.835 Y140.520 E0.06241
G1 X92.870 Y140.102 E0.06241
G1 X91.933 Y139.625 E0.06241
G1 X91.027 Y139.089 E0.06241
G1 X90.157 Y138.498 E0.06240
G1 X89.326 Y137.853 E0.06241
G1 X88.537 Y137.157 E0.06241
G1 X87.793 Y136.413 E0.06240
G1 X87.097 Y135.624 E0.06241
G1 X86.452 Y134.793 E0.06241
G1 X85.861 Y133.923 E0.06241
G1 X85.325 Y133.017 E0.06240
G1 X84.848 Y132.080 E0.06241
G1 X84.430 Y131.115 E0.06241
G1 X84.074 Y130.125 E0.06241
G1 X83.780 Y129.115 E0.06241
G1 X83.551 Y128.088 E0.06241
G1 X83.386 Y127.049 E0.06241
G1 X83.287 Y126.001 E0.06241
G1 X83.254 Y124.950 E0.06241
G1 X83.287 Y123.899 E0.06240
G1 X83.386 Y122.851 E0.06241
G1 X83.551 Y121.812 E0.06241
G1 X83.780 Y120.785 E0.06241
G1 X84.074 Y119.775 E0.06241
G1 X84.430 Y118.785 E0.06241
G1 X84.848 Y117.820 E0.06241
G1 X85.325 Y116.883 E0.06241
G1 X85.861 Y115.977 E0.06240
G1 X86.452 Y115.107 E0.06241
G1 X87.097 Y114.276 E0.06241
G1 X87.793 Y113.487 E0.06241
G1 X88.537 Y112.743 E0.06240
G1 X89.326 Y112.047 E0.06241
G1 X90.157 Y111.402 E0.06241
G1 X91.027 Y110.811 E0.06240
G1 X91.933 Y110.275 E0.06241
G1 X92.870 Y109.798 E0.06241
G1 X93.835 Y109.380 E0.06241
G1 X94.825 Y109.024 E0.06241
G1 X95.835 Y108.730 E0.06241
G1 X96.862 Y108.501 E0.06241
G1 X97.901 Y108.336 E0.06241
G1 X98.948 Y108.237 E0.06241
G1 X99.882 Y108.208 E0.05538 F1620.000
G1 X101.049 Y108.237 E0.06928
G1 X102.099 Y108.336 E0.06255
G1 X103.138 Y108.501 E0.06241
G1 X104.165 Y108.730 E0.06241
G1 X105.175 Y109.024 E0.06241
G1 X106.165 Y109.380 E0.06241
G1 X107.130 Y109.798 E0.06241
G1 X108.067 Y110.275 E0.06241
G1 X108.973 Y110.811 E0.06241
G1 X109.843 Y111.402 E0.06240
G1 X110.674 Y112.047 E0.06241
G1 X111.463 Y112.743 E0.06241
G1 X112.207 Y113.487 E0.06240
G1 X112.903 Y114.276 E0.06241
G1 X113.548 Y115.107 E0.06241
G1 X114.139 Y115.977 E0.06241
G1 X114.675 Y116.882 E0.06240
G1 X115.152 Y117.820 E0.06241
G1 X115.570 Y118.785 E0.06241
G1 X115.926 Y119.775 E0.06241
G1 X116.203 Y120.728 E0.05885
G1 X115.759 Y120.904 F7800.000
G1 X115.982 Y121.901 E0.06063 F1458.000
G1 X116.142 Y122.911 E0.06064
G1 X116.238 Y123.928 E0.06063
G1 X116.270 Y124.950 E0.06063
G1 X116.238 Y125.972 E0.06063
G1 X116.142 Y126.989 E0.06063
G1 X115.982 Y127.999 E0.06064
G1 X115.759 Y128.996 E0.06063
G1 X115.474 Y129.979 E0.06069
G1 X115.081 Y131.047 E0.06750
G1 X114.722 Y131.878 E0.05370
G1 X114.258 Y132.788 E0.06063
G1 X113.737 Y133.668 E0.06063
G1 X113.163 Y134.513 E0.06063
G1 X112.536 Y135.321 E0.06063
G1 X111.860 Y136.088 E0.06063
G1 X111.138 Y136.810 E0.06063
G1 X110.371 Y137.486 E0.06063
G1 X109.563 Y138.113 E0.06064
G1 X108.718 Y138.687 E0.06063
G1 X107.838 Y139.208 E0.06063
G1 X106.927 Y139.672 E0.06063
G1 X105.989 Y140.078 E0.06063
G1 X105.028 Y140.424 E0.06063
G1 X104.046 Y140.709 E0.06063
G1 X103.049 Y140.932 E0.06063
G1 X102.039 Y141.092 E0.06063
G1 X101.022 Y141.188 E0.06063
G1 X100.000 Y141.220 E0.06063
G1 X98.978 Y141.188 E0.06063
G1 X97.961 Y141.092 E0.06063
G1 X96.951 Y140.932 E0.06063
G1 X95.954 Y140.709 E0.06063
G1 X94.972 Y140.424 E0.06063
G1 X94.011 Y140.078 E0.06063
G1 X93.073 Y139.672 E0.06063
G1 X92.162 Y139.208 E0.06063
G1 X91.282 Y138.687 E0.06064
G1 X90.437 Y138.113 E0.06063
G1 X89.629 Y137.486 E0.06064
G1 X88.862 Y136.810 E0.06063
G1 X88.140 Y136.088 E0.06063
G1 X87.464 Y135.321 E0.06063
G1 X86.837 Y134.513 E0.06063
G1 X86.263 Y133.668 E0.06063
G1 X85.742 Y132.788 E0.06063
G1 X85.278 Y131.878 E0.06063
G1 X84.872 Y130.939 E0.06063
G1 X84.526 Y129.978 E0.06063
G1 X84.241 Y128.996 E0.06064
G1 X84.018 Y127.999 E0.06063
G1 X83.858 Y126.989 E0.06064
G1 X83.762 Y125.972 E0.06063
G1 X83.730 Y124.950 E0.06063
G1 X83.762 Y123.928 E0.06063
G1 X83.858 Y122.911 E0.06063
G1 X84.018 Y121.901 E0.06064
G1 X84.241 Y120.904 E0.06063
G1 X84.526 Y119.922 E0.06064
G1 X84.872 Y118.961 E0.06063
G1 X85.278 Y118.022 E0.06063
G1 X85.742 Y117.112 E0.06063
G1 X86.263 Y116.232 E0.06063
G1 X86.837 Y115.387 E0.06063
G1 X87.464 Y114.579 E0.06064
G1 X88.140 Y113.812 E0.06063
G1 X88.862 Y113.090 E0.06063
G1 X89.629 Y112.414 E0.06063
G1 X90.437 Y111.787 E0.06064
G1 X91.282 Y111.213 E0.06063
G1 X92.162 Y110.692 E0.06063
G1 X93.073 Y110.228 E0.06063
G1 X94.011 Y109.822 E0.06063
G1 X94.972 Y109.476 E0.06063
G1 X95.954 Y109.191 E0.06063
G1 X96.951 Y108.968 E0.06063
G1 X97.961 Y108.808 E0.06063
G1 X98.978 Y108.712 E0.06063
G1 X99.883 Y108.684 E0.05370 F1458.000
G1 X101.021 Y108.712 E0.06750
G1 X102.039 Y108.808 E0.06069
G1 X103.049 Y108.968 E0.06063
G1 X104.046 Y109.191 E0.06063
G1 X105.028 Y109.476 E0.06063
G1 X105.989 Y109.822 E0.06063
G1 X106.927 Y110.228 E0.06063
G1 X107.838 Y110.692 E0.06063
G1 X108.718 Y111.213 E0.06063
G1 X109.563 Y111.787 E0.06063
G1 X110.371 Y112.414 E0.06064
G1 X111.138 Y113.090 E0.06063
G1 X111.860 Y113.812 E0.06063
G1 X112.536 Y114.579 E0.06063
G1 X113.163 Y115.387 E0.06064
G1 X113.737 Y116.232 E0.06063
G1 X114.258 Y117.112 E0.06063
G1 X114.722 Y118.022 E0.06063
G1 X115.128 Y118.961 E0.06063
G1 X115.474 Y119.922 E0.06063
G1 X115.742 Y120.846 E0.05708
