; generated by Slic3r 1.2.9 on 2020-05-13 at 11:58:56

; external perimeters extrusion width = 0.40mm
; perimeters extrusion width = 0.56mm
; infill extrusion width = 0.56mm
; solid infill extrusion width = 0.56mm
; top infill extrusion width = 0.56mm

M107
M190 S60 ; set bed temperature
M104 S215 ; set temperature
G28 ; home all axes
G92 E0.0 ; reset extruder
M109 S215 ; wait for temperature to be reached
G21 ; set units to millimeters
G90 ; use absolute coordinates
M83 ; use relative distances for extrusion
G1 E-1.30000 F3600.00000
G1 Z0.300 F7800.000
G1 X71.963 Y43.460 F7800.000
G1 E1.30000 F3600.00000
M204 S500
G1 X73.606 Y41.356 E0.15840 F2160.000
G1 X74.207 Y40.755 E0.05042
G1 X76.558 Y38.968 E0.17519
G1 X79.301 Y37.874 E0.17519
G1 X81.950 Y37.549 E0.15831
G1 X96.050 Y37.549 E0.83644
G1 X98.976 Y37.947 E0.17519
G1 X101.690 Y39.113 E0.17519 F2160.000
G1 X103.794 Y40.756 E0.15839
G1 X104.394 Y41.356 E0.05034
G1 X106.022 Y43.435 E0.15667
G1 X128.022 Y79.835 E2.52307
G1 X129.195 Y82.546 E0.17519
G1 X129.601 Y85.500 E0.17691
G1 X129.601 Y114.500 E1.72033
G1 X129.203 Y117.426 E0.17519
G1 X128.022 Y120.165 E0.17691
G1 X106.022 Y156.565 E2.52307
G1 X104.394 Y158.644 E0.15667
G1 X103.794 Y159.244 E0.05034
G1 X101.443 Y161.031 E0.17519
G1 X98.700 Y162.126 E0.17519
G1 X96.050 Y162.451 E0.15840
G1 X81.950 Y162.451 E0.83644
G1 X79.024 Y162.053 E0.17519
G1 X76.310 Y160.887 E0.17519
G1 X74.206 Y159.244 E0.15840
G1 X73.606 Y158.644 E0.05034
G1 X71.819 Y156.293 E0.17519
G1 X70.724 Y153.550 E0.17519
G1 X70.399 Y150.900 E0.15840
G1 X70.399 Y49.100 E6.03897
G1 X70.797 Y46.174 E0.17519
G1 X71.939 Y43.516 E0.17163
G1 X72.410 Y43.657 F7800.000
G1 X72.436 Y43.597 E0.00394 F2160.000
G1 X73.943 Y41.693 E0.14401
G1 X74.544 Y41.092 E0.05041
G1 X76.848 Y39.351 E0.17132
G1 X79.540 Y38.305 E0.17132
G1 X81.950 Y38.024 E0.14393
G1 X96.050 Y38.024 E0.83644
G1 X98.910 Y38.422 E0.17132
G1 X101.553 Y39.586 E0.17132 F2160.000
G1 X103.457 Y41.093 E0.14401
G1 X104.057 Y41.693 E0.05034
G1 X105.615 Y43.681 E0.14987
G1 X127.615 Y80.081 E2.52307
G1 X128.754 Y82.735 E0.17132
G1 X129.126 Y85.500 E0.16548
G1 X129.126 Y114.500 E1.72033
G1 X128.728 Y117.360 E0.17132
G1 X127.615 Y119.919 E0.16548
G1 X105.615 Y156.319 E2.52307
G1 X104.057 Y158.307 E0.14987
G1 X103.457 Y158.907 E0.05034
G1 X101.153 Y160.648 E0.17132
G1 X98.461 Y161.694 E0.17132
G1 X96.050 Y161.976 E0.14401
G1 X81.950 Y161.976 E0.83644
G1 X79.090 Y161.578 E0.17132
G1 X76.447 Y160.414 E0.17132
G1 X74.543 Y158.907 E0.14401
G1 X73.943 Y158.307 E0.05034
G1 X72.201 Y156.003 E0.17132
G1 X71.156 Y153.311 E0.17132
G1 X70.874 Y150.900 E0.14401
G1 X70.874 Y49.100 E6.03897
G1 X71.272 Y46.240 E0.17132
G1 X72.386 Y43.712 E0.16382
G1 F6240
G1 X72.436 Y43.597 E-0.06932
G1 F6240
G1 X73.756 Y41.929 E-1.16568
G1 E-0.06500 F3600.00000
G1 X92.921 Y137.801 F7800.000
G1 E1.30000 F3600.00000
G1 X93.248 Y138.315 E0.03611 F1080.000
G1 X93.507 Y138.866 E0.03611
G1 X93.695 Y139.445 E0.03611
G1 X93.820 Y140.101 E0.03963
G1 X93.847 Y140.655 E0.03294
G1 X93.809 Y141.258 E0.03579
G1 X93.695 Y141.855 E0.03611
G1 X93.507 Y142.434 E0.03611
G1 X93.248 Y142.985 E0.03611
G1 X92.921 Y143.500 E0.03614
G1 X92.528 Y143.973 E0.03649
G1 X92.090 Y144.385 E0.03570
G1 X91.597 Y144.742 E0.03610
G1 X91.064 Y145.036 E0.03611
G1 X90.498 Y145.260 E0.03611
G1 X89.908 Y145.411 E0.03611
G1 X89.304 Y145.488 E0.03611
G1 X88.696 Y145.488 E0.03610
G1 X88.092 Y145.411 E0.03611
G1 X87.502 Y145.260 E0.03611
G1 X86.936 Y145.036 E0.03611
G1 X86.403 Y144.742 E0.03611
G1 X85.910 Y144.385 E0.03611
G1 X85.467 Y143.968 E0.03611
G1 X85.079 Y143.499 E0.03611
G1 X84.752 Y142.985 E0.03611
G1 X84.493 Y142.434 E0.03611
G1 X84.305 Y141.855 E0.03611
G1 X84.191 Y141.258 E0.03611
G1 X84.153 Y140.650 E0.03611
G1 X84.191 Y140.042 E0.03611
G1 X84.305 Y139.445 E0.03611
G1 X84.493 Y138.866 E0.03611
G1 X84.752 Y138.315 E0.03611
G1 X85.079 Y137.801 E0.03611
G1 X85.467 Y137.332 E0.03611
G1 X85.910 Y136.915 E0.03611
G1 X86.403 Y136.558 E0.03611
G1 X86.936 Y136.264 E0.03611
G1 X87.502 Y136.040 E0.03611
G1 X88.092 Y135.889 E0.03611
G1 X88.696 Y135.812 E0.03611
G1 X89.297 Y135.812 E0.03569 F1080.000
G1 X89.908 Y135.889 E0.03649
G1 X90.498 Y136.040 E0.03614
G1 X91.064 Y136.264 E0.03611
G1 X91.597 Y136.558 E0.03611
G1 X92.084 Y136.911 E0.03569
G1 X92.533 Y137.332 E0.03649
G1 X92.883 Y137.755 E0.03258
G1 X92.536 Y138.081 F7800.000
G1 X92.830 Y138.544 E0.03256 F1080.000
G1 X93.064 Y139.041 E0.03256
G1 X93.233 Y139.563 E0.03256
G1 X93.347 Y140.157 E0.03587
G1 X93.370 Y140.652 E0.02939
G1 X93.336 Y141.198 E0.03244
G1 X93.233 Y141.737 E0.03256
G1 X93.064 Y142.259 E0.03256
G1 X92.830 Y142.756 E0.03256
G1 X92.536 Y143.219 E0.03257
G1 X92.181 Y143.646 E0.03294
G1 X91.786 Y144.018 E0.03217
G1 X91.342 Y144.340 E0.03255
G1 X90.861 Y144.605 E0.03256
G1 X90.351 Y144.807 E0.03256
G1 X89.819 Y144.943 E0.03256
G1 X89.274 Y145.012 E0.03256
G1 X88.726 Y145.012 E0.03256
G1 X88.181 Y144.943 E0.03256
G1 X87.649 Y144.807 E0.03256
G1 X87.139 Y144.605 E0.03256
G1 X86.658 Y144.340 E0.03256
G1 X86.214 Y144.018 E0.03256
G1 X85.814 Y143.642 E0.03256
G1 X85.464 Y143.219 E0.03256
G1 X85.170 Y142.756 E0.03256
G1 X84.936 Y142.259 E0.03256
G1 X84.767 Y141.737 E0.03256
G1 X84.664 Y141.198 E0.03256
G1 X84.629 Y140.650 E0.03256
G1 X84.664 Y140.102 E0.03256
G1 X84.767 Y139.563 E0.03256
G1 X84.936 Y139.041 E0.03256
G1 X85.170 Y138.544 E0.03256
G1 X85.464 Y138.081 E0.03256
G1 X85.814 Y137.658 E0.03256
G1 X86.214 Y137.282 E0.03256
G1 X86.658 Y136.960 E0.03256
G1 X87.139 Y136.695 E0.03256
G1 X87.649 Y136.493 E0.03256
G1 X88.181 Y136.357 E0.03256
G1 X88.726 Y136.288 E0.03256
G1 X89.268 Y136.288 E0.03216 F1080.000
G1 X89.819 Y136.357 E0.03294
G1 X90.351 Y136.493 E0.03257
G1 X90.861 Y136.695 E0.03256
G1 X91.342 Y136.960 E0.03256
G1 X91.780 Y137.279 E0.03216
G1 X92.186 Y137.658 E0.03294
G1 X92.498 Y138.035 E0.02901
G1 X92.934 Y138.048 F7800.000
G1 F6240
G1 X92.830 Y138.544 E-0.33347
G1 F6240
G1 X93.064 Y139.041 E-0.30083
G1 F6240
G1 X93.233 Y139.563 E-0.30081
G1 F6240
G1 X93.336 Y140.101 E-0.29989
G1 E-0.06500 F3600.00000
G1 X95.904 Y150.591 F7800.000
G1 E1.30000 F3600.00000
G1 X95.741 Y150.754 E0.01369 F1620.000
G1 X82.259 Y150.754 E0.79980
G1 X82.096 Y150.591 E0.01369
G1 X82.096 Y108.880 E2.47439
G1 X83.730 Y107.246 E0.13711
G1 X117.904 Y107.246 E2.02729
G1 X117.904 Y113.754 E0.38611
G1 X105.183 Y113.754 E0.75464
G1 X95.904 Y123.033 E0.77844
G1 X95.904 Y150.531 E1.63123
G1 F6240
G1 X95.741 Y150.754 E-0.15156
G1 F6240
G1 X93.764 Y150.754 E-1.08344
G1 E-0.06500 F3600.00000
G1 X118.380 Y114.230 F7800.000
G1 E1.30000 F3600.00000
G1 X105.380 Y114.230 E0.77117 F1458.000
G1 X96.380 Y123.230 E0.75507
G1 X96.380 Y150.788 E1.63479
G1 X95.938 Y151.230 E0.03707
G1 X82.062 Y151.230 E0.82317
G1 X81.620 Y150.788 E0.03707
G1 X81.620 Y108.683 E2.49776
G1 X83.533 Y106.770 E0.16048
G1 X118.380 Y106.770 E2.06720
G1 X118.380 Y114.170 E0.43898
G1 X118.034 Y114.030 F7800.000
G1 X117.621 Y107.771 F7800.000
G1 X117.379 Y107.529 E0.02038 F1620.000
G1 X116.704 Y107.529 E0.04026
G1 X117.621 Y108.446 E0.07731
G1 X117.621 Y109.122 E0.04026
G1 X116.028 Y107.529 E0.13425
G1 X115.352 Y107.529 E0.04026
G1 X117.621 Y109.798 E0.19119
G1 X117.621 Y110.473 E0.04026
G1 X114.677 Y107.529 E0.24813
G1 X114.001 Y107.529 E0.04026
G1 X117.621 Y111.149 E0.30507
G1 X117.621 Y111.825 E0.04026
G1 X113.325 Y107.529 E0.36201
G1 X112.650 Y107.529 E0.04026
G1 X117.621 Y112.500 E0.41895
G1 X117.621 Y113.176 E0.04026
G1 X111.974 Y107.529 E0.47589
G1 X111.298 Y107.529 E0.04026
G1 X117.240 Y113.471 E0.50075
G1 X116.565 Y113.471 E0.04026
G1 X110.623 Y107.529 E0.50075
G1 X109.947 Y107.529 E0.04026
G1 X115.889 Y113.471 E0.50075
G1 X115.213 Y113.471 E0.04026
G1 X109.271 Y107.529 E0.50075
G1 X108.596 Y107.529 E0.04026
G1 X114.538 Y113.471 E0.50075
G1 X113.862 Y113.471 E0.04026
G1 X107.920 Y107.529 E0.50075
G1 X107.244 Y107.529 E0.04026
G1 X113.186 Y113.471 E0.50075
G1 X112.511 Y113.471 E0.04026
G1 X106.569 Y107.529 E0.50075
G1 X105.893 Y107.529 E0.04026
G1 X111.835 Y113.471 E0.50075
G1 X111.159 Y113.471 E0.04026
G1 X105.217 Y107.529 E0.50075
G1 X104.542 Y107.529 E0.04026
G1 X110.484 Y113.471 E0.50075
G1 X109.808 Y113.471 E0.04026
G1 X103.866 Y107.529 E0.50075
G1 X103.190 Y107.529 E0.04026
G1 X109.132 Y113.471 E0.50075
G1 X108.457 Y113.471 E0.04026
G1 X102.515 Y107.529 E0.50075
G1 X101.839 Y107.529 E0.04026
G1 X107.781 Y113.471 E0.50075
G1 X107.105 Y113.471 E0.04026
G1 X101.163 Y107.529 E0.50075
G1 X100.488 Y107.529 E0.04026
G1 X106.430 Y113.471 E0.50075
G1 X105.754 Y113.471 E0.04026
G1 X99.812 Y107.529 E0.50075
G1 X99.136 Y107.529 E0.04026
G1 X105.102 Y113.494 E0.50270
G1 X104.764 Y113.832 E0.02847
G1 X98.461 Y107.529 E0.53117
G1 X97.785 Y107.529 E0.04026
G1 X104.426 Y114.170 E0.55964
G1 X104.088 Y114.508 E0.02847
G1 X97.110 Y107.529 E0.58811
G1 X96.434 Y107.529 E0.04026
G1 X103.750 Y114.846 E0.61658
G1 X103.413 Y115.183 E0.02847
G1 X95.758 Y107.529 E0.64505
G1 X95.083 Y107.529 E0.04026
G1 X103.075 Y115.521 E0.67352
G1 X102.737 Y115.859 E0.02847
G1 X94.407 Y107.529 E0.70199
G1 X93.731 Y107.529 E0.04026
G1 X102.399 Y116.197 E0.73046
G1 X102.061 Y116.535 E0.02847
G1 X93.056 Y107.529 E0.75893
G1 X92.380 Y107.529 E0.04026
G1 X101.723 Y116.873 E0.78740
G1 X101.386 Y117.210 E0.02847
G1 X91.704 Y107.529 E0.81587
G1 X91.029 Y107.529 E0.04026
G1 X101.048 Y117.548 E0.84434
G1 X100.710 Y117.886 E0.02847
G1 X90.353 Y107.529 E0.87281
G1 X89.677 Y107.529 E0.04026
G1 X100.372 Y118.224 E0.90127
G1 X100.034 Y118.562 E0.02847
G1 X89.002 Y107.529 E0.92974
G1 X88.326 Y107.529 E0.04026
G1 X99.697 Y118.900 E0.95821
G1 X99.359 Y119.237 E0.02847
G1 X87.650 Y107.529 E0.98668
G1 X86.975 Y107.529 E0.04026
G1 X99.021 Y119.575 E1.01515
G1 X98.683 Y119.913 E0.02847
G1 X86.299 Y107.529 E1.04362
G1 X85.623 Y107.529 E0.04026
G1 X98.345 Y120.251 E1.07209
G1 X98.007 Y120.589 E0.02847
G1 X84.948 Y107.529 E1.10056
G1 X84.272 Y107.529 E0.04026
G1 X97.670 Y120.926 E1.12903
G1 X97.332 Y121.264 E0.02847
G1 X83.706 Y107.639 E1.14823
G1 X83.369 Y107.977 E0.02847
G1 X96.994 Y121.602 E1.14823
G1 X96.656 Y121.940 E0.02847
G1 X83.031 Y108.315 E1.14823
G1 X82.693 Y108.653 E0.02847
G1 X96.318 Y122.278 E1.14823
G1 X95.980 Y122.616 E0.02847
G1 X82.379 Y109.014 E1.14621
G1 X82.379 Y109.690 E0.04026
G1 X95.643 Y122.953 E1.11774
G1 X95.621 Y123.608 E0.03900
G1 X82.379 Y110.366 E1.11593
G1 X82.379 Y111.041 E0.04026
G1 X95.621 Y124.283 E1.11593
G1 X95.621 Y124.959 E0.04026
G1 X82.379 Y111.717 E1.11593
G1 X82.379 Y112.393 E0.04026
G1 X95.621 Y125.635 E1.11593
G1 X95.621 Y126.310 E0.04026
G1 X82.379 Y113.068 E1.11593
G1 X82.379 Y113.744 E0.04026
G1 X95.621 Y126.986 E1.11593
G1 X95.621 Y127.662 E0.04026
G1 X82.379 Y114.419 E1.11593
G1 X82.379 Y115.095 E0.04026
G1 X95.621 Y128.337 E1.11593
G1 X95.621 Y129.013 E0.04026
G1 X82.379 Y115.771 E1.11593
G1 X82.379 Y116.446 E0.04026
G1 X95.621 Y129.688 E1.11593
G1 X95.621 Y130.364 E0.04026
G1 X82.379 Y117.122 E1.11593
G1 X82.379 Y117.798 E0.04026
G1 X95.621 Y131.040 E1.11593
G1 X95.621 Y131.715 E0.04026
G1 X82.379 Y118.473 E1.11593
G1 X82.379 Y119.149 E0.04026
G1 X95.621 Y132.391 E1.11593
G1 X95.621 Y133.067 E0.04026
G1 X82.379 Y119.825 E1.11593
G1 X82.379 Y120.500 E0.04026
G1 X95.621 Y133.742 E1.11593
G1 X95.621 Y134.418 E0.04026
G1 X82.379 Y121.176 E1.11593
G1 X82.379 Y121.852 E0.04026
G1 X95.621 Y135.094 E1.11593
G1 X95.621 Y135.769 E0.04026
G1 X82.379 Y122.527 E1.11593
G1 X82.379 Y123.203 E0.04026
G1 X95.621 Y136.445 E1.11593
G1 X95.621 Y137.121 E0.04026
G1 X82.379 Y123.879 E1.11593
G1 X82.379 Y124.554 E0.04026
G1 X95.621 Y137.796 E1.11593
G1 X95.621 Y138.472 E0.04026
G1 X82.379 Y125.230 E1.11593
G1 X82.379 Y125.906 E0.04026
G1 X95.621 Y139.148 E1.11593
G1 X95.621 Y139.823 E0.04026
G1 X82.379 Y126.581 E1.11593
G1 X82.379 Y127.257 E0.04026
G1 X91.014 Y135.892 E0.72772
G1 X90.054 Y135.608 E0.05966
G1 X82.379 Y127.933 E0.64681
G1 X82.379 Y128.608 E0.04026
G1 X89.300 Y135.529 E0.58323
G1 X88.641 Y135.546 E0.03928
G1 X82.379 Y129.284 E0.52769
G1 X82.379 Y129.960 E0.04026
G1 X88.049 Y135.630 E0.47783
G1 X87.512 Y135.768 E0.03307
G1 X82.379 Y130.635 E0.43253
G1 X82.379 Y131.311 E0.04026
G1 X87.025 Y135.957 E0.39151
G1 X86.574 Y136.181 E0.03002
G1 X82.379 Y131.987 E0.35350
G1 X82.379 Y132.662 E0.04026
G1 X86.154 Y136.437 E0.31814
G1 X85.763 Y136.722 E0.02882
G1 X82.379 Y133.338 E0.28519
G1 X82.379 Y134.014 E0.04026
G1 X85.415 Y137.049 E0.25582
G1 X85.093 Y137.403 E0.02850
G1 X82.379 Y134.689 E0.22873
G1 X82.379 Y135.365 E0.04026
G1 X84.799 Y137.785 E0.20392
G1 X84.536 Y138.198 E0.02917
G1 X82.379 Y136.041 E0.18181
G1 X82.379 Y136.716 E0.04026
G1 X84.317 Y138.654 E0.16329
G1 X84.132 Y139.145 E0.03126
G1 X82.379 Y137.392 E0.14774
G1 X82.379 Y138.067 E0.04026
G1 X83.990 Y139.678 E0.13573
G1 X83.899 Y140.264 E0.03530
G1 X82.379 Y138.743 E0.12813
G1 X82.379 Y139.419 E0.04026
G1 X83.879 Y140.919 E0.12644
G1 X83.962 Y141.677 E0.04543
G1 X82.379 Y140.094 E0.13337
G1 X82.379 Y140.770 E0.04026
G1 X84.212 Y142.603 E0.15450
G1 X82.379 Y142.797 F7800.000
G1 X90.053 Y150.471 E0.64670 F1620.000
G1 X89.377 Y150.471 E0.04026
G1 X82.379 Y143.473 E0.58976
G1 X82.379 Y144.148 E0.04026
G1 X88.702 Y150.471 E0.53282
G1 X88.026 Y150.471 E0.04026
G1 X82.379 Y144.824 E0.47588
G1 X82.379 Y145.500 E0.04026
G1 X87.350 Y150.471 E0.41894
G1 X86.675 Y150.471 E0.04026
G1 X82.379 Y146.175 E0.36200
G1 X82.379 Y146.851 E0.04026
G1 X85.999 Y150.471 E0.30506
G1 X85.323 Y150.471 E0.04026
G1 X82.379 Y147.527 E0.24812
G1 X82.379 Y148.202 E0.04026
G1 X84.648 Y150.471 E0.19119
G1 X83.972 Y150.471 E0.04026
G1 X82.379 Y148.878 E0.13425
G1 X82.379 Y149.554 E0.04026
G1 X83.296 Y150.471 E0.07731
G1 X82.621 Y150.471 E0.04026
G1 X82.379 Y150.229 E0.02037
G1 X87.037 Y145.428 F7800.000
G1 X92.080 Y150.471 E0.42499 F1620.000
G1 X91.404 Y150.471 E0.04026
G1 X82.379 Y141.446 E0.76057
G1 X82.379 Y142.121 E0.04026
G1 X90.729 Y150.471 E0.70363
G1 X92.756 Y150.471 F7800.000
G1 X87.981 Y145.696 E0.40236 F1620.000
G1 X88.731 Y145.771 E0.04492
G1 X93.431 Y150.471 E0.39609
G1 X94.107 Y150.471 E0.04026
G1 X89.387 Y145.751 E0.39778
G1 X89.975 Y145.664 E0.03547
G1 X94.783 Y150.471 E0.40510
G1 X95.458 Y150.471 E0.04026
G1 X90.513 Y145.526 E0.41674
G1 X90.997 Y145.335 E0.03103
G1 X95.621 Y149.958 E0.38964
G1 X95.621 Y149.283 E0.04026
G1 X91.446 Y145.108 E0.35182
G1 X91.864 Y144.850 E0.02925
G1 X95.621 Y148.607 E0.31663
G1 X95.621 Y147.931 E0.04026
G1 X92.253 Y144.563 E0.28385
G1 X92.601 Y144.236 E0.02848
G1 X95.621 Y147.256 E0.25448
G1 X95.621 Y146.580 E0.04026
G1 X92.921 Y143.879 E0.22757
G1 X93.213 Y143.496 E0.02872
G1 X95.621 Y145.904 E0.20291
G1 X95.621 Y145.229 E0.04026
G1 X93.476 Y143.083 E0.18080
G1 X93.693 Y142.625 E0.03022
G1 X95.621 Y144.553 E0.16246
G1 X95.621 Y143.877 E0.04026
G1 X93.875 Y142.132 E0.14711
G1 X94.015 Y141.596 E0.03299
G1 X95.621 Y143.202 E0.13531
G1 X95.621 Y142.526 E0.04026
G1 X94.102 Y141.007 E0.12798
G1 X94.121 Y140.350 E0.03919
G1 X95.621 Y141.850 E0.12643
G1 X95.621 Y141.175 E0.04026
G1 X94.031 Y139.585 E0.13398
G1 X93.773 Y138.651 E0.05774
G1 X95.621 Y140.499 E0.15575
G1 F6240
G1 X94.028 Y138.906 E-1.23500
G1 E-0.06500 F3600.00000
G1 X91.064 Y63.736 F7800.000
G1 E1.30000 F3600.00000
G1 X90.498 Y63.960 E0.03611 F1080.000
G1 X89.908 Y64.111 E0.03611
G1 X89.304 Y64.188 E0.03611
G1 X88.696 Y64.188 E0.03611
G1 X88.092 Y64.111 E0.03611
G1 X87.502 Y63.960 E0.03611
G1 X86.936 Y63.736 E0.03611
G1 X86.402 Y63.442 E0.03615
G1 X85.905 Y63.080 E0.03649
G1 X85.467 Y62.668 E0.03570
G1 X85.079 Y62.199 E0.03611
G1 X84.752 Y61.685 E0.03611
G1 X84.493 Y61.134 E0.03611
G1 X84.305 Y60.555 E0.03611
G1 X84.191 Y59.958 E0.03611
G1 X84.153 Y59.350 E0.03611
G1 X84.191 Y58.742 E0.03611
G1 X84.305 Y58.145 E0.03611
G1 X84.493 Y57.566 E0.03611
G1 X84.752 Y57.015 E0.03611
G1 X85.079 Y56.501 E0.03611
G1 X85.467 Y56.032 E0.03611
G1 X85.910 Y55.615 E0.03611
G1 X86.403 Y55.258 E0.03611
G1 X86.936 Y54.964 E0.03611
G1 X87.502 Y54.740 E0.03611
G1 X88.092 Y54.589 E0.03611
G1 X88.696 Y54.512 E0.03611
G1 X88.871 Y54.512 E0.01042
G1 X89.304 Y54.512 E0.02569 F1080.000
G1 X89.908 Y54.589 E0.03611
G1 X90.498 Y54.740 E0.03611
G1 X91.064 Y54.964 E0.03611
