; generated by Slic3r 1.3.1-dev (Build 2d100c4) on 2020-05-15 at 13:15:40

; external perimeters extrusion width = 0.44mm (3.91mm^3/s)
; perimeters extrusion width = 0.56mm (5.65mm^3/s)
; infill extrusion width = 0.50mm (5.02mm^3/s)
; solid infill extrusion width = 0.56mm (5.65mm^3/s)
; top infill extrusion width = 0.56mm (5.65mm^3/s)

M107
M190 S60 ; set bed temperature and wait for it to be reached
M104 S215 ; set temperature
G28 ; home all axes
G92 E0.0 ; reset extruder
; Filament gcode

M109 S215 ; set temperature and wait for it to be reached
G21 ; set units to millimeters
G90 ; use absolute coordinates
M83 ; use relative distances for extrusion
G1 E-1.30000 F3600.00000
G1 Z0.300 F7800.000
G1 X61.963 Y33.460 F7800.000
G1 E1.30000 F3600.00000
M201 X500 Y500
M204 P500 T500
G1 F2160.000
G1 X63.606 Y31.356 E0.15840
G1 X64.206 Y30.756 E0.05034
G1 X66.557 Y28.969 E0.17519
G1 X69.300 Y27.874 E0.17519
G1 X71.950 Y27.549 E0.15840
G1 X86.050 Y27.549 E0.83644
G1 X88.976 Y27.947 E0.17519
G1 X91.690 Y29.113 E0.17519
G1 X93.794 Y30.756 E0.15839
G1 X94.394 Y31.356 E0.05034
G1 X96.022 Y33.435 E0.15667
G1 X118.022 Y69.835 E2.52307
G1 X119.195 Y72.546 E0.17519
G1 X119.601 Y75.500 E0.17691
G1 X119.601 Y104.500 E1.72033
G1 X119.203 Y107.426 E0.17519
G1 X118.022 Y110.165 E0.17691
G1 X96.022 Y146.565 E2.52307
G1 X94.394 Y148.644 E0.15667
G1 X93.794 Y149.244 E0.05034
G1 X91.443 Y151.031 E0.17519
G1 X88.700 Y152.126 E0.17519
G1 X86.050 Y152.451 E0.15840
G1 X71.950 Y152.451 E0.83644
G1 X69.024 Y152.053 E0.17519
G1 X66.310 Y150.887 E0.17519
G1 X64.206 Y149.244 E0.15840
G1 X63.606 Y148.644 E0.05034
G1 X61.819 Y146.293 E0.17519
G1 X60.724 Y143.550 E0.17519
G1 X60.399 Y140.900 E0.15840
G1 X60.399 Y39.100 E6.03897
G1 X60.797 Y36.174 E0.17519
G1 X61.939 Y33.516 E0.17163
G1 X62.436 Y33.597 F7800.000
G1 F2160.000
G1 X63.943 Y31.693 E0.14401
G1 X64.543 Y31.093 E0.05034
G1 X66.847 Y29.351 E0.17132
G1 X69.539 Y28.306 E0.17132
G1 X71.950 Y28.024 E0.14401
G1 X86.050 Y28.024 E0.83644
G1 X88.910 Y28.422 E0.17132
G1 X91.553 Y29.586 E0.17132
G1 X93.457 Y31.093 E0.14401
G1 X94.057 Y31.693 E0.05034
G1 X95.615 Y33.681 E0.14987
G1 X117.615 Y70.081 E2.52307
G1 X118.754 Y72.735 E0.17132
G1 X119.126 Y75.500 E0.16548
G1 X119.126 Y104.500 E1.72033
G1 X118.728 Y107.360 E0.17132
G1 X117.615 Y109.919 E0.16548
G1 X95.615 Y146.319 E2.52307
G1 X94.057 Y148.307 E0.14987
G1 X93.457 Y148.907 E0.05034
G1 X91.153 Y150.649 E0.17132
G1 X88.461 Y151.694 E0.17132
G1 X86.050 Y151.976 E0.14401
G1 X71.950 Y151.976 E0.83644
G1 X69.090 Y151.578 E0.17132
G1 X66.447 Y150.414 E0.17132
G1 X64.543 Y148.907 E0.14401
G1 X63.943 Y148.307 E0.05034
G1 X62.201 Y146.003 E0.17132
G1 X61.156 Y143.311 E0.17132
G1 X60.874 Y140.900 E0.14401
G1 X60.874 Y39.100 E6.03897
G1 X61.272 Y36.240 E0.17132
G1 X62.412 Y33.651 E0.16776
G1 F6240.000
G1 X63.800 Y31.876 E-1.23500
G1 E-0.06500 F3600.00000
G1 X82.207 Y127.026 F7800.000
G1 E1.30000 F3600.00000
G1 F1080.000
G1 X82.533 Y127.332 E0.02653
G1 X82.921 Y127.801 E0.03611
G1 X83.248 Y128.315 E0.03611
G1 X83.507 Y128.866 E0.03611
G1 X83.695 Y129.445 E0.03611
G1 X83.809 Y130.042 E0.03611
G1 X83.847 Y130.650 E0.03611
G1 X83.809 Y131.258 E0.03611
G1 X83.695 Y131.855 E0.03611
G1 X83.507 Y132.434 E0.03611
G1 X83.248 Y132.985 E0.03611
G1 X82.921 Y133.499 E0.03611
G1 X82.533 Y133.968 E0.03611
G1 X82.090 Y134.385 E0.03611
G1 X81.597 Y134.742 E0.03610
G1 X81.064 Y135.036 E0.03611
G1 X80.498 Y135.260 E0.03611
G1 X79.908 Y135.411 E0.03611
G1 X79.304 Y135.488 E0.03611
G1 X78.696 Y135.488 E0.03611
G1 X78.092 Y135.411 E0.03611
G1 X77.502 Y135.260 E0.03611
G1 X76.936 Y135.036 E0.03611
G1 X76.403 Y134.742 E0.03611
G1 X75.910 Y134.385 E0.03611
G1 X75.467 Y133.968 E0.03611
G1 X75.079 Y133.499 E0.03611
G1 X74.752 Y132.985 E0.03611
G1 X74.493 Y132.434 E0.03611
G1 X74.305 Y131.855 E0.03611
G1 X74.191 Y131.258 E0.03611
G1 X74.153 Y130.650 E0.03611
G1 X74.191 Y130.042 E0.03611
G1 X74.305 Y129.445 E0.03611
G1 X74.493 Y128.866 E0.03611
G1 X74.752 Y128.315 E0.03611
G1 X75.079 Y127.801 E0.03611
G1 X75.467 Y127.332 E0.03611
G1 X75.910 Y126.915 E0.03611
G1 X76.403 Y126.558 E0.03611
G1 X76.936 Y126.264 E0.03611
G1 X77.502 Y126.040 E0.03611
G1 X78.092 Y125.889 E0.03611
G1 X78.696 Y125.812 E0.03611
G1 X79.304 Y125.812 E0.03611
G1 X79.908 Y125.889 E0.03611
G1 X80.498 Y126.040 E0.03611
G1 X81.064 Y126.264 E0.03611
G1 X81.597 Y126.558 E0.03611
G1 X82.164 Y126.985 E0.04209
G1 X81.882 Y127.373 F7800.000
G1 F1080.000
G1 X82.186 Y127.658 E0.02476
G1 X82.536 Y128.081 E0.03256
G1 X82.830 Y128.544 E0.03256
G1 X83.064 Y129.041 E0.03256
G1 X83.233 Y129.563 E0.03256
G1 X83.336 Y130.102 E0.03256
G1 X83.371 Y130.650 E0.03256
G1 X83.336 Y131.198 E0.03256
G1 X83.233 Y131.737 E0.03256
G1 X83.064 Y132.259 E0.03256
G1 X82.830 Y132.756 E0.03256
G1 X82.536 Y133.219 E0.03256
G1 X82.186 Y133.642 E0.03256
G1 X81.786 Y134.018 E0.03256
G1 X81.342 Y134.340 E0.03255
G1 X80.861 Y134.605 E0.03256
G1 X80.351 Y134.807 E0.03256
G1 X79.819 Y134.943 E0.03256
G1 X79.274 Y135.012 E0.03256
G1 X78.726 Y135.012 E0.03256
G1 X78.181 Y134.943 E0.03256
G1 X77.649 Y134.807 E0.03256
G1 X77.139 Y134.605 E0.03256
G1 X76.658 Y134.340 E0.03256
G1 X76.214 Y134.018 E0.03256
G1 X75.814 Y133.642 E0.03256
G1 X75.464 Y133.219 E0.03256
G1 X75.170 Y132.756 E0.03256
G1 X74.936 Y132.259 E0.03256
G1 X74.767 Y131.737 E0.03256
G1 X74.664 Y131.198 E0.03256
G1 X74.629 Y130.650 E0.03256
G1 X74.664 Y130.102 E0.03256
G1 X74.767 Y129.563 E0.03256
G1 X74.936 Y129.041 E0.03256
G1 X75.170 Y128.544 E0.03256
G1 X75.464 Y128.081 E0.03256
G1 X75.814 Y127.658 E0.03256
G1 X76.214 Y127.282 E0.03256
G1 X76.658 Y126.960 E0.03256
G1 X77.139 Y126.695 E0.03256
G1 X77.649 Y126.493 E0.03256
G1 X78.181 Y126.357 E0.03256
G1 X78.726 Y126.288 E0.03256
G1 X79.274 Y126.288 E0.03256
G1 X79.819 Y126.357 E0.03256
G1 X80.351 Y126.493 E0.03256
G1 X80.861 Y126.695 E0.03256
G1 X81.342 Y126.960 E0.03256
G1 X81.838 Y127.331 E0.03677
G1 X82.261 Y127.244 F7800.000
G1 F6240.000
G1 X82.186 Y127.658 E-0.26161
G1 F6240.000
G1 X82.536 Y128.081 E-0.30080
G1 F6240.000
G1 X82.830 Y128.544 E-0.30082
G1 F6240.000
G1 X83.064 Y129.041 E-0.30082
G1 F6240.000
G1 X83.104 Y129.164 E-0.07095
G1 E-0.06500 F3600.00000
G1 X85.904 Y140.591 F7800.000
G1 E1.30000 F3600.00000
G1 F1620.000
G1 X85.741 Y140.754 E0.01369
G1 X72.259 Y140.754 E0.79980
G1 X72.096 Y140.591 E0.01369
G1 X72.096 Y98.880 E2.47439
G1 X73.730 Y97.246 E0.13711
G1 X107.904 Y97.246 E2.02729
G1 X107.904 Y103.754 E0.38611
G1 X95.183 Y103.754 E0.75464
G1 X85.904 Y113.033 E0.77844
G1 X85.904 Y140.531 E1.63123
G1 F6240.000
G1 X85.741 Y140.754 E-0.15156
G1 F6240.000
G1 X83.764 Y140.754 E-1.08344
G1 E-0.06500 F3600.00000
G1 X108.380 Y104.230 F7800.000
G1 E1.30000 F3600.00000
G1 F1458.000
G1 X95.380 Y104.230 E0.77117
G1 X86.380 Y113.230 E0.75507
G1 X86.380 Y140.788 E1.63479
G1 X85.938 Y141.230 E0.03707
G1 X72.062 Y141.230 E0.82317
G1 X71.620 Y140.788 E0.03707
G1 X71.620 Y98.683 E2.49776
G1 X73.533 Y96.770 E0.16048
G1 X108.380 Y96.770 E2.06720
G1 X108.380 Y104.170 E0.43898
G1 X107.981 Y104.202 F7800.000
G1 X106.836 Y103.329 F7800.000
G1 F1620.000
G1 X107.479 Y102.686 E0.05420
G1 X107.479 Y102.010 E0.04027
G1 X106.160 Y103.329 E0.11115
G1 X105.485 Y103.329 E0.04027
G1 X107.479 Y101.335 E0.16810
G1 X107.479 Y100.659 E0.04027
G1 X104.809 Y103.329 E0.22505
G1 X104.133 Y103.329 E0.04027
G1 X107.479 Y99.983 E0.28201
G1 X107.479 Y99.307 E0.04027
G1 X103.457 Y103.329 E0.33896
G1 X102.782 Y103.329 E0.04027
G1 X107.479 Y98.632 E0.39591
G1 X107.479 Y97.956 E0.04027
G1 X102.106 Y103.329 E0.45286
G1 X101.430 Y103.329 E0.04027
G1 X107.089 Y97.671 E0.47691
G1 X106.413 Y97.671 E0.04027
G1 X100.755 Y103.329 E0.47691
G1 X100.079 Y103.329 E0.04027
G1 X105.737 Y97.671 E0.47691
G1 X105.062 Y97.671 E0.04027
G1 X99.403 Y103.329 E0.47691
G1 X98.727 Y103.329 E0.04027
G1 X104.386 Y97.671 E0.47691
G1 X103.710 Y97.671 E0.04027
G1 X98.052 Y103.329 E0.47691
G1 X97.376 Y103.329 E0.04027
G1 X103.034 Y97.671 E0.47691
G1 X102.359 Y97.671 E0.04027
G1 X96.700 Y103.329 E0.47691
G1 X96.024 Y103.329 E0.04027
G1 X101.683 Y97.671 E0.47691
G1 X101.007 Y97.671 E0.04027
G1 X95.349 Y103.329 E0.47691
G1 X94.936 Y103.329 E0.02460
G1 X85.378 Y112.887 E0.80552
G1 X85.378 Y113.300 E0.02460
G1 X85.479 Y113.199 F7800.000
G1 F1620.000
G1 X72.521 Y126.157 E1.09216
G1 X72.521 Y126.833 E0.04027
G1 X85.479 Y113.874 E1.09216
G1 X85.479 Y114.550 E0.04027
G1 X72.521 Y127.509 E1.09216
G1 X72.521 Y128.184 E0.04027
G1 X85.479 Y115.226 E1.09216
G1 X85.479 Y115.902 E0.04027
G1 X72.521 Y128.860 E1.09216
G1 X72.521 Y129.536 E0.04027
G1 X85.479 Y116.577 E1.09216
G1 X85.479 Y117.253 E0.04027
G1 X76.958 Y125.775 E0.71822
G1 X77.304 Y125.637 E0.02223
G1 X77.932 Y125.476 E0.03860
G1 X85.479 Y117.929 E0.63612
G1 X85.479 Y118.605 E0.04027
G1 X78.696 Y125.387 E0.57167
G1 X79.362 Y125.397 E0.03969
G1 X85.479 Y119.280 E0.51555
G1 X85.479 Y119.956 E0.04027
G1 X79.961 Y125.475 E0.46512
G1 X80.498 Y125.613 E0.03308
G1 X85.479 Y120.632 E0.41980
G1 X85.479 Y121.307 E0.04027
G1 X80.992 Y125.795 E0.37819
G1 X81.216 Y125.883 E0.01437
G1 X81.450 Y126.012 E0.01592
G1 X85.479 Y121.983 E0.33957
G1 X85.479 Y122.659 E0.04027
G1 X81.878 Y126.261 E0.30355
G1 X82.269 Y126.545 E0.02883
G1 X85.479 Y123.335 E0.27056
G1 X85.479 Y124.010 E0.04027
G1 X82.626 Y126.864 E0.24050
G1 X82.830 Y127.056 E0.01673
G1 X82.957 Y127.209 E0.01181
G1 X85.479 Y124.686 E0.21261
G1 X85.479 Y125.362 E0.04027
G1 X83.262 Y127.579 E0.18690
G1 X83.524 Y127.993 E0.02918
G1 X85.479 Y126.038 E0.16479
G1 X85.479 Y126.713 E0.04027
G1 X83.756 Y128.436 E0.14522
G1 X83.899 Y128.741 E0.02004
G1 X83.955 Y128.913 E0.01080
G1 X85.479 Y127.389 E0.12844
G1 X85.479 Y128.065 E0.04027
G1 X84.116 Y129.428 E0.11491
G1 X84.224 Y129.996 E0.03443
G1 X85.479 Y128.741 E0.10578
G1 X85.479 Y129.416 E0.04027
G1 X84.269 Y130.627 E0.10204
G1 X84.233 Y131.338 E0.04244
G1 X85.479 Y130.092 E0.10503
G1 X85.479 Y130.768 E0.04027
G1 X84.050 Y132.197 E0.12048
G1 X83.899 Y132.660 E0.02900
G1 X83.615 Y133.265 E0.03985
G1 X83.540 Y133.383 E0.00830
G1 X85.479 Y131.444 E0.16343
G1 X85.479 Y132.119 E0.04027
G1 X77.269 Y140.329 E0.69195
G1 X77.945 Y140.329 E0.04027
G1 X85.479 Y132.795 E0.63499
G1 X85.479 Y133.471 E0.04027
G1 X78.621 Y140.329 E0.57804
G1 X79.297 Y140.329 E0.04027
G1 X85.479 Y134.147 E0.52109
G1 X85.479 Y134.822 E0.04027
G1 X79.972 Y140.329 E0.46414
G1 X80.648 Y140.329 E0.04027
G1 X85.479 Y135.498 E0.40718
G1 X85.479 Y136.174 E0.04027
G1 X81.324 Y140.329 E0.35023
G1 X81.999 Y140.329 E0.04027
G1 X85.479 Y136.849 E0.29328
G1 X85.479 Y137.525 E0.04027
G1 X82.675 Y140.329 E0.23633
G1 X83.351 Y140.329 E0.04027
G1 X85.479 Y138.201 E0.17937
G1 X85.479 Y138.877 E0.04027
G1 X84.027 Y140.329 E0.12242
G1 X84.702 Y140.329 E0.04027
G1 X85.479 Y139.552 E0.06547
G1 X85.479 Y140.228 E0.04027
G1 X85.378 Y140.329 E0.00852
G1 F6240.000
G1 X85.479 Y140.228 E-0.07831
G1 F6240.000
G1 X85.479 Y139.552 E-0.37036
G1 F6240.000
G1 X84.702 Y140.329 E-0.60207
G1 F6240.000
G1 X84.366 Y140.329 E-0.18426
G1 E-0.06500 F3600.00000
G1 X76.594 Y140.329 F7800.000
G1 E1.30000 F3600.00000
G1 F1620.000
G1 X81.737 Y135.185 E0.43353
G1 X81.317 Y135.417 E0.02858
G1 X80.696 Y135.663 E0.03984
G1 X80.546 Y135.701 E0.00920
G1 X75.918 Y140.329 E0.39008
G1 X75.242 Y140.329 E0.04027
G1 X79.698 Y135.873 E0.37557
G1 X79.385 Y135.913 E0.01884
G1 X78.983 Y135.913 E0.02394
G1 X74.566 Y140.329 E0.37224
G1 X73.891 Y140.329 E0.04027
G1 X78.353 Y135.867 E0.37610
G1 X78.053 Y135.829 E0.01803
G1 X77.784 Y135.760 E0.01653
G1 X73.215 Y140.329 E0.38511
G1 X72.539 Y140.329 E0.04027
G1 X77.262 Y135.606 E0.39808
G1 X76.779 Y135.414 E0.03101
G1 X72.521 Y139.672 E0.35888
G1 X72.521 Y138.996 E0.04027
G1 X76.343 Y135.174 E0.32213
G1 X76.198 Y135.094 E0.00986
G1 X75.937 Y134.905 E0.01925
G1 X72.521 Y138.320 E0.28789
G1 X72.521 Y137.645 E0.04027
G1 X75.557 Y134.608 E0.25594
G1 X75.209 Y134.281 E0.02849
G1 X72.521 Y136.969 E0.22657
G1 X72.521 Y136.293 E0.04027
G1 X74.898 Y133.916 E0.20038
G1 X74.744 Y133.729 E0.01446
G1 X74.614 Y133.524 E0.01443
G1 X72.521 Y135.617 E0.17641
G1 X72.521 Y134.942 E0.04027
G1 X74.357 Y133.105 E0.15480
G1 X74.141 Y132.645 E0.03027
G1 X72.521 Y134.266 E0.13657
G1 X72.521 Y133.590 E0.04027
G1 X73.966 Y132.145 E0.12181
G1 X73.894 Y131.923 E0.01388
G1 X73.833 Y131.602 E0.01948
G1 X72.521 Y132.914 E0.11058
G1 X72.521 Y132.239 E0.04027
G1 X73.752 Y131.007 E0.10381
G1 X73.727 Y130.600 E0.02433
G1 X73.743 Y130.341 E0.01546
G1 X72.521 Y131.563 E0.10302
G1 X72.521 Y130.887 E0.04027
G1 X73.838 Y129.570 E0.11101
G1 X73.894 Y129.276 E0.01787
G1 X74.108 Y128.624 E0.04085
G1 X72.521 Y130.212 E0.13377
G1 X72.521 Y129.536 E0.04027
G1 F6240.000
G1 X72.521 Y130.212 E-0.37036
G1 F6240.000
G1 X73.636 Y129.096 E-0.86464
G1 E-0.06500 F3600.00000
G1 X72.521 Y125.481 F7800.000
G1 E1.30000 F3600.00000
G1 F1620.000
G1 X100.331 Y97.671 E2.34393
G1 X99.656 Y97.671 E0.04027
G1 X72.521 Y124.806 E2.28698
G1 X72.521 Y124.130 E0.04027
G1 X98.980 Y97.671 E2.23002
G1 X98.304 Y97.671 E0.04027
G1 X72.521 Y123.454 E2.17307
G1 X72.521 Y122.778 E0.04027
G1 X97.628 Y97.671 E2.11612
G1 X96.953 Y97.671 E0.04027
G1 X72.521 Y122.103 E2.05917
G1 X72.521 Y121.427 E0.04027
G1 X96.277 Y97.671 E2.00221
G1 X95.601 Y97.671 E0.04027
G1 X72.521 Y120.751 E1.94526
G1 X72.521 Y120.075 E0.04027
G1 X94.925 Y97.671 E1.88831
G1 X94.250 Y97.671 E0.04027
G1 X72.521 Y119.400 E1.83136
G1 X72.521 Y118.724 E0.04027
G1 X93.574 Y97.671 E1.77440
G1 X92.898 Y97.671 E0.04027
G1 X72.521 Y118.048 E1.71745
G1 X72.521 Y117.372 E0.04027
G1 X92.222 Y97.671 E1.66050
G1 X91.547 Y97.671 E0.04027
G1 X72.521 Y116.697 E1.60354
G1 X72.521 Y116.021 E0.04027
G1 X90.871 Y97.671 E1.54659
G1 X90.195 Y97.671 E0.04027
G1 X72.521 Y115.345 E1.48964
G1 X72.521 Y114.670 E0.04027
G1 X89.520 Y97.671 E1.43269
G1 X88.844 Y97.671 E0.04027
G1 X72.521 Y113.994 E1.37573
G1 X72.521 Y113.318 E0.04027
G1 X88.168 Y97.671 E1.31878
G1 X87.492 Y97.671 E0.04027
G1 X72.521 Y112.642 E1.26183
G1 X72.521 Y111.967 E0.04027
G1 X86.817 Y97.671 E1.20488
G1 X86.141 Y97.671 E0.04027
G1 X72.521 Y111.291 E1.14792
G1 X72.521 Y110.615 E0.04027
G1 X85.465 Y97.671 E1.09097
G1 X84.789 Y97.671 E0.04027
G1 X72.521 Y109.939 E1.03402
G1 X72.521 Y109.264 E0.04027
G1 X84.114 Y97.671 E0.97707
G1 X83.438 Y97.671 E0.04027
G1 X72.521 Y108.588 E0.92011
G1 X72.521 Y107.912 E0.04027
G1 X82.762 Y97.671 E0.86316
G1 X82.086 Y97.671 E0.04027
G1 X72.521 Y107.236 E0.80621
G1 X72.521 Y106.561 E0.04027
G1 X81.411 Y97.671 E0.74925
G1 X80.735 Y97.671 E0.04027
G1 X72.521 Y105.885 E0.69230
G1 X72.521 Y105.209 E0.04027
G1 X80.059 Y97.671 E0.63535
G1 X79.383 Y97.671 E0.04027
G1 X72.521 Y104.533 E0.57840
G1 X72.521 Y103.858 E0.04027
G1 X78.708 Y97.671 E0.52144
G1 X78.032 Y97.671 E0.04027
G1 X72.521 Y103.182 E0.46449
G1 X72.521 Y102.506 E0.04027
G1 X77.356 Y97.671 E0.40754
G1 X76.680 Y97.671 E0.04027
G1 X72.521 Y101.830 E0.35059
G1 X72.521 Y101.155 E0.04027
G1 X76.005 Y97.671 E0.29363
G1 X75.329 Y97.671 E0.04027
G1 X72.521 Y100.479 E0.23668
G1 X72.521 Y99.803 E0.04027
G1 X74.653 Y97.671 E0.17973
G1 X73.978 Y97.671 E0.04027
G1 X72.521 Y99.127 E0.12278
G1 X73.877 Y97.772 E0.11427
G1 F6240.000
G1 X72.521 Y99.127 E-1.05090
G1 F6240.000
G1 X72.758 Y98.890 E-0.18410
G1 E-0.06500 F3600.00000
G1 X81.064 Y53.736 F7800.000
G1 E1.30000 F3600.00000
G1 F1080.000
G1 X80.498 Y53.960 E0.03611
G1 X79.908 Y54.111 E0.03611
G1 X79.304 Y54.188 E0.03611
G1 X78.696 Y54.188 E0.03611
G1 X78.092 Y54.111 E0.03611
G1 X77.502 Y53.960 E0.03611
G1 X76.936 Y53.736 E0.03611
G1 X76.403 Y53.442 E0.03611
G1 X75.910 Y53.085 E0.03611
G1 X75.467 Y52.668 E0.03611
G1 X75.079 Y52.199 E0.03611
G1 X74.752 Y51.685 E0.03611
G1 X74.493 Y51.134 E0.03611
G1 X74.305 Y50.555 E0.03611
G1 X74.191 Y49.958 E0.03611
G1 X74.153 Y49.350 E0.03611
G1 X74.191 Y48.742 E0.03611
G1 X74.305 Y48.145 E0.03611
G1 X74.493 Y47.566 E0.03611
G1 X74.752 Y47.015 E0.03611
G1 X75.079 Y46.501 E0.03611
G1 X75.467 Y46.032 E0.03611
G1 X75.910 Y45.615 E0.03611
G1 X76.403 Y45.258 E0.03611
G1 X76.936 Y44.964 E0.03611
G1 X77.502 Y44.740 E0.03611
G1 X78.092 Y44.589 E0.03611
G1 X78.696 Y44.512 E0.03611
G1 X79.304 Y44.512 E0.03611
G1 X79.908 Y44.589 E0.03611
